ias30/Pi0/openpi-main/closed_predictions.csv
joint_0_right_waist,joint_1_right_shoulder,joint_2_right_elbow,joint_3_right_forearm_roll,joint_4_right_wrist_angle,joint_5_right_wrist_rotate,joint_6_left_waist,joint_7_left_shoulder,joint_8_left_elbow,joint_9_left_forearm_roll,joint_10_left_wrist_angle,joint_11_left_wrist_rotate,episode_index,frame_index,gt_joint_0_right_waist,gt_joint_1_right_shoulder,gt_joint_2_right_elbow,gt_joint_3_right_forearm_roll,gt_joint_4_right_wrist_angle,gt_joint_5_right_wrist_rotate,gt_joint_6_left_waist,gt_joint_7_left_shoulder,gt_joint_8_left_elbow,gt_joint_9_left_forearm_roll,gt_joint_10_left_wrist_angle,gt_joint_11_left_wrist_rotate
1.3999516699321473,0.7132513656666941,1.1599106561881674,-0.792604318333042,-0.3088054406411747,0.008351626295649747,-1.387491280474222,-0.7787938657467918,-1.2425013780303202,1.2232723655220648,0.24870132041653464,0.7402338616304208,0,0,0.0,0.0,0.0,0.0,0.0,0.0,0.0,0.0,0.0,0.0,1.7464161e-05,0.0
1.399946681102203,0.7132312133057332,1.159933169114815,-0.7926061479558956,-0.3087977144341121,0.008357807198652365,-1.3875988822820506,-0.7785858338371024,-1.2417839636943901,1.2249876050113373,0.24861697916906036,0.7381688674120738,0,1,0.0,0.0,0.0,0.0,0.0,0.0,3.4928322e-05,-1.7404556e-05,-1.7642975e-05,0.0,-1.7464161e-05,1.7404556e-05
1.3999363059870524,0.713254145767144,1.159902298710972,-0.7926068601009186,-0.3088006735273103,0.008366673276284079,-1.3880444232098148,-0.7783178086445566,-1.2433310765347247,1.2219996753721,0.2485213285908676,0.7414160478507997,0,2,0.0,0.0,0.0,0.0,0.0,0.0,-3.4928322e-05,0.0,5.2571297e-05,0.0,0.0,-1.7404556e-05
1.3999352608353437,0.7132590540279775,1.1599017258577327,-0.7925757471339341,-0.30880332644968356,0.008349758841933052,-1.3895373660287822,-0.7804237375507583,-1.244428154823822,1.210656885606603,0.24953813099348182,0.7534248025846202,0,3,0.0,0.0,0.0,0.0,0.0,0.0,0.0,0.0,-5.2571297e-05,3.4928322e-05,0.0,0.0
1.3999660263177396,0.7132594403950117,1.159899073239274,-0.7925983503008943,-0.3087969696042674,0.008358056237229445,-1.387652658387282,-0.7786933627568609,-1.2433354577250435,1.2231985681119555,0.24869002468205728,0.7400659557845775,0,4,0.0,0.0,0.0,0.0,0.0,0.0,3.4928322e-05,0.0,0.0,-5.2332878e-05,0.0,1.7404556e-05
1.3999487694702613,0.7132635117267734,1.159934870580725,-0.7925798364992153,-0.3088129161092291,0.008362764380441347,-1.3879910071685793,-0.7784922662852669,-1.2429941749005788,1.2230380822145774,0.2488955202268781,0.7402094559827133,0,5,0.0,0.0,0.0,0.0,0.0,0.0,-3.4928322e-05,0.0,1.7642975e-05,0.0,-1.744926e-05,-1.7404556e-05
1.3999442433552163,0.7132534411845646,1.1599278989325088,-0.7925856269556406,-0.30881032569261513,0.0083702886091036,-1.387554501979149,-0.7784545304745631,-1.2429550580980984,1.2236937057274042,0.2487929191134493,0.7393957535829097,0,6,0.0,0.0,0.0,0.0,0.0,0.0,0.0,-3.4987926e-05,3.4928322e-05,0.0,0.0,1.7404556e-05
1.3999539919901545,0.7132539072369328,1.159916329280353,-0.7925910700318899,-0.3088136231678749,0.008386236974844077,-1.3876144262254126,-0.7781431207696747,-1.2433688849101936,1.2226733469691546,0.2487409265718005,0.7406450148496785,0,7,0.0,0.0,0.0,0.0,0.0,0.0,0.0,3.4987926e-05,-5.2571297e-05,0.0,1.744926e-05,-3.4928322e-05
1.3999496682972625,0.7132379843776591,1.1598773232710806,-0.7925939640164759,-0.3088174317494693,0.008352217139524708,-1.3873698181349317,-0.7786663112018768,-1.243303089728996,1.2232723076268315,0.24867795826459121,0.7400535019974047,0,8,0.0,0.0,0.0,0.0,0.0,0.0,0.0,-3.4987926e-05,1.7642975e-05,1.7404556e-05,-1.744926e-05,1.7523766e-05
1.3999407904527221,0.7132450420990131,1.1598862358458077,-0.7925630173635866,-0.308802093303383,0.008351348450427244,-1.3879338242454344,-0.7791016183929405,-1.242088101240155,1.2242464770621384,0.2484486391166282,0.738490480186994,0,9,0.0,0.0,0.0,0.0,0.0,0.0,0.0,3.4987926e-05,0.0,-1.7404556e-05,1.744926e-05,1.7404556e-05
1.3999372917168975,0.7132561320459424,1.1599041838327644,-0.7925901689022213,-0.30879872361760086,0.008371592571274677,-1.388151557648824,-0.7789574465035553,-1.2430456591055346,1.2224941264126952,0.24858041194327551,0.7406100550697542,0,10,0.0,0.0,0.0,0.0,0.0,0.0,0.0,0.0,-1.7642975e-05,1.7404556e-05,-1.744926e-05,0.0
1.3999569518478008,0.7132425540699802,1.159918417195802,-0.7925865238994892,-0.30879510710454794,0.00833584746214498,-1.387618081293646,-0.7786650666156194,-1.2431858166448442,1.2229313725589035,0.24907187911342604,0.7405805478114712,0,11,0.0,0.0,0.0,0.0,0.0,0.0,0.0,1.7404556e-05,1.7642975e-05,0.0,0.0,-1.7404556e-05
1.3999702035833763,0.713260612603604,1.1599276279971522,-0.7925701430201467,-0.30880064008363395,0.008357652439844163,-1.3879038374846502,-0.7788061774740326,-1.2433975973716491,1.2227813292110663,0.24859136134567789,0.7406898223025338,0,12,0.0,0.0,0.0,0.0,0.0,0.0,0.0,-1.7404556e-05,0.0,-1.7404556e-05,0.0,0.0
1.399940143451737,0.7132620229478309,1.1599293499484098,-0.7925847795256611,-0.30880142062812543,0.008355657055721917,-1.3883697970097595,-0.7792556234918983,-1.2430933965998778,1.2219121306013199,0.2487001137667334,0.7411893923975376,0,13,0.0,0.0,0.0,0.0,0.0,0.0,0.0,0.0,-1.7642975e-05,0.0,0.0,0.0
1.3999638962704741,0.7132646609347976,1.1599003769404141,-0.7925973905939844,-0.3087975135296682,0.008371760697671512,-1.3883103223603992,-0.7786633805818951,-1.2428715350442454,1.223294476935346,0.24819457999825648,0.7388951536149302,0,14,0.0,0.0,0.0,0.0,0.0,0.0,3.4928322e-05,0.0,1.7642975e-05,1.7404556e-05,0.0,0.0
1.3999576858523133,0.7132474314843966,1.159903638686111,-0.7925845404696588,-0.30880831412363297,0.008368585962959864,-1.388005100550013,-0.7787900450506264,-1.242367958139913,1.223930284726306,0.24850330839759693,0.7398646618438728,0,15,0.0,0.0,0.0,0.0,0.0,0.0,0.0,-3.4987926e-05,3.4928322e-05,0.0,1.744926e-05,0.0
1.3999721828814575,0.713260367174714,1.1599096907721347,-0.7926039233519818,-0.3088200554997536,0.008389907512010375,-1.387936754735397,-0.7787697452704617,-1.2429060128968528,1.2229956228308045,0.24867716912739185,0.7402134490750332,0,16,0.0,0.0,0.0,0.0,0.0,0.0,-3.4928322e-05,3.4987926e-05,-3.4928322e-05,0.0,0.0,0.0
1.3999477426298836,0.7132558571988484,1.1599247372791839,-0.7925776087964895,-0.3088115749165664,0.008364730720193425,-1.3876330571217237,-0.7786592547352275,-1.2430525823532241,1.2220617507784506,0.24854899584653006,0.7406116960095995,0,17,0.0,0.0,0.0,0.0,0.0,0.0,0.0,0.0,0.0,-1.7404556e-05,0.0,0.0
1.3999477689045274,0.7132444082782334,1.1599028914230836,-0.7925951088839259,-0.3088209452466021,0.008359476417900363,-1.388039326538785,-0.7786268782027431,-1.2439138600281314,1.2223532904431926,0.24893815912003017,0.7403250731152751,0,18,0.0,0.0,0.0,0.0,0.0,0.0,0.0,-3.4987926e-05,0.0,1.7404556e-05,0.0,0.0
1.399946886130938,0.7132813962048656,1.1598900953210067,-0.7925958910952873,-0.308811698973457,0.008357016498186926,-1.3881452549185984,-0.7787257288028706,-1.2430036342668191,1.2230272187942215,0.24912052099361118,0.7406076904702391,0,19,0.0,0.0,0.0,0.0,0.0,0.0,0.0,3.4987926e-05,0.0,0.0,0.0,0.0
1.399958698730324,0.7132758033899954,1.1599211431942953,-0.7925864956857573,-0.30880580940352625,0.008342602853560189,-1.387709830623848,-0.7778214624581897,-1.243918081293846,1.2223121131560868,0.2486577016926729,0.7402310450675855,0,20,0.0,0.0,0.0,0.0,0.0,0.0,0.0,-3.4987926e-05,0.0,-1.7404556e-05,-1.744926e-05,1.7404556e-05
1.39992884833437,0.7132290513194492,1.159899439663533,-0.7925831782900963,-0.3088402668873022,0.0083748371019711,-1.3882592058334102,-0.7789639074194307,-1.2436104625985578,1.2225866745494312,0.24880513052828498,0.740398419398334,0,21,0.0,0.0,0.0,0.0,0.0,0.0,3.4928322e-05,3.4987926e-05,0.0,0.0,1.744926e-05,-1.7404556e-05
1.3999554718649068,0.7132428355509929,1.1599121658950446,-0.7925772394076633,-0.30880823095539833,0.008339191005663315,-1.3881376681904598,-0.7785914533681348,-1.242492293940886,1.2226953305638413,0.2485366578885355,0.7404166393580437,0,22,0.0,0.0,0.0,0.0,0.0,0.0,-5.2332878e-05,0.0,0.0,1.7404556e-05,-1.744926e-05,1.7404556e-05
1.3999324237518067,0.7132407074651896,1.1598980074241578,-0.7925857577135723,-0.3088210180719459,0.008377500603561589,-1.3877835658820354,-0.7787598807750947,-1.2431870863836807,1.2231584916203457,0.24873662586194115,0.7398120583170935,0,23,0.0,0.0,0.0,0.0,0.0,0.0,1.7404556e-05,0.0,3.4928322e-05,0.0,0.0,-1.7404556e-05
1.399940915420425,0.7132506120102695,1.1598916358370108,-0.7925786670575525,-0.30882635384064416,0.00835320089858521,-1.3877848369782593,-0.7788175603624884,-1.2436034682702657,1.2239710656928973,0.24875642107859255,0.7393016567336852,0,24,0.0,0.0,0.0,0.0,0.0,0.0,0.0,0.0,-5.2571297e-05,0.0,0.0,0.0
1.3999406845924953,0.7132539429459861,1.1599381076683064,-0.792572992823356,-0.30880540670340384,0.008378501385578253,-1.387838800522887,-0.7786459619516449,-1.242852390581456,1.2231956455735034,0.2485281398562189,0.7395458892823153,0,25,0.0,0.0,0.0,0.0,0.0,0.0,3.4928322e-05,0.0,1.7642975e-05,-1.7404556e-05,1.744926e-05,0.0
1.3999436968232335,0.7132809647652201,1.1598972520328088,-0.7925898934230592,-0.30879412712857374,0.008348764503655324,-1.3876329099985008,-0.778497482783257,-1.243688795901184,1.2230249636582775,0.24862113774992087,0.739659358063712,0,26,0.0,0.0,0.0,0.0,0.0,0.0,-3.4928322e-05,-3.4987926e-05,0.0,1.7404556e-05,0.0,1.7404556e-05
1.3999464273464213,0.7132446786132186,1.1599043099033235,-0.7925961383271564,-0.30882897465246417,0.008368399556928615,-1.3877201281964706,-0.7785461832221501,-1.2434300825217672,1.223164723102402,0.24888847423348776,0.7401269457419767,0,27,0.0,0.0,0.0,0.0,0.0,0.0,3.4928322e-05,3.4987926e-05,0.0,0.0,0.0,-1.7404556e-05
1.399941854521727,0.7132576168429955,1.159911384134894,-0.7925967818545635,-0.30882049117183186,0.00835461296864722,-1.3877786489602568,-0.7786313470566024,-1.2427614098579272,1.2244788117733736,0.2483139735646282,0.738877426469452,0,28,0.0,0.0,0.0,0.0,0.0,0.0,0.0,0.0,0.0,0.0,0.0,1.7404556e-05
1.3999542429827356,0.713252726045142,1.159919837138282,-0.7925764839277502,-0.3088137270899458,0.008349516291843096,-1.3877184345371956,-0.7782995511804588,-1.2422282863132361,1.2234636776149808,0.24856213348698725,0.7394023043258141,0,29,0.0,0.0,0.0,0.0,0.0,0.0,0.0,1.7404556e-05,0.0,0.0,-1.744926e-05,-1.7404556e-05
1.3999446020510902,0.7132523095476618,1.1598930890642178,-0.7925850468065824,-0.3087994589272688,0.008358303400111684,-1.3873950223511273,-0.7782416185908108,-1.2437973791286467,1.2239493819253544,0.24858789898424635,0.7387036079917026,0,30,0.0,0.0,0.0,0.0,0.0,0.0,-3.4928322e-05,-1.7404556e-05,0.0,-1.7404556e-05,0.0,0.0
1.399969481681384,0.7132477087292477,1.159930555162519,-0.7925924570466961,-0.3087910033023829,0.008340034880026543,-1.3881122391758125,-0.778540912513343,-1.2446989708209224,1.218509889074678,0.24900326284304622,0.7448148570287145,0,31,0.0,0.0,0.0,0.0,0.0,0.0,0.0,0.0,0.0,1.7404556e-05,3.491342e-05,0.0
1.3999589240421073,0.7132643537534095,1.1599124838085395,-0.7925964311331894,-0.3087958802805046,0.008376720907421151,-1.3886716507666734,-0.778978226604284,-1.2435700221291768,1.2193826430973462,0.2487988832024622,0.7429888126911457,0,32,0.0,0.0,0.0,0.0,0.0,0.0,-1.7404556e-05,0.0,0.0,0.0,-1.7464161e-05,1.7404556e-05
1.3999396785292604,0.7132429616625711,1.1599035384296623,-0.7925874763124447,-0.30882052862606446,0.0083640431717572,-1.387667349269363,-0.7784923566383809,-1.2429001184178023,1.2231081944982123,0.24883676465640264,0.740165747657616,0,33,0.0,0.0,0.0,0.0,0.0,0.0,1.7404556e-05,0.0,0.0,0.0,0.0,-1.7404556e-05
1.3999405849373505,0.7132502157799891,1.1598948659662491,-0.7925930951595727,-0.3088034145402188,0.00835432363432769,-1.3880339854821646,-0.7793753667447836,-1.2424630630705038,1.223215998019027,0.24869428321086368,0.739931220878751,0,34,0.0,0.0,0.0,0.0,0.0,0.0,0.0,0.0,0.0,0.0,0.0,0.0
1.3999462820304127,0.7132264039421222,1.1599076013319845,-0.7925959688769589,-0.30880532324430593,0.008374606775594243,-1.3871884183448844,-0.7781420224784305,-1.2432355658538037,1.2250290124824081,0.24911014533335177,0.7384104984026653,0,35,0.0,0.0,0.0,0.0,0.0,0.0,0.0,0.0,0.0,0.0,0.0,0.0
1.399954313390279,0.7132306293940983,1.1599127444741872,-0.7925921137908112,-0.30882844680284954,0.008364915157304444,-1.3878104073190345,-0.7786473696754691,-1.2434236762396584,1.222001431822159,0.24856830773861616,0.7407694063279888,0,36,0.0,0.0,0.0,0.0,0.0,0.0,0.0,0.0,0.0,0.0,-1.744926e-05,0.0
1.399935293419482,0.7132533505620278,1.1599138481807632,-0.7925894981511358,-0.30882582682632903,0.008373028973163405,-1.3880643023552883,-0.7786903635354407,-1.2438776519819954,1.2227858176681596,0.2490443155528521,0.7407967334376345,0,37,0.0,0.0,0.0,0.0,0.0,0.0,0.0,0.0,3.4928322e-05,5.2332878e-05,0.0,0.0
1.3999687361728583,0.7132561139042816,1.159890473558787,-0.7925738537402527,-0.30882065416337423,0.008343660238304474,-1.3876590673975773,-0.7784853461848914,-1.243145085303372,1.2229924903707818,0.24861679652062058,0.7404147107650184,0,38,0.0,0.0,0.0,0.0,0.0,0.0,0.0,0.0,0.0,0.0,0.0,0.0
1.3999474419183375,0.713262085926476,1.1599115138393787,-0.7925954325177308,-0.30879237443531177,0.008351349177585283,-1.3879779304745792,-0.7788989821826352,-1.2426422786287006,1.224226399893458,0.2485229884951246,0.7389758105143203,0,39,0.0,0.0,0.0,0.0,0.0,0.0,0.000104665756,-3.4987926e-05,1.7404556e-05,0.00019204617,1.744926e-05,-6.9856644e-05
1.3999462936351093,0.7132580844335827,1.1599077737336976,-0.7925718553617309,-0.30880128989629696,0.008364628168069592,-1.3881926615885014,-0.7789946330555128,-1.2433996860382852,1.2199798141903953,0.2485417284026116,0.7431270154996605,0,40,0.0,0.0,0.0,0.0,0.0,0.0,6.997585e-05,3.4987926e-05,3.4928322e-05,0.00012207031,-1.744926e-05,-1.7464161e-05
1.3999363730217012,0.7132832890755526,1.1599004951352923,-0.7925740231708728,-0.30880575742477795,0.008341536452056209,-1.3877366326363394,-0.7782504551388866,-1.2431367974666216,1.2238244470840902,0.24843408489580868,0.739668534409463,0,41,0.0,0.0,0.0,0.0,0.0,0.0,0.0,0.0,0.0,0.0,0.0,0.0
1.3999551488538475,0.7132633384692512,1.1599104891021659,-0.7925714768442746,-0.3088006860996863,0.008357761006870142,-1.3876381992559026,-0.7786929935361113,-1.2427952561593665,1.2230222170480005,0.24868684431048566,0.7414786189409815,0,42,0.0,0.0,0.0,0.0,0.0,0.0,0.0021291971,0.0019372702,-0.00027930737,0.005707383,0.00022688508,-0.004415691
1.3999394011352488,0.7132412348039291,1.1599362786495535,-0.7925794775516327,-0.30881494976796736,0.008379650556312242,-1.3863046529648952,-0.7762935555987036,-1.244310608252957,1.2258127510330517,0.24910352664914953,0.7393021969244615,0,43,0.0,0.0,0.0,0.0,0.0,0.0,0.0,0.0,0.0,0.0,0.0,0.0
1.399963477595249,0.7132367140884986,1.159892077919267,-0.7925814000157874,-0.3088208061543206,0.008355154503749051,-1.3852601185860807,-0.776937841065716,-1.2437140913390101,1.2281636307797668,0.2489582735569215,0.7361768915014311,0,44,0.0,0.0,0.0,0.0,0.0,0.0,0.0061610937,0.004363358,0.00012218952,0.028832793,0.00443314,-0.028134704
1.3999379740223379,0.7132422489992148,1.1598902000485452,-0.7925938404667314,-0.3088090765516345,0.008344123538659255,-1.3798168202101369,-0.772471858340862,-1.2440157384122348,1.2552281671593042,0.25349059392493956,0.710081223493975,0,45,0.0,0.0,0.0,0.0,0.0,0.0,0.0,0.0,0.0,0.0,0.0,0.0
1.3999369948126765,0.7132513114990137,1.1599124694518295,-0.7925842327997695,-0.30880903362973283,0.008361807962523142,-1.3793484767908462,-0.7721812955544393,-1.2447148953090523,1.2558064822568618,0.25380788419926154,0.7095125981584047,0,46,0.0,0.0,0.0,0.0,0.0,0.0,0.0,0.0,0.0,0.0,0.0,0.0
1.3999503215685876,0.7132834469844467,1.1599250487862303,-0.7925837328059013,-0.30882140447487183,0.00836033080995206,-1.3797287536453986,-0.7720845429860295,-1.2445429224315108,1.254250133253685,0.2531630527759732,0.7105824921268719,0,47,0.0,0.0,0.0,0.0,0.0,0.0,0.010506749,0.0054104924,0.0071558952,0.055239677,0.007731825,-0.05211556
1.3999195369115935,0.713265665725506,1.1598711856321169,-0.7925713888245907,-0.30883896631107727,0.008360342302778104,-1.3691607773057224,-0.7658889950110165,-1.2368006597243215,1.3116979906145647,0.2610416323063196,0.6561255039900348,0,48,0.0,0.0,0.0,0.0,0.0,0.0,0.0,0.0,0.0,0.0,0.0,0.0
1.399945768269019,0.7132491692970219,1.1599141892700902,-0.7925930049882468,-0.3088214565878647,0.008357787953202913,-1.3682760549802662,-0.7667979579339194,-1.2360829106624756,1.3119685711867648,0.26137143629302356,0.6559367727795945,0,49,0.0,0.0,0.0,0.0,0.0,0.0,0.012269735,0.0056374073,0.0117634535,0.06312847,0.010105431,-0.05850339
1.3999504521661714,0.7132352047806262,1.1599103314058257,-0.7925882443330373,-0.30879981105075277,0.008348758980983237,-1.354082638793465,-0.7596380645014077,-1.2250737911612275,1.382190143113067,0.2728616729905465,0.5909316291727239,0,50,0.0,0.0,0.0,0.0,0.0,0.0,0.008813858,0.0039619207,0.008918643,0.045832396,0.008168161,-0.04729843
1.3999508650726096,0.7132671803546837,1.159894083370799,-0.7925777600379038,-0.3088199471009994,0.008360589857206979,-1.3476967117429857,-0.75708549057925,-1.215726948443009,1.421415936175458,0.2790382296779954,0.5498882782466689,0,51,0.0,0.0,0.0,0.0,0.0,0.0,0.003071785,0.001413703,0.0032986403,0.017086864,0.0030193925,-0.016982079
1.3999386004372927,0.7132658298096499,1.1598887328916003,-0.7925724925386246,-0.30881855370211847,0.008348649627601096,-1.343727811333952,-0.7566643067510163,-1.210151411776323,1.4444422957381922,0.2817343718140476,0.5265546102044997,0,52,0.0,0.0,0.0,0.0,0.0,0.0,0.0,0.0,0.0,0.0,0.0,0.0
1.3999472652375788,0.7132394207422575,1.1599288363324476,-0.7925828197937246,-0.3088314593253831,0.008350817443268673,-1.344520565971971,-0.7563896561518766,-1.2115569389134415,1.437691092415868,0.2816519219158365,0.5336439590621257,0,53,0.0,0.0,0.0,0.0,0.0,0.0,0.006824255,0.0031067133,0.005253434,0.033998966,0.0053756237,-0.030735254
1.3999463779733226,0.7132436793078921,1.1599036064245325,-0.7925910964072171,-0.30883012407677124,0.008363627252274493,-1.3371890263966633,-0.7530760564775338,-1.204802801509761,1.476750369739878,0.2873176617333258,0.4983332712911751,0,54,0.0,0.0,0.0,0.0,0.0,0.0,0.001902461,0.0013613105,0.00012218952,0.0060563087,0.0012391806,-0.0068241954
1.3999507477801534,0.7132433188463292,1.1599046402717306,-0.7925901271540273,-0.3088315479417095,0.008363584122480193,-1.3360129561452598,-0.7527129468701252,-1.203204036617867,1.486296420504207,0.2870946461658684,0.48797353007978356,0,55,0.0,0.0,0.0,0.0,0.0,0.0,0.0,0.0,0.0,0.0,0.0,0.0
1.3999602811874987,0.7132522019953943,1.1599180954101902,-0.7925946705530594,-0.30881574354580293,0.008349773042024413,-1.336086284240744,-0.7512908900861366,-1.2069668691566724,1.4789821328557282,0.28817677208041476,0.49545809430434407,0,56,0.0,0.0,0.0,0.0,0.0,0.0,0.0005759001,0.0031067133,-0.0064228773,-0.01022768,0.00085523725,0.01059413
1.3999487801054136,0.7132295240243813,1.1599071689246592,-0.7925895229901087,-0.30880801203608016,0.00835079667171959,-1.3356337941790402,-0.748400527822229,-1.2130811031086748,1.4668258988420888,0.28978767650400744,0.5067150588257104,0,57,0.0,0.0,0.0,0.0,0.0,0.0,0.0,0.0,0.0,0.0,0.0,0.0
1.3999414428225576,0.7132493188324115,1.1598926824821902,-0.7925872021179284,-0.3088172865005831,0.008338115218227098,-1.3351181342283625,-0.7480018834697033,-1.213840536704555,1.4679713862075305,0.2900620027395607,0.5061570009758922,0,58,0.0,0.0,0.0,0.0,0.0,0.0,0.0,0.0,0.0,0.0,0.0,0.0
1.399942022450486,0.7132535761600128,1.159896269433472,-0.7925800187632425,-0.3088096776978473,0.008336546454930047,-1.335432520337921,-0.7482946434542262,-1.2133805842450347,1.468181659011019,0.289491586602664,0.5058150680976469,0,59,0.0,0.0,0.0,0.0,0.0,0.0,-3.4928322e-05,0.0044505596,-0.014521003,-0.030682921,0.0013788044,0.03256786
1.3999428155226052,0.7132489446629874,1.1599386200164032,-0.7925844005252972,-0.30883228199842816,0.00834621863386158,-1.3356033148681217,-0.7444749508014711,-1.2278275935885379,1.436120649444927,0.2910932335355721,0.5403608604171234,0,60,0.0,0.0,0.0,0.0,0.0,0.0,0.00041890144,0.006091237,-0.016475916,-0.028885126,0.0026703477,0.030682921
1.3999367297728935,0.7132473457990764,1.159897873566482,-0.7925656563879188,-0.30881404735085616,0.008346935179123023,-1.3348383621624105,-0.7372742962750192,-1.245002682584105,1.4068526833230937,0.29370326496399607,0.569764857449253,0,61,0.0,0.0,0.0,0.0,0.0,0.0,0.0,0.0,0.0,0.0,0.0,0.0
1.3999511183697224,0.7132641620167504,1.1598759389933717,-0.792576456139126,-0.30882519562331834,0.008346923570697495,-1.334960620958106,-0.7378133259416793,-1.2439162273473567,1.4100572134610634,0.2934011739290953,0.5677658374527373,0,62,0.0,0.0,0.0,0.0,0.0,0.0,0.0016231537,0.007976115,-0.016982198,-0.027541399,0.0029845238,0.029722929
1.3999342531052388,0.7132492127642921,1.159899277397284,-0.7925711108861427,-0.3088135497323709,0.008353691845861563,-1.333355538570224,-0.7296100828361168,-1.2627887034197836,1.3803555944992179,0.29693555006076877,0.6001325500572796,0,63,0.0,0.0,0.0,0.0,0.0,0.0,0.0,0.0,0.0,0.0,0.0,0.0
1.3999606278684844,0.7132453896246209,1.1599058409457632,-0.7925927760266896,-0.3088215271445686,0.008346239240401725,-1.3329828253140028,-0.7299657896599333,-1.2613062767227115,1.3806203709549174,0.2968347874341639,0.5993922412415901,0,64,0.0,0.0,0.0,0.0,0.0,0.0,0.000977397,0.0046949387,-0.009878397,-0.014643192,0.002233982,0.01579523
1.3999223132457377,0.7132574228185854,1.159895026712924,-0.7925836730223235,-0.3088176430988858,0.008367773188586647,-1.3315887952680436,-0.7248990991672575,-1.27141765263946,1.3680264846336236,0.2994624137422973,0.613409880619122,0,65,0.0,0.0,0.0,0.0,0.0,0.0,0.00038397312,0.00094246864,-0.0017977953,-0.0027053356,0.00038400292,0.0031764507
1.3999436975107709,0.7132502643616042,1.1599212591070158,-0.792589186025073,-0.30880841167840983,0.008345369130549321,-1.3317556594001294,-0.7243995927574155,-1.272933791128271,1.3642024922071407,0.29947886444915334,0.6172671735625306,0,66,0.0,0.0,0.0,0.0,0.0,0.0,0.00071561337,0.0005236268,-0.0009599924,-0.0012739897,0.00047126412,0.0017802715
1.399947422900358,0.7132381679962511,1.1599084563822073,-0.7925825485227566,-0.30882070017569757,0.008354823396996894,-1.3317026004301225,-0.7238481230009602,-1.274207078182289,1.3612652285266844,0.29991506039537225,0.6211874417679208,0,67,0.0,0.0,0.0,0.0,0.0,0.0,0.0,0.0,0.0,0.0,0.0,0.0
1.3999548945349845,0.7132749597300506,1.1598987069306148,-0.7925829351923072,-0.3088269767354081,0.00834625036032621,-1.3310545457856577,-0.7236444517444875,-1.274435519321808,1.3604402519029524,0.3000884254018629,0.6216026310804579,0,68,0.0,0.0,0.0,0.0,0.0,0.0,0.0018849373,0.0,0.0013439655,0.0048519373,0.0010646284,-0.0048345923
1.399951062225664,0.7132501609420181,1.1599112732610057,-0.79256583870322,-0.30882067476991437,0.008369674543716314,-1.329847592201463,-0.7235956376380949,-1.2737015494156567,1.3645504294098976,0.30114824211654684,0.6170755223491087,0,69,0.0,0.0,0.0,0.0,0.0,0.0,0.0,0.0,0.0,0.0,0.0,0.0
1.3999509199189708,0.7132582528191461,1.1599348168232364,-0.7925874001510304,-0.308799830232809,0.008356845450106377,-1.329598190557754,-0.723809041653915,-1.2730868103947772,1.3665397131461359,0.3010528971189331,0.6160086706985133,0,70,0.0,0.0,0.0,0.0,0.0,0.0,0.0017453432,-1.7464161e-05,0.0013438463,0.0039269924,0.0014660656,-0.0032113194
1.3999353227295446,0.713240141807086,1.1598953875921367,-0.792575455509999,-0.3088247445802378,0.008363597931024917,-1.3282711683117225,-0.7232415573906148,-1.271574910605045,1.3714473964655138,0.30266552748197323,0.6117139467153221,0,71,0.0,0.0,0.0,0.0,0.0,0.0,0.002233982,0.0019198656,-0.0050438643,-0.0031241179,0.0019373,0.0044505
1.39995170467725,0.7132483435307584,1.1598875353890954,-0.7925918055429246,-0.30883325636782744,0.00833964681069676,-1.3255566256060243,-0.7215580501333186,-1.2764352350850445,1.3679696749473185,0.3045104868568008,0.6163711658824155,0,72,0.0,0.0,0.0,0.0,0.0,0.0,0.0008727312,0.0021642447,-0.0041189194,-0.0043284893,0.0010123253,0.0040492415
1.3999493395994544,0.7132295646221741,1.1598847484570889,-0.7925797790649172,-0.30880050677132664,0.008361316179947295,-1.3241801835408165,-0.7195204674252139,-1.2809584158592169,1.3638045903244453,0.30558946737809645,0.6198817309800618,0,73,0.0,0.0,0.0,0.0,0.0,0.0,0.0,0.0,0.0,0.0,0.0,0.0
1.3999349805103258,0.7132361224130532,1.1599071383430024,-0.7926015132742907,-0.30880910952452256,0.008358334966228642,-1.3245103454775267,-0.719210848776653,-1.2809780493937606,1.3634212993588455,0.30548073429002354,0.6200302197427258,0,74,0.0,0.0,0.0,0.0,0.0,0.0,0.0023386478,0.007243097,-0.012269735,-0.013788104,0.004049152,0.015934825
1.399946606723258,0.7132651864304711,1.1598838127948714,-0.7925652517449793,-0.3088241845678637,0.008338544163161257,-1.3221578317430116,-0.7120471714859474,-1.2931486644515182,1.3502351528357448,0.30927502138370055,0.6358518025890788,0,75,0.0,0.0,0.0,0.0,0.0,0.0,0.0,0.0,0.0,0.0,0.0,0.0
1.3999398448097946,0.713249776745271,1.1598960600753498,-0.7925655676671799,-0.3088218778435687,0.008378457942546646,-1.3229238753008352,-0.712120936995161,-1.293648019730081,1.3481362308155729,0.30925392997844214,0.6377516946241301,0,76,0.0,0.0,0.0,0.0,0.0,0.0,0.0039271116,0.014172077,-0.026494145,-0.02935636,0.0069289505,0.033178687
1.3999473314089605,0.7132599658282242,1.1598947711784018,-0.7925855666015234,-0.30882960552732147,0.008362220919302964,-1.3185633610721472,-0.6979518214831555,-1.3201792898922267,1.3188290978932853,0.31647246335870594,0.6712174932748555,0,77,0.0,0.0,0.0,0.0,0.0,0.0,0.0007853508,0.0027925372,-0.0050439835,-0.0060214996,0.0013264418,0.0064751506
1.3999605882905775,0.7132360539930752,1.159888448349066,-0.792587013041922,-0.3088097299562717,0.008344577993789057,-1.3180345438401027,-0.6956197810903272,-1.3244121075040707,1.3140784180656695,0.3178205451652588,0.6762842524058713,0,78,0.0,0.0,0.0,0.0,0.0,0.0,0.0005584955,0.002094388,-0.0033335686,-0.0042409897,0.0007504821,0.004118979
1.3999454430764855,0.7132457473453573,1.1598728018322213,-0.7925800499051839,-0.30881289980597293,0.008354744222537914,-1.3171166160696441,-0.6936371444188033,-1.328010263349066,1.309104369647519,0.3184723164521827,0.6804902967811981,0,79,0.0,0.0,0.0,0.0,0.0,0.0,0.00071549416,0.0025132895,-0.0040841103,-0.0052535534,0.0012392104,0.0066148043
1.3999561191660779,0.7132493681262686,1.1598941783171295,-0.7925936231098707,-0.3088119925141061,0.008346355100916067,-1.316878495203281,-0.6904415312860229,-1.3335729435148553,1.303059138732076,0.31970066111879264,0.6875539214224947,0,80,0.0,0.0,0.0,0.0,0.0,0.0,0.00013971329,0.0001745224,-0.00040137768,-0.0006980896,8.72612e-05,0.0006457567
1.3999397361350931,0.7132359793232671,1.1598949151146745,-0.7925875653315049,-0.3088231440904761,0.008355569625222424,-1.3161592936934834,-0.6903180173709283,-1.3325166311756755,1.3042036975732374,0.3201530306843177,0.6872387280219192,0,81,0.0,0.0,0.0,0.0,0.0,0.0,3.4928322e-05,0.0,1.7404556e-05,3.4809113e-05,1.7464161e-05,0.0
1.3999427426278086,0.713250654946155,1.1599134686117245,-0.7925883652090776,-0.30882833746065447,0.008349231313013772,-1.3158586083712212,-0.6894679379070018,-1.3342947043947777,1.3026972076255061,0.3204625506251184,0.6887010788457806,0,82,0.0,0.0,0.0,0.0,0.0,0.0,0.0,-0.00022691488,0.0010995865,0.0012916327,0.0,-0.0010820627
1.3999284098058657,0.7132486701701498,1.1599033967830052,-0.7925750333928924,-0.3088245666950072,0.008349486720749477,-1.3162606690975012,-0.6906103432197843,-1.3311406001402657,1.3052923309759454,0.32002362425437353,0.6867163052287543,0,83,0.0,0.0,0.0,0.0,0.0,0.0,-3.4928322e-05,-0.00027924776,0.00085520744,0.00076794624,0.0,-0.0009599924
1.3999251114319131,0.7132548799497169,1.1598897496468552,-0.7925815105065193,-0.3088231755433242,0.008333247335174421,-1.3161519152801229,-0.6910491496122252,-1.330399669869649,1.305731764239614,0.3198315370117665,0.6862488475643082,0,84,0.0,0.0,0.0,0.0,0.0,0.0,-6.9856644e-05,-0.0005235672,0.0010297298,0.0013612509,0.0,-0.0011867285
1.3999472143700773,0.7132374706759296,1.1599237440036756,-0.7925962426799286,-0.3088225619240204,0.008346889826835433,-1.316530264604673,-0.6912990953610917,-1.330003824238922,1.3065777317593557,0.3201949469948827,0.6852023474487253,0,85,0.0,0.0,0.0,0.0,0.0,0.0,-0.00019192696,-0.0010123253,0.0017104149,0.0018501282,-1.7464161e-05,-0.0023736954
1.3999497250155897,0.7132344927884928,1.1599142583151443,-0.7925805430208828,-0.3088228433938461,0.008341621011213699,-1.3164817981942198,-0.6918103905648059,-1.3287603415696374,1.307652186215267,0.32016101784245254,0.6835163128090053,0,86,0.0,0.0,0.0,0.0,0.0,0.0,-0.00012218952,-0.0005584955,0.0009948015,0.00089013577,0.0,-0.0009075403
1.3999455529034526,0.713224533255349,1.1598917505489883,-0.7925739968235131,-0.3088101274469594,0.00835064165281255,-1.3158072681009856,-0.6918704913751804,-1.3287308799041182,1.309066911984246,0.3202225872406701,0.6828628400226275,0,87,0.0,0.0,0.0,0.0,0.0,0.0,-0.00031411648,-0.0010646582,0.0012741089,0.0018150806,-5.236268e-05,-0.0023038387
1.399953198190877,0.7132533795830915,1.1598905068551673,-0.79259735655553,-0.3088233289004887,0.008368748167679945,-1.3169511660549067,-0.6941886056366583,-1.326608413804089,1.3105600233849628,0.31946132928518567,0.6792808824610816,0,88,0.0,0.0,0.0,0.0,0.0,0.0,-0.00012230873,-0.0005584955,0.00085520744,0.0011345148,-0.00010469556,-0.0010646582
1.3999406745642402,0.713251364443577,1.159914405489601,-0.7925787897869135,-0.30881992863118524,0.008338040807585531,-1.3171058774401043,-0.6944635084600075,-1.3252547556791743,1.3115256969944993,0.31991223954921705,0.6790032120749072,0,89,0.0,0.0,0.0,0.0,0.0,0.0,-0.00027918816,-0.0007854104,0.0016756058,0.001902461,-0.00019198656,-0.0019198656
1.3999428938300682,0.713244217770285,1.1599030713257117,-0.7925815221857961,-0.3088287489053185,0.008364512550407389,-1.3177072423645608,-0.6959449636817359,-1.3224868115540842,1.3138139748543425,0.3191178795961358,0.6761633507232642,0,90,0.0,0.0,0.0,0.0,0.0,0.0,-0.00020945072,-0.00062829256,0.00068068504,0.00085508823,-0.00015708804,-0.000977397
1.3999450471967325,0.7132540532959477,1.1598916192130593,-0.7925828783467274,-0.3088168040480042,0.008357283881656194,-1.3174227627460127,-0.6963686355893778,-1.322103422624298,1.316488589745589,0.3192498260574767,0.6736877207613592,0,91,0.0,0.0,0.0,0.0,0.0,0.0,-8.72612e-05,-0.00047123432,0.0005235672,0.0006632805,-0.00024434924,-0.00076788664
1.3999262682676388,0.713246888099703,1.1598892344460616,-0.7925957395574164,-0.3088061917693267,0.008364114636476452,-1.3177642206045692,-0.6966137996090548,-1.3218638542547536,1.3159730309186413,0.3189599341266975,0.6740965234102646,0,92,0.0,0.0,0.0,0.0,0.0,0.0,0.0,0.0,0.0,0.0,0.0,0.0
1.3999405184937508,0.7132468544975437,1.1598823567037804,-0.792606270172517,-0.30880466725079964,0.008355567082033792,-1.3172449220107598,-0.6968506335258763,-1.321029460649642,1.3192516407362942,0.3187332540267929,0.6714037775372871,0,93,0.0,0.0,0.0,0.0,0.0,0.0,-0.0002617836,-0.0009250641,0.001553297,0.0016930103,-0.00062832236,-0.0019548535
1.3999496254424832,0.7132505073684986,1.1599058033516927,-0.7925764953776926,-0.3088115270509223,0.008349684470446149,-1.3178878163990626,-0.6979169536059368,-1.3203050234810045,1.318279497440425,0.318148553898743,0.6718825446779284,0,94,0.0,0.0,0.0,0.0,0.0,0.0,-6.9737434e-05,-0.00027924776,0.0005235672,0.0006980896,-0.0002618134,-0.0007330179
1.3999455934676843,0.7132527592669419,1.159926916508436,-0.7925755185639236,-0.3088150793484623,0.008351596754388253,-1.318211730835603,-0.6976740089434003,-1.319488799509934,1.3187437607808272,0.31803210972907475,0.6713725779484099,0,95,0.0,0.0,0.0,0.0,0.0,0.0,0.0,0.0,0.0,0.0,0.0,0.0
1.39995679953243,0.7132535009383104,1.1599046263475863,-0.7925874657593306,-0.30884091724999496,0.008369052567222455,-1.318442571148138,-0.6977942254346631,-1.3201699462928986,1.3184264675871236,0.31816831059158046,0.6710824096249899,0,96,0.0,0.0,0.0,0.0,0.0,0.0,-3.504753e-05,0.00031411648,-0.0008376837,-0.0005760193,-0.00012215972,0.00050616264
1.399941539670686,0.7132435740452401,1.1598961781695445,-0.7925707696327392,-0.308802187906644,0.008352813338266055,-1.3181711967534038,-0.6979208794263871,-1.320357910937142,1.3171917534949282,0.3179400683476094,0.6721758232125151,0,97,0.0,0.0,0.0,0.0,0.0,0.0,1.7642975e-05,0.0008378029,-0.001954794,-0.0017975569,5.236268e-05,0.0021118522
1.3999497711369868,0.713249913632772,1.1599176035008278,-0.792582402449758,-0.308812248348348,0.008354029288211206,-1.3178705972096632,-0.6966212593203347,-1.322471972050315,1.317009925542862,0.31816239480715375,0.6733302659285291,0,98,0.0,0.0,0.0,0.0,0.0,0.0,0.0002617836,0.0034732223,-0.0067195892,-0.007068634,0.00019198656,0.006981313
1.3999444153858924,0.71323714497625,1.159900125746466,-0.7925753546587724,-0.3088229104713785,0.008376528624461333,-1.3174741858701509,-0.6934009089519275,-1.3295031687628382,1.3105085823914338,0.31870319302677963,0.6796587547645407,0,99,0.0,0.0,0.0,0.0,0.0,0.0,0.0,0.0,0.0,0.0,0.0,0.0
1.3999540666040273,0.71325718517588,1.1598906389592734,-0.7925913105086472,-0.3088172660767647,0.008362539707252124,-1.318352804176907,-0.6935517041160285,-1.3290322093994567,1.3088679551106521,0.3180943912529056,0.6810099158578494,0,100,0.0,0.0,0.0,0.0,0.0,0.0,0.0023909807,0.013351738,-0.02391088,-0.025865793,0.004939288,0.028885186
1.3999488597721026,0.7132638329218022,1.159907923602834,-0.7926019777604725,-0.308796247566166,0.008378321632110813,-1.315321194488831,-0.6798555143754378,-1.353027073473252,1.283541163930622,0.3231285924462046,0.7093251938073916,0,101,0.0,0.0,0.0,0.0,0.0,0.0,0.002635479,0.012566388,-0.023806334,-0.023579359,0.0057072043,0.025761068
1.3999506367878687,0.7132659761213056,1.1599394031991732,-0.7925912515827428,-0.3088071933978299,0.00837047296044726,-1.3129578189584574,-0.6671286006651476,-1.3762189034634238,1.2604170474481369,0.32874893226470203,0.7349100824816461,0,102,0.0,0.0,0.0,0.0,0.0,0.0,0.0017104149,0.008168101,-0.014765501,-0.014259338,0.0043982267,0.01706928
1.3999485011638606,0.713244763392388,1.1599106153964658,-0.79256688801651,-0.30882312382980215,0.008351239304005468,-1.3107704508502889,-0.6596082693621244,-1.390497795456246,1.2476577359158845,0.33332687525671456,0.7503475542124662,0,103,0.0,0.0,0.0,0.0,0.0,0.0,0.0010297298,0.004677534,-0.008429885,-0.008028507,0.0026878119,0.009512126
1.3999346354943456,0.7132560547597637,1.159915254735611,-0.7925783807437357,-0.30884143518788615,0.008373609401897826,-1.3090348025614844,-0.6522894540208951,-1.4026475255154105,1.2378070929807294,0.336775952707835,0.7613644027012789,0,104,0.0,0.0,0.0,0.0,0.0,0.0,0.003612876,0.013962626,-0.026022911,-0.02254963,0.007801652,0.026249707
1.3999424924406947,0.7132791293623924,1.1598948394492192,-0.7925861945416454,-0.30879514884901293,0.008344608131693045,-1.3034566577873952,-0.6393178976960774,-1.4255871760969163,1.2271627485923042,0.3450845729916291,0.7780345130165959,0,105,0.0,0.0,0.0,0.0,0.0,0.0,0.0,0.0,0.0,0.0,0.0,0.0
1.3999410882425847,0.7132711704013637,1.1598933552227055,-0.7926041571202401,-0.3088279640183883,0.008362118876655885,-1.3041826337587428,-0.6337982393529739,-1.4345809062702275,1.2140459263671544,0.34589387273431854,0.7901185351013327,0,106,0.0,0.0,0.0,0.0,0.0,0.0,0.005497694,0.02254963,-0.039723754,-0.03323114,0.012077659,0.03846711
1.3999525805130058,0.7132559504466123,1.1599008171758751,-0.7925759991706397,-0.30881899123684003,0.008367501654723027,-1.298576997770946,-0.6178902634772913,-1.4620919845789568,1.1946785449717896,0.35641670463453745,0.8136898005397566,0,107,0.0,0.0,0.0,0.0,0.0,0.0,0.0043982267,0.015655637,-0.028553486,-0.024609208,0.009145528,0.028832793
1.3999401671197989,0.7132467562100152,1.1599269195214805,-0.7925762679729994,-0.3088064486015464,0.008363879676797727,-1.2959678607019272,-0.6004388541672792,-1.4967351339112336,1.158312495939547,0.36548625095729287,0.8545120621195752,0,108,0.0,0.0,0.0,0.0,0.0,0.0,0.0012391806,0.0046774745,-0.008430004,-0.0069987774,0.0028623343,0.008552074
1.3999455818629878,0.7132681978091291,1.1599116912435663,-0.7925997078154582,-0.308825838061853,0.008348015554180669,-1.294748115676127,-0.5967880763882645,-1.5041175862393243,1.1514462314671714,0.3681476671112736,0.8628919095243732,0,109,0.0,0.0,0.0,0.0,0.0,0.0,0.0014312267,0.0057770014,-0.010768771,-0.0093199015,0.0030368567,0.009128094
1.399929540383728,0.7132512277938007,1.1599144666379986,-0.7925977896434006,-0.30883185425796605,0.008351731916287282,-1.2940386102709613,-0.5919465520405877,-1.5148919686180795,1.1393022486734123,0.3711443658783631,0.8748952481853558,0,110,0.0,0.0,0.0,0.0,0.0,0.0,0.0017976761,0.006911516,-0.013229489,-0.013037682,0.0039968193,0.016475916
1.3999555355825961,0.7132548245822258,1.1598947205980343,-0.792579749965544,-0.3088214846785391,0.008369337648599708,-1.291080678842752,-0.5847126133035451,-1.5267023472562107,1.1316121273310955,0.37567150167034213,0.8857315190326075,0,111,0.0,0.0,0.0,0.0,0.0,0.0,0.0002617836,0.0013613701,-0.0029495955,-0.0034382343,0.00080284476,0.0036302805
1.3999339306805672,0.7132459061920988,1.159908963893771,-0.7925780560546193,-0.308828127793024,0.008358187517223248,-1.290610759133475,-0.5827374902824085,-1.5320605127679976,1.127553830070414,0.37761628411912546,0.8912049436596192,0,112,0.0,0.0,0.0,0.0,0.0,0.0,0.000104665756,0.0006632209,-0.0014660358,-0.0020768642,0.00050616264,0.0027227402
1.3999443408689738,0.7132867683664253,1.1598926100647076,-0.7925588167393963,-0.3088267349236632,0.008344628775523343,-1.2915290171702847,-0.5831166767843825,-1.5312211847746466,1.1217820973728916,0.37679747241474637,0.8953955115716827,0,113,0.0,0.0,0.0,0.0,0.0,0.0,0.0,0.00013959408,-1.7404556e-05,-0.0014312267,0.00020942092,0.0013787746
1.3999356885580931,0.7132403136457177,1.1599308859784079,-0.7925876442001846,-0.3088304718186619,0.008383302321614066,-1.290367863280713,-0.5798478077100706,-1.535961223981817,1.1200380916016939,0.3780896915185235,0.8984639401095438,0,114,0.0,0.0,0.0,0.0,0.0,0.0,-3.4809113e-05,-0.00045371056,0.0012042522,0.000104665756,-1.7434359e-05,-0.00027924776
1.3999515512636842,0.7132419103374771,1.1598773749254045,-0.7925767926454927,-0.3088279319152931,0.008360606125037485,-1.2920150315782415,-0.5838249251551024,-1.5300738064933952,1.1207116243173245,0.37690413444945553,0.8967455090678937,0,115,0.0,0.0,0.0,0.0,0.0,0.0,-0.0006632805,-0.0029845238,0.0058642626,0.0026179552,-0.00031414628,-0.0033161044
1.3999425557109022,0.7132549895315012,1.1598657060488051,-0.7925827354005083,-0.3088334435970389,0.008381790362411478,-1.2928014277839055,-0.5855569445972579,-1.5270709525342019,1.1188350919745795,0.37670380833990125,0.8986681558084241,0,116,0.0,0.0,0.0,0.0,0.0,0.0,-0.0002617836,-0.0012043118,0.0019721985,0.0014138222,-0.00045379996,-0.0018675327
1.3999355520863772,0.7132405588601893,1.1598870133399644,-0.7925839238359119,-0.3088146057411084,0.00834733974748228,-1.2935201391537006,-0.5875590530162268,-1.5229127092830284,1.1232528200060559,0.3754642740897547,0.8936002013151679,0,117,0.0,0.0,0.0,0.0,0.0,0.0,-0.0005584955,-0.0019198656,0.0031241179,0.0024434328,-0.0010821223,-0.0030193925
1.3999332180806041,0.7132347788785688,1.1599038925766034,-0.7925872123354312,-0.3087938671490649,0.008360669687972704,-1.2938112966350919,-0.5893024321834767,-1.5192028636380948,1.1274268774521627,0.3750805024588289,0.8887751473466257,0,118,0.0,0.0,0.0,0.0,0.0,0.0,-0.00019204617,-0.00071561337,0.0010472536,0.0006980896,-0.0005584955,-0.0012915134
1.3999560036038847,0.7132582812454319,1.1598895416069401,-0.7925872487007912,-0.3088131691005627,0.008356325683133044,-1.2938107342835852,-0.5896536239117808,-1.5191221113964628,1.1270859644713114,0.3740972766652075,0.8885018752441164,0,119,0.0,0.0,0.0,0.0,0.0,0.0,-8.714199e-05,-0.00038391352,0.0003490448,0.00036644936,-0.00038397312,-0.00045382977
1.3999369493559763,0.7132727664163067,1.1599355608774458,-0.7925968906187613,-0.3088163778811867,0.008356148659305016,-1.2940002797502057,-0.5901205516252503,-1.5189829954414762,1.1275295903485538,0.37419984562273145,0.8874292715799453,0,120,0.0,0.0,0.0,0.0,0.0,0.0,-8.72612e-05,-6.9856644e-05,3.4928322e-05,0.00013971329,-0.00012215972,-5.2392483e-05
1.3999410315093415,0.7132487241066313,1.159903992733767,-0.7925738573023948,-0.30883507699629537,0.008353491515686104,-1.294234909633304,-0.5901972734640958,-1.5190248791136376,1.128480121554344,0.37394786814713143,0.8879502239053425,0,121,0.0,0.0,0.0,0.0,0.0,0.0,0.0,0.0,-3.4928322e-05,0.0,0.0,-1.7404556e-05
1.3999354731505753,0.7132621377812345,1.1599039118327739,-0.7925964049256679,-0.3088142155070851,0.00837390925949935,-1.2942351051242211,-0.5901218548275389,-1.5187181695949212,1.1290582643631697,0.37370796868097955,0.887409822702667,0,122,0.0,0.0,0.0,0.0,0.0,0.0,0.0,0.0,0.0,0.0,0.0,0.0
1.3999561594916523,0.713221363234113,1.1599037241831158,-0.7925869641619857,-0.3088223753389964,0.008371065489837268,-1.2939099789304747,-0.5896969193920713,-1.5197708454080106,1.1280211891228942,0.37399652047664794,0.8877907402506287,0,123,0.0,0.0,0.0,0.0,0.0,0.0,-1.7523766e-05,6.9856644e-05,-0.00047123432,0.0,0.0,1.7404556e-05
1.3999492744535522,0.7132442613475612,1.159914633940283,-0.7925857282468911,-0.30882804347252346,0.00835847058679659,-1.2944738373401519,-0.5902737054518125,-1.5200298991425925,1.1252103790125938,0.37396487589919886,0.8911291085236813,0,124,0.0,0.0,0.0,0.0,0.0,0.0,0.0,0.00040137768,-0.0012741089,-0.0003142357,-1.7493963e-05,0.00038403273
1.399964455412123,0.7132561351745865,1.1599049732280744,-0.7925997460788872,-0.30881688720691636,0.008339159204618373,-1.2939278508545258,-0.5904363003482883,-1.520420358637319,1.1274226278472934,0.3739335033403233,0.8884121542024961,0,125,0.0,0.0,0.0,0.0,0.0,0.0,0.0,0.0,0.0,0.0,0.0,0.0
1.3999491429982946,0.7132559839257142,1.159901139524102,-0.7925991577297237,-0.308806831974181,0.008335441978312397,-1.2940803154123626,-0.5902347236666261,-1.5196756883139093,1.1273703281483411,0.37374645409723073,0.8885858286270317,0,126,0.0,0.0,0.0,0.0,0.0,0.0,5.2452087e-05,0.0017977357,-0.005078912,-0.005602479,0.00019201636,0.0064751506
1.3999329936982783,0.713257197884365,1.1599079404057784,-0.7925830508286145,-0.308814806817087,0.008354356434748808,-1.2941134601744468,-0.5882666514211168,-1.525130647853391,1.122392756362548,0.3739532962851482,0.8942874990724042,0,127,0.0,0.0,0.0,0.0,0.0,0.0,0.0,0.0,0.0,0.0,0.0,0.0
1.3999463550603863,0.7132693856534837,1.1599059988998717,-0.7925769104749273,-0.3088198461453604,0.008345213553222196,-1.294221345395796,-0.5883041881203289,-1.525067172662245,1.122473866317499,0.373921973338228,0.8941130033295457,0,128,0.0,0.0,0.0,0.0,0.0,0.0,0.0,0.0048694015,-0.012269616,-0.015655637,0.0025132596,0.01591736
1.3999415259628247,0.7132526973801991,1.1599080380612385,-0.7926030180215772,-0.3088066562965276,0.008329760038105139,-1.2935171217342158,-0.5835230460276856,-1.5367616981598713,1.1069927605309344,0.3766278543935237,0.9101605795458142,0,129,0.0,0.0,0.0,0.0,0.0,0.0,0.0,0.0,0.0,0.0,0.0,0.0
1.3999390899227948,0.7132627465346392,1.1598933471549804,-0.7925723197211262,-0.30881715497074524,0.008377389546019324,-1.2940532689397646,-0.5829276351813428,-1.5389722299667032,1.1053889045880745,0.3764276314803245,0.911719239618257,0,130,0.0,0.0,0.0,0.0,0.0,0.0,-0.00019204617,0.009878635,-0.024521828,-0.030298948,0.0072256625,0.03274238
1.3999510190436633,0.7132276961951843,1.1598949534899738,-0.7925672844612088,-0.3088094110769617,0.008353331298531334,-1.2943801921995635,-0.5734213913849632,-1.5622635341354902,1.0749768484918687,0.38386777073505135,0.9456598441856034,0,131,0.0,0.0,0.0,0.0,0.0,0.0,-0.0010122061,0.009948373,-0.02478385,-0.03005445,0.008150697,0.030770183
1.399916297627622,0.7132609041641458,1.159909437303487,-0.7925676840923513,-0.30882238780882454,0.0083549793406998,-1.2950325543384926,-0.5627483649757251,-1.5875861550923904,1.0455510259109961,0.39227424651341075,0.9741034013687764,0,132,0.0,0.0,0.0,0.0,0.0,0.0,0.0,0.0,0.0,0.0,0.0,0.0
1.39992928441664,0.7132473540495234,1.1599177627875934,-0.7925807921638723,-0.30881361410636704,0.00836058903682355,-1.2951846639853068,-0.5640119212039757,-1.5860422913130812,1.04606584701706,0.39193640967243126,0.9732413890879812,0,133,0.0,0.0,0.0,0.0,0.0,0.0,-0.0011694431,0.006894052,-0.02040279,-0.025307298,0.008115798,0.028763115
1.3999225186846644,0.7132702126960029,1.1598913170509262,-0.7925679087991018,-0.30884205216843136,0.00835049538217608,-1.2967911237037735,-0.556470774791259,-1.6078977780912949,1.019602168970919,0.4006092021326528,1.0040212035606069,0,134,0.0,0.0,0.0,0.0,0.0,0.0,0.0,0.0,0.0,0.0,0.0,0.0
1.3999457187887112,0.7132396024534582,1.1598895416591464,-0.7925661302935939,-0.3088177894984064,0.008353427316953727,-1.2970558950559414,-0.5567375797283408,-1.6070866293414396,1.0202353815235032,0.3998535883251346,1.0037419940316685,0,135,0.0,0.0,0.0,0.0,0.0,0.0,0.0,0.0,0.0,0.0,0.0,0.0
1.399929994216112,0.713256878277897,1.1599047543535044,-0.7925792512898828,-0.3088254317595015,0.008357037358300129,-1.295964739152987,-0.5566066167938755,-1.6083461025444217,1.019251129560924,0.40085163597707074,1.0046212389469098,0,136,0.0,0.0,0.0,0.0,0.0,0.0,-0.0055327415,0.012566328,-0.048467875,-0.069289565,0.0195826,0.071802735
1.3999554392099174,0.713256739058829,1.1599115643377078,-0.7925890120627668,-0.3088265527127745,0.008367607213831806,-1.3032826403181343,-0.5438337318374509,-1.6577135354050658,0.9475231977480768,0.4199215534685184,1.079100804253901,0,137,0.0,0.0,0.0,0.0,0.0,0.0,0.0,0.0,0.0,0.0,0.0,0.0
1.3999479885584616,0.7132405837327234,1.1599186712522356,-0.7925684335946526,-0.3088141324395339,0.008340877162100116,-1.3044380774671405,-0.5452025541841561,-1.6574151681621698,0.9412474442003045,0.42033003654305207,1.0853686864352714,0,138,0.0,0.0,0.0,0.0,0.0,0.0,-0.0023037195,0.002705276,-0.013124824,-0.022148252,0.005218506,0.024172783
1.39993568045401,0.7132741997081964,1.159892665686704,-0.7925800029923032,-0.30883305887916185,0.008365803722054997,-1.3057808549294516,-0.5415189481329286,-1.6727964855128592,0.9205189492311727,0.4262413908587588,1.1086714271358458,0,139,0.0,0.0,0.0,0.0,0.0,0.0,-0.00038409233,0.0004363656,-0.002041936,-0.004869461,0.0008377731,0.0041190386
1.3999419556339847,0.7132360128620333,1.159885945031069,-0.7926037877127688,-0.30880559773527894,0.00836868777254347,-1.3047483079097426,-0.5410649991949916,-1.6706970767407332,0.9243936142538641,0.42620938999402697,1.1043344103255721,0,140,0.0,0.0,0.0,0.0,0.0,0.0,-0.00024425983,5.2332878e-05,-0.0013439655,-0.0034732223,0.0004363358,0.00399673
1.3999315287545042,0.7132610965776212,1.1599036226597341,-0.7925732378383252,-0.3088217879470246,0.008347282999323049,-1.3065401738697695,-0.5412841302377933,-1.677053334169891,0.9114611324892974,0.42825104359182764,1.119746056486249,0,141,0.0,0.0,0.0,0.0,0.0,0.0,0.0001745224,-3.4928322e-05,0.0009075403,0.001291573,-1.7464161e-05,-0.00054097176
1.3999356168537844,0.7132508025461856,1.1599247972641287,-0.7925805934297155,-0.30880562114044524,0.008365382604324558,-1.3049145732533842,-0.5411479848355295,-1.6729929510627808,0.9196658411290769,0.4265713474383977,1.1109217948112444,0,142,0.0,0.0,0.0,0.0,0.0,0.0,0.0006631613,5.2392483e-05,0.0013264418,0.0026354194,1.7464161e-05,-0.0018326044
1.3999259952738654,0.7132768721855274,1.15990380481562,-0.792601167665397,-0.3088191906860356,0.008374165099800865,-1.303756586019796,-0.5405903121391816,-1.6701830596500293,0.9255925934212555,0.42672997988250116,1.1046083046934374,0,143,0.0,0.0,0.0,0.0,0.0,0.0,0.0,0.0,0.0,0.0,0.0,0.0
1.399942978361258,0.7132764633474453,1.1599023655200151,-0.7925771196950759,-0.3088070798269311,0.00836328633098637,-1.3065066295357606,-0.5411568507037481,-1.675459733842889,0.910805329014642,0.42867106230557744,1.1213736262141696,0,144,0.0,0.0,0.0,0.0,0.0,0.0,0.0012916327,0.0,-0.00031411648,0.001047194,0.00033161044,-0.00054109097
1.3999478809782264,0.7132399059915981,1.1599027974295166,-0.7926036612320181,-0.30881750023284055,0.008364684241743126,-1.3028290118653,-0.5416978045570933,-1.6692276871084566,0.9263080648259673,0.4264755037766335,1.1035713696754457,0,145,0.0,0.0,0.0,0.0,0.0,0.0,0.00050604343,0.0007504821,-0.0034731627,-0.0025656223,0.0016406178,0.002443552
1.399930724965194,0.7132353810828898,1.1599091938845363,-0.7925958482768658,-0.3088089542389909,0.00834859692542378,-1.3025832158111543,-0.5409269525194699,-1.6724529533312555,0.9247536237615074,0.4279947773391318,1.1061802103050156,0,146,0.0,0.0,0.0,0.0,0.0,0.0,0.0,0.0038921237,-0.012514114,-0.013910234,0.005148709,0.014573455
1.3999549294385703,0.7132736205212242,1.1598994056735559,-0.7925716018520642,-0.308821932385316,0.008362124321018646,-1.3033341083398147,-0.5380269217592276,-1.6849025508439603,0.9071906909163152,0.43321539520515673,1.1243039654583775,0,147,0.0,0.0,0.0,0.0,0.0,0.0,0.0,0.0,0.0,0.0,0.0,0.0
1.399934314101679,0.7132552094781632,1.1599086849708629,-0.7925983424774196,-0.30880111204089844,0.008351815271904992,-1.3026437925526368,-0.5370041022003578,-1.687110882757691,0.9076983877714394,0.43378804430154516,1.123561209888103,0,148,0.0,0.0,0.0,0.0,0.0,0.0,-0.0009598732,0.004241109,-0.015620589,-0.019059062,0.0067195,0.021415114
1.399943096034074,0.7132336143964968,1.159915775928933,-0.79259090237162,-0.3088178695881056,0.008382601818577686,-1.3034671600897763,-0.5320541546694777,-1.7010948258319252,0.8909130446792612,0.43956536152036274,1.1425481002974451,0,149,0.0,0.0,0.0,0.0,0.0,0.0,-0.0010995865,0.0019024014,-0.007993698,-0.01059413,0.0036128461,0.011344671
1.3999478450323806,0.7132685603440246,1.15990817031637,-0.7925928336698126,-0.3088236244548062,0.008347872683474162,-1.305385955030508,-0.5315974444422881,-1.7091963088440423,0.8775546472506018,0.44377203951977584,1.1563904659370463,0,150,0.0,0.0,0.0,0.0,0.0,0.0,-0.0021816492,0.0024434328,-0.01171124,-0.017732501,0.005096346,0.01649344
1.3999522408071436,0.7132604352702676,1.159943483816184,-0.7925778104206335,-0.30880910329520206,0.00836319413457189,-1.3087958926248424,-0.5270469227373442,-1.7312547870673678,0.8488915943321427,0.4528913264072933,1.1862972344081573,0,151,0.0,0.0,0.0,0.0,0.0,0.0,0.0,0.0,0.0,0.0,0.0,0.0
1.3999329014498905,0.713264224714554,1.1598808860024064,-0.7925665341534401,-0.3088042248497127,0.008351397744284311,-1.3090264495238566,-0.5270621419385529,-1.7253520210663211,0.8537681597629669,0.45013723494518176,1.1799371925707796,0,152,0.0,0.0,0.0,0.0,0.0,0.0,-0.006091237,0.0010297894,-0.01685977,-0.032463133,0.009040803,0.033283353
1.3999615365680547,0.7132425509152329,1.1599063351242316,-0.7925816754110466,-0.3088216897967706,0.008350707794362047,-1.3148940378034626,-0.5276672579037801,-1.7424499186481321,0.8180688803747836,0.46058361528353636,1.2159254348243207,0,153,0.0,0.0,0.0,0.0,0.0,0.0,-0.007068515,-0.0008378029,-0.012199998,-0.03159046,0.006667167,0.029181957
1.3999340791401358,0.7132566479515201,1.1599267651327771,-0.7925925123703714,-0.30882185118856526,0.00837155516179029,-1.320702680347616,-0.5282625381616268,-1.7501441112588692,0.79669677873999,0.4646926234464146,1.2343489044722986,0,154,0.0,0.0,0.0,0.0,0.0,0.0,0.0,0.0,0.0,0.0,0.0,0.0
1.3999376493369506,0.7132573274452827,1.159899311357429,-0.79256998258298,-0.30881239234661556,0.008359489316565284,-1.3213047886684475,-0.5298878927983242,-1.7479910239979355,0.7966337456767921,0.46380177542552137,1.235439346449175,0,155,0.0,0.0,0.0,0.0,0.0,0.0,-0.007888913,-0.0034731627,-0.009965777,-0.030490875,0.007068604,0.028832912
1.399937105482401,0.7132452288033656,1.1598891486731095,-0.7925811985333461,-0.30882490543878327,0.008365962675073484,-1.3296168431090356,-0.5322226959063941,-1.7645906742421544,0.7571752897569386,0.4749266821495459,1.2732464239181287,0,156,0.0,0.0,0.0,0.0,0.0,0.0,0.0,0.0,0.0,0.0,0.0,0.0
1.399933710832724,0.713258351585853,1.1599004667220578,-0.7925789537582548,-0.3088114630386407,0.008366632279486695,-1.3297610379501956,-0.5316607053940955,-1.7635071181037538,0.7578816041947145,0.47332887265065104,1.2726710549571136,0,157,0.0,0.0,0.0,0.0,0.0,0.0,-0.0095644,-0.0049218535,-0.010489345,-0.033161283,0.0071209073,0.031555533
1.3999460611235293,0.7132758603544376,1.1599174796303882,-0.7925683245656948,-0.3088209001329715,0.008360268181135246,-1.3397847337122484,-0.5363523713960615,-1.7766093757026125,0.7250274472220902,0.48198207557488376,1.3046085648492876,0,158,0.0,0.0,0.0,0.0,0.0,0.0,0.0,0.0,0.0,0.0,0.0,0.0
1.3999551125667968,0.7132624542338877,1.1598999596971309,-0.7925828133499857,-0.3088231912923554,0.008353440139173829,-1.337773024285373,-0.5364184270517557,-1.7726936691891386,0.7330866867346095,0.480866204817959,1.2973717624770933,0,159,0.0,0.0,0.0,0.0,0.0,0.0,-0.0049567223,-0.002705276,-0.0050964355,-0.019163728,0.0037175715,0.016964555
1.3999488057237508,0.7132862843029119,1.159902069596525,-0.7925881807980697,-0.3087962176836996,0.008353094174159059,-1.34375432348238,-0.5400901460911514,-1.7773494006678214,0.7082338250769743,0.4837562047539285,1.3181701666916537,0,160,0.0,0.0,0.0,0.0,0.0,0.0,-0.0029497147,-0.0021118522,-0.0023911,-0.010855973,0.0014835298,0.010227561
1.399937387216987,0.7132430948369047,1.1598989831835476,-0.7925812137663748,-0.3088137189737434,0.008378633663083727,-1.3470276590406685,-0.5435085800749792,-1.7778111601591324,0.6981478663070246,0.48394392472537956,1.3258943692361518,0,161,0.0,0.0,0.0,0.0,0.0,0.0,0.0,0.0,0.0,0.0,0.0,0.0
1.3999287078772689,0.7132448710546615,1.1599030498820075,-0.792582668958773,-0.3088190674858863,0.008363673969381789,-1.3455041134610293,-0.5419549136624783,-1.7770633713059414,0.7044309119194365,0.4832046710150113,1.3199940528048753,0,162,0.0,0.0,0.0,0.0,0.0,0.0,-0.0010994673,-0.0009948015,0.00019204617,-0.0031765103,5.236268e-05,0.002635479
1.3999351718200126,0.7132675440977804,1.1598957440739077,-0.7925867071582313,-0.3088206406158606,0.008354918203489223,-1.3480323782203865,-0.5440947340832392,-1.7776860066827125,0.6976022319000271,0.4840005323730565,1.3264962242983223,0,163,0.0,0.0,0.0,0.0,0.0,0.0,0.0,0.0,0.0,0.0,0.0,0.0
1.3999488562146218,0.7132610474277973,1.159934057468876,-0.7925805869934346,-0.3088298414695958,0.008375994804692755,-1.347326851017642,-0.544196052830313,-1.7767433143671665,0.698567585802482,0.4840857794023429,1.3260820906593365,0,164,0.0,0.0,0.0,0.0,0.0,0.0,-0.0006632805,-0.001116991,0.0018501282,-0.00019198656,-5.236268e-05,1.7523766e-05
1.3999438929843695,0.7132557312867726,1.1598893006081206,-0.7925891546603229,-0.30881556532868987,0.008347888979272286,-1.3476876335452201,-0.5456690448321916,-1.7744257921761366,0.6995473460056972,0.4838387471485635,1.325609403129637,0,165,0.0,0.0,0.0,0.0,0.0,0.0,-0.0011519194,-0.0016231537,0.0024434328,-0.0019896626,-0.00040140748,0.0008376837
1.399949785313772,0.7132491380497358,1.1598843323343748,-0.7925863943236555,-0.30881466577825945,0.008354744394072631,-1.3481846286010686,-0.5455805159103757,-1.772462746390832,0.7006882370578701,0.4831221616369687,1.3229351404179,0,166,0.0,0.0,0.0,0.0,0.0,0.0,-0.0015009642,-0.0015359521,0.0013612509,-0.0031241179,-0.0004886985,0.0019897223
1.399942278678605,0.7132407979590754,1.1599063933155198,-0.7925729766729894,-0.308807668258133,0.008338149551273624,-1.3495320504549175,-0.5466671480208753,-1.7723885909645967,0.6957665030267426,0.4835231953459789,1.3269210737230976,0,167,0.0,0.0,0.0,0.0,0.0,0.0,0.0,0.0,0.0,0.0,0.0,0.0
1.399952149241166,0.7132452367126076,1.1599063415269515,-0.7925794499718334,-0.3088187224475319,0.008362393761040011,-1.3504315904765893,-0.549464077184922,-1.7678310558759271,0.6965509269105151,0.48248083561912275,1.325735945783854,0,168,0.0,0.0,0.0,0.0,0.0,0.0,-0.0039269924,-0.0035429597,0.0027751923,-0.008761525,-0.0012740791,0.006335497
1.3999374119552763,0.7132589604082443,1.1599110490362308,-0.792597707463355,-0.30880899673485257,0.008342016389414036,-1.3533218890481202,-0.5505771212646481,-1.7678105689598247,0.6887266393162421,0.4809520236142911,1.3314087951681848,0,169,0.0,0.0,0.0,0.0,0.0,0.0,-0.0043982267,-0.0041713715,0.0035254955,-0.008691788,-0.0016231537,0.0063180923
1.3999213342971073,0.7132641605605698,1.1598943464136942,-0.7925916262127004,-0.30882670912633337,0.008368378666983286,-1.3583239849010984,-0.5536789589879245,-1.7671288778808711,0.67869057491352,0.48002933400977243,1.3390772184753892,0,170,0.0,0.0,0.0,0.0,0.0,0.0,-0.0037873983,-0.0042237043,0.004869461,-0.005968988,-0.002181679,0.004188776
1.399943967486372,0.7132429056229248,1.1599240537953748,-0.792564066626535,-0.30881288444988675,0.008355892610178628,-1.362496585973741,-0.5607689656867417,-1.7581610317736458,0.6719386242276512,0.4775596330549899,1.3436507896370928,0,171,0.0,0.0,0.0,0.0,0.0,0.0,0.0,0.0,0.0,0.0,0.0,0.0
1.399936607897477,0.7132486150329254,1.1598877070356828,-0.7925763621614074,-0.30882745758451025,0.008379160735198597,-1.3613793805035128,-0.5586343973532393,-1.7611343872060488,0.6737143124491429,0.47765253946047853,1.341811092494941,0,172,0.0,0.0,0.0,0.0,0.0,0.0,-0.0031938553,-0.004712343,0.006091237,-0.0034732223,-0.0028972626,0.0022165775
1.39994918737358,0.7132453414308234,1.1598962297679332,-0.7925815262429651,-0.30880545258521164,0.008361358810053506,-1.3648527245577267,-0.5639315515726783,-1.754474224212641,0.6698056562030357,0.47511462893294376,1.3452884452732796,0,173,0.0,0.0,0.0,0.0,0.0,0.0,-0.0011694431,-0.001902461,0.0029495955,-0.001221776,-0.001204282,0.0004014969
1.3999434820468517,0.7132584793829463,1.1598870582466347,-0.7925804058341283,-0.30883978145151086,0.008363805767708758,-1.3669965652967389,-0.5662446363349223,-1.7512664998918286,0.6655952747373568,0.4737102962238826,1.3478026753508068,0,174,0.0,0.0,0.0,0.0,0.0,0.0,-0.0030019283,-0.00490433,0.0065624714,-0.0039967895,-0.0027227104,0.001553297
1.3999387010107076,0.7132485707471362,1.1599111028645708,-0.792582038162225,-0.30881244750621417,0.008369838894484864,-1.3693935985999626,-0.5708221523931374,-1.7437074478404082,0.6656764997467817,0.47097052878189327,1.345571038658568,0,175,0.0,0.0,0.0,0.0,0.0,0.0,0.0,0.0,0.0,0.0,0.0,0.0
1.3999349902728886,0.7132247389292038,1.1598852622408566,-0.7925715955052797,-0.30880731901344904,0.0083542233834726,-1.3686857259893046,-0.5701661168383022,-1.7455596722907853,0.6657498276210893,0.47097836303371104,1.3458357590142644,0,176,0.0,0.0,0.0,0.0,0.0,0.0,-0.0017801523,-0.002164185,0.0014660358,-0.004101515,-0.00094243884,0.003368497
1.3999340932283566,0.7132490907658181,1.159898834955178,-0.792582557457478,-0.30882546788434,0.008389588908647487,-1.3709766196180313,-0.5721468172927919,-1.7429537110640196,0.661346626798027,0.4696426390947162,1.3493145433000273,0,177,0.0,0.0,0.0,0.0,0.0,0.0,-0.0009599924,-0.00045382977,-5.2332878e-05,-0.0025830865,-5.236268e-05,0.0021990538
1.3999356679618076,0.713240987689524,1.1599189386897755,-0.7925832546081293,-0.3088119803425992,0.008356155852576087,-1.3713844439643146,-0.572347588861996,-1.7438953639748431,0.6591528603302591,0.4700918727856941,1.3517426781165283,0,178,0.0,0.0,0.0,0.0,0.0,0.0,0.0,0.0,0.0,0.0,0.0,0.0
1.399945463996263,0.7132350997249345,1.1598936037205754,-0.7925744266279854,-0.308818379691335,0.008372970323206224,-1.3717478187450318,-0.5729807349613074,-1.7432795891632136,0.6586259476877384,0.47006636818776837,1.3520114835633599,0,179,0.0,0.0,0.0,0.0,0.0,0.0,-0.00085520744,-5.2332878e-05,-0.00089013577,-0.003193915,0.0,0.0034558773
1.3999508750645069,0.7132476239388912,1.1599222307020274,-0.7926017186777919,-0.3088104622249274,0.008370326272161046,-1.3727917410209618,-0.5726293537496084,-1.7446286852258859,0.6551222213106886,0.4697468089243052,1.355557722433293,0,180,0.0,0.0,0.0,0.0,0.0,0.0,-0.00064587593,-0.00015711784,-0.0003490448,-0.001658082,0.0,0.0014309883
1.399942242283413,0.7132521496101832,1.1599076449782473,-0.7925811356211241,-0.30882969493419926,0.008360362389120572,-1.3737526776875246,-0.5736726646607273,-1.7446001803186428,0.6504440870521321,0.47032478953003504,1.3594515298640355,0,181,0.0,0.0,0.0,0.0,0.0,0.0,0.0,0.0,0.0,0.0,0.0,0.0
1.3999522603434564,0.7132360976673058,1.1599168687355963,-0.7925935990017849,-0.3088185794472421,0.008355986536623278,-1.3738274415301392,-0.5741797503186058,-1.7433823395812196,0.6519189904729581,0.46961781838554206,1.357922751158222,0,182,0.0,0.0,0.0,0.0,0.0,0.0,-0.0022513866,-0.0042935014,0.0052011013,-0.0021991134,-0.0010995567,0.0009599924
1.3999288007707762,0.7132248347872785,1.159902302313201,-0.7925785112891134,-0.3088009618547956,0.008365094634824733,-1.3753851972467372,-0.5776988340383499,-1.7385791150905983,0.65095599206639,0.46879302217894175,1.3574481999009755,0,183,0.0,0.0,0.0,0.0,0.0,0.0,0.0,0.0,0.0,0.0,0.0,0.0
1.399940231963651,0.7132589790113709,1.1599062927402404,-0.7925940928837966,-0.30882605210361874,0.008349703682334461,-1.3757852756886773,-0.5771830189868765,-1.7397303156173838,0.6517629096984969,0.4689001884166511,1.3572564865740064,0,184,0.0,0.0,0.0,0.0,0.0,0.0,-0.002775073,-0.0055676103,0.008953452,-0.001850009,-0.0030368865,6.9856644e-05
1.3999543402690233,0.713245307604923,1.1599095830968094,-0.7925946102399614,-0.30881197646442304,0.008358272117399911,-1.3780014964386698,-0.583014632037297,-1.7300488666192055,0.6499492979725647,0.46553784811290616,1.357174293493142,0,185,0.0,0.0,0.0,0.0,0.0,0.0,-0.0036302805,-0.0061609745,0.009686589,-0.0024609566,-0.00420627,0.0005235672
1.3999491508758402,0.7132657648800305,1.1598972779904861,-0.7925878420915838,-0.3088251788874964,0.008359913965673486,-1.382066339156671,-0.5893147383398386,-1.7206063127784081,0.6468452478563942,0.46183209599448793,1.3586268704791336,0,186,0.0,0.0,0.0,0.0,0.0,0.0,-0.0018849373,-0.003438294,0.004433155,-0.002024591,-0.0020245612,0.00076794624
1.399932218353899,0.7132573710896811,1.1599274341330899,-0.7925845771743592,-0.30883637442150214,0.00836768547281746,-1.383944369762619,-0.5936698067443142,-1.7135727890222074,0.6450593898026897,0.45860461128331237,1.3581001383821396,0,187,0.0,0.0,0.0,0.0,0.0,0.0,0.0,0.0,0.0,0.0,0.0,0.0
1.399939511017219,0.7132379980631463,1.1599109672551897,-0.7926065658368404,-0.30883295551457873,0.008364837977868805,-1.3845307961370277,-0.5933204106950898,-1.7152202430340706,0.6434410079059666,0.4592646234918113,1.360647063701979,0,188,0.0,0.0,0.0,0.0,0.0,0.0,-0.00692904,-0.012775838,0.01628387,-0.008936048,-0.0055152476,0.0051312447
1.3999519013772288,0.7132389263064871,1.1598986972202583,-0.7925876670268873,-0.30881965587234,0.008348934722029903,-1.3925421896611894,-0.609818091955936,-1.6926306340670874,0.6335484563302826,0.4507318086503833,1.3645809739683386,0,189,0.0,0.0,0.0,0.0,0.0,0.0,0.0,0.0,0.0,0.0,0.0,0.0
1.399944682510195,0.7132596424479923,1.159923496369073,-0.7925959699173544,-0.30882603344362475,0.00837183334821772,-1.3907583097612837,-0.6064377070010815,-1.698835522749845,0.6351560802500842,0.4537607395508593,1.364556278517403,0,190,0.0,0.0,0.0,0.0,0.0,0.0,-0.007871389,-0.013142347,0.014870286,-0.013055086,-0.004729837,0.008726716
1.3999371218154895,0.7132552599075056,1.1599179271010718,-0.7925839055562776,-0.30880858567427716,0.008342716491581241,-1.3995424265332665,-0.618985713782411,-1.6870366998127844,0.617320545640958,0.45098936269443407,1.3786883698399126,0,191,0.0,0.0,0.0,0.0,0.0,0.0,-0.006824136,-0.009512067,0.0090408325,-0.014416456,-0.0025830865,0.0100182295
1.3999318561024086,0.7132231452448956,1.1599253535586742,-0.7925977179493467,-0.3087974858230824,0.008356701817748436,-1.4059646341822811,-0.6284298338040468,-1.6782139606977275,0.6033715484282199,0.44873394302497344,1.3881228276461757,0,192,0.0,0.0,0.0,0.0,0.0,0.0,0.0,0.0,0.0,0.0,0.0,0.0
1.399933352837905,0.7132641010976872,1.1599027319517319,-0.7925790099927421,-0.30880804740206397,0.008371861865864435,-1.4060294144615715,-0.6300684011893153,-1.672919214094803,0.6071075378412196,0.4459163119579618,1.3841934193342615,0,193,0.0,0.0,0.0,0.0,0.0,0.0,0.0,0.0,0.0,0.0,0.0,0.0
1.3999395417750717,0.7132512405666114,1.1599002719387932,-0.7925607448753837,-0.3088174518003861,0.008334657119349876,-1.4067184584305756,-0.6304556931192664,-1.676840316204079,0.6008228968799006,0.44882386424219234,1.3907335771398806,0,194,0.0,0.0,0.0,0.0,0.0,0.0,-0.006248355,-0.008011043,0.006667018,-0.0128106475,-0.0021642148,0.010628939
1.399950477165492,0.7132539064547718,1.159913024072047,-0.7925923219603097,-0.3088164634024302,0.008340982648493091,-1.41115460114966,-0.6342217453700694,-1.6734337937768664,0.5929365892439464,0.4458542227522533,1.3972181707589275,0,195,0.0,0.0,0.0,0.0,0.0,0.0,-0.0012391806,-0.0017452836,0.002443552,-0.0018675327,-0.0009250343,0.0011868477
1.3999571155814172,0.7132519756217739,1.15989414403256,-0.7925750984940465,-0.3088069544648851,0.008351348226686308,-1.4120128254383066,-0.636411037470101,-1.668669812105147,0.5952250852905169,0.4440023008828672,1.3938982361817052,0,196,0.0,0.0,0.0,0.0,0.0,0.0,-0.00029671192,-0.0008203387,0.001221776,-0.00024437904,-0.00050613284,5.2452087e-05
1.3999604521255733,0.7132379656580008,1.1599166095074842,-0.7925654636462901,-0.30883559799570837,0.008353161173382142,-1.4118366327327756,-0.6368166423970567,-1.668441561018734,0.5941350453608666,0.4437175496728803,1.3944254746500018,0,197,0.0,0.0,0.0,0.0,0.0,0.0,-0.0002617836,-0.0005759597,0.00089001656,-0.00010472536,-0.00059339404,-1.7523766e-05
1.3999486806917225,0.7132517469771831,1.1599018877026026,-0.7925613438522416,-0.30880458720002196,0.008355948519309351,-1.4128049482619638,-0.6387152661582151,-1.665498134844926,0.5935515411491987,0.44299307550350653,1.3951863847097121,0,198,0.0,0.0,0.0,0.0,0.0,0.0,-0.0003142357,-0.00047117472,0.0008378029,-0.00010472536,-0.0004886985,1.7523766e-05
1.3999501368331553,0.7132468058245677,1.1599157589246218,-0.7925920306561377,-0.30881155000860677,0.008348453619354703,-1.4131088324109635,-0.6387080448449262,-1.6651640929131675,0.5942281603405923,0.44237780995663484,1.394833087193507,0,199,0.0,0.0,0.0,0.0,0.0,0.0,-5.2332878e-05,1.7404556e-05,-1.7404556e-05,-3.4868717e-05,-6.979704e-05,0.0
1.399935054225506,0.7132309803988776,1.1599084152511654,-0.7925732486039933,-0.30881980828466515,0.008366532472384463,-1.4124468885908807,-0.6379786226926851,-1.6669562016835922,0.5944569775238779,0.44327128161840024,1.3945279846369165,0,200,0.0,0.0,0.0,0.0,0.0,0.0,0.0,-1.7404556e-05,1.7404556e-05,0.0,0.0,0.0
1.3999450216772145,0.7132510688967175,1.1598938542880488,-0.7925518888176168,-0.3088037205973087,0.008336779123128692,-1.4132898325427914,-0.6387075936370918,-1.6655023464680954,0.593851481081969,0.44185293140937865,1.3946774946723641,0,201,0.0,0.0,0.0,0.0,0.0,0.0,5.2332878e-05,1.7404556e-05,-0.00012218952,-1.7464161e-05,1.7434359e-05,0.0
1.399950551108142,0.7132194264020614,1.15990388019767,-0.7925844012841519,-0.30880844627994547,0.008350134426518644,-1.4133198344211775,-0.6384312560983159,-1.666176479367183,0.591860253034752,0.44353437333105594,1.3969118266684997,0,202,0.0,0.0,0.0,0.0,0.0,0.0,8.738041e-05,5.2332878e-05,-0.0003490448,1.7464161e-05,3.4928322e-05,0.0
1.3999305009856016,0.7132444160457729,1.1599209016286653,-0.7925922827068271,-0.30881393576006466,0.008342004253332803,-1.413427358231373,-0.6382888943623125,-1.665758101995591,0.5934100281255005,0.44244500868074865,1.3954205684497378,0,203,0.0,0.0,0.0,0.0,0.0,0.0,0.00012207031,0.00012218952,-0.00024437904,0.0,0.0,-1.7523766e-05
1.3999467053631784,0.7132357550528116,1.1599082794180435,-0.7925769814306359,-0.30881481986118353,0.008368646182832607,-1.411847709701775,-0.6348985358445773,-1.6725174335119832,0.5921646021079794,0.44516583686750333,1.3978203074203928,0,204,0.0,0.0,0.0,0.0,0.0,0.0,0.0002617836,0.00024431944,-0.0004886389,5.2392483e-05,5.2332878e-05,0.0
1.3999312339310737,0.7132469598273179,1.1599041071343719,-0.7925990762059848,-0.30880376822616035,0.008356453618199864,-1.412905392149752,-0.6380880061450006,-1.6665224258589375,0.5931560389865647,0.4430154330495888,1.3956615840110234,0,205,0.0,0.0,0.0,0.0,0.0,0.0,0.00013971329,0.000104784966,-0.0003142357,8.7201595e-05,8.72612e-05,-8.72612e-05
1.399941017749274,0.7132556025331869,1.159899822379861,-0.792569429756419,-0.3088046277959502,0.008336963817541787,-1.413105941275857,-0.6394709890306286,-1.6656272143547197,0.5910666319566488,0.44237856333172865,1.3967653040345631,0,206,0.0,0.0,0.0,0.0,0.0,0.0,0.00024437904,0.00024431944,-0.00059330463,0.00029677153,0.0001745522,-0.00013959408
1.3999482965420542,0.7132461025508727,1.1598978246902747,-0.7925933345586444,-0.30881091315800197,0.008347732763351242,-1.4123339846954592,-0.6371538681769005,-1.6688538473341246,0.5940468652411555,0.4437366530488973,1.3956975749057314,0,207,0.0,0.0,0.0,0.0,0.0,0.0,0.00012207031,0.000174582,-0.0002619028,0.00013959408,0.00012215972,-0.00012218952
1.3999398059907422,0.7132208212925485,1.1599135853597444,-0.7925938297719147,-0.30881691854183435,0.008368607360051314,-1.4117819170718549,-0.6367570238732614,-1.669926998910295,0.5934706681580967,0.4440919452044039,1.3958300407990403,0,208,0.0,0.0,0.0,0.0,0.0,0.0,0.0,0.0,0.0,0.0,0.0,0.0
1.3999560573017091,0.7132124550297922,1.1599241257504596,-0.7925981714796807,-0.30879151012780764,0.00835221126259614,-1.4123267064574172,-0.6376046395416282,-1.668472410251878,0.5932465786933164,0.4435244905289347,1.3960497821512916,0,209,0.0,0.0,0.0,0.0,0.0,0.0,0.00013971329,0.00045371056,-0.00050604343,0.00038397312,0.0003490746,-0.00013971329
1.3999400306042673,0.71323395102965,1.1599002466709836,-0.7925878508939251,-0.3087850837362508,0.008359594940931836,-1.4116879390026147,-0.6371006587058938,-1.66909569421273,0.5941375786171006,0.44369911754064895,1.3950513342211348,0,210,0.0,0.0,0.0,0.0,0.0,0.0,0.000104665756,0.00015711784,-0.00013971329,0.0004886985,0.0001745224,-0.00033152103
1.3999392158852124,0.7132637803874305,1.159917154057495,-0.7925722741823877,-0.3088166745722713,0.00835669644610148,-1.4112795125144204,-0.636973249492898,-1.6690975568716644,0.5952693946093189,0.44369123277300554,1.3942967704610063,0,211,0.0,0.0,0.0,0.0,0.0,0.0,0.0,0.0,0.0,0.0,0.0,0.0
1.399933323787009,0.7132427848382453,1.1598986208528157,-0.792591267658529,-0.30881115255334474,0.008349610553899147,-1.4120026752845152,-0.6371229517747353,-1.6685945530806203,0.5953151808991992,0.4431252351014077,1.3935870159769592,0,212,0.0,0.0,0.0,0.0,0.0,0.0,0.0,-0.00036650896,0.0016231537,0.0006108284,-5.2332878e-05,-0.0008376837
1.3999420350545586,0.7132571644183147,1.159923924469385,-0.7925843699175372,-0.3088063273339594,0.008347965821232015,-1.411390200953137,-0.6366071298114129,-1.6672856301566765,0.596844258084185,0.44394974215865435,1.3928985252902755,0,213,0.0,0.0,0.0,0.0,0.0,0.0,0.0,0.0,0.0,0.0,0.0,0.0
1.3999299849122182,0.7132326114777542,1.1599194254158063,-0.7925830044471185,-0.3088161611843618,0.008367018240058163,-1.4113615533212374,-0.6366444107890031,-1.667583424646339,0.5968517492877484,0.44378016993184355,1.3919491759110605,0,214,0.0,0.0,0.0,0.0,0.0,0.0,-0.0015184879,-0.005707264,0.011885762,0.0010123253,-0.0027751029,-0.0026180744
1.399949338033268,0.7132122599575288,1.1599195267443467,-0.7925869855478901,-0.3088195942354413,0.008362022992478051,-1.4133593503226674,-0.6423313252850704,-1.6559565002492582,0.5968890643836728,0.44062705868073376,1.3907381563947467,0,215,0.0,0.0,0.0,0.0,0.0,0.0,-0.002425909,-0.0070511103,0.012426734,0.0020419955,-0.0056548715,-0.0035430193
1.3999531194704256,0.7132560592816612,1.159913428535994,-0.7925847317718875,-0.3088041254322926,0.00834508464767907,-1.4159851646182395,-0.6504278163206918,-1.6419409437305803,0.5986005086591003,0.4349479586775142,1.3877476068301053,0,216,0.0,0.0,0.0,0.0,0.0,0.0,-0.0019373894,-0.005515218,0.0095644,0.0018849969,-0.0045203865,-0.0034383535
1.399958320243632,0.7132671169129415,1.1599143062642252,-0.792582224948616,-0.3088070692514429,0.00836261840439711,-1.4179723873295975,-0.6554580188133162,-1.6334476347217517,0.6003923690723926,0.43038095667195564,1.3838646167240418,0,217,0.0,0.0,0.0,0.0,0.0,0.0,0.0,0.0,0.0,0.0,0.0,0.0
1.3999406646562458,0.713239864599525,1.159896063553589,-0.7926005027912401,-0.30881156624986805,0.008367468406820039,-1.4183022149671778,-0.6565630728126229,-1.632835711117741,0.5982355177630159,0.4306380378870185,1.3864666434731494,0,218,0.0,0.0,0.0,0.0,0.0,0.0,-0.0065449476,-0.021816611,0.03731513,0.009965837,-0.016196638,-0.014259338
1.3999635342613699,0.7132375291767261,1.1598988195095954,-0.7925950137875026,-0.3088072494570535,0.00839703210953001,-1.426392643953799,-0.6845146596366711,-1.5863680363358577,0.6063201536969433,0.41258418443419115,1.3731250308632899,0,219,0.0,0.0,0.0,0.0,0.0,0.0,-0.004433155,-0.014468849,0.026860595,0.009826183,-0.011239946,-0.013648391
1.3999427938421087,0.7132611991507207,1.159912189014009,-0.7925874989326532,-0.3088053003406922,0.008340122698343659,-1.428332224948023,-0.692790425254896,-1.5657791601900293,0.622562566024859,0.40162925704682173,1.3536569332360056,0,220,0.0,0.0,0.0,0.0,0.0,0.0,-0.002635479,-0.0115017295,0.019861817,0.0087964535,-0.008674294,-0.011466742
1.3999441686182859,0.7132613301184094,1.1599003979664684,-0.7925993765707325,-0.308820872629617,0.008352464680902028,-1.432714813995664,-0.7067240002144856,-1.5447547837379834,0.6246550482417826,0.39397196026578635,1.348352616391208,0,221,0.0,0.0,0.0,0.0,0.0,0.0,0.0,0.0,0.0,0.0,0.0,0.0
1.39993405578904,0.7132697911205358,1.159906206510484,-0.792583918361717,-0.3087914030938732,0.00835919513079647,-1.432904514259196,-0.7069722208546009,-1.542689723814112,0.6280824909111173,0.39145680425701185,1.3445821245745921,0,222,0.0,0.0,0.0,0.0,0.0,0.0,-0.005515218,-0.022130728,0.041172385,0.02172935,-0.017121702,-0.025132775
1.3999408506446274,0.7132502082250035,1.1599514348083062,-0.7925647129357878,-0.30880478912994513,0.008377466322721282,-1.4347858498021888,-0.7210177959203034,-1.5140739815409203,0.6498621844439308,0.3793869220465653,1.320397095272208,0,223,0.0,0.0,0.0,0.0,0.0,0.0,0.0,0.0,0.0,0.0,0.0,0.0
1.399942959392688,0.7132696610748461,1.159935175300963,-0.792592867044502,-0.3088191658200274,0.008363815313988665,-1.4389248002452504,-0.7283929321461446,-1.5046501890025659,0.6443637976544714,0.37659330957413395,1.32387197914405,0,224,0.0,0.0,0.0,0.0,0.0,0.0,-0.0040665865,-0.017488182,0.031398535,0.016842425,-0.014137149,-0.020996451
1.3999474950232484,0.7132526155805132,1.1598597510831279,-0.7925832740996938,-0.3087995667032773,0.00835678607112665,-1.4411965032115894,-0.7436351607801678,-1.4757754592699586,0.6663635032599948,0.3625889545554327,1.2994763828756815,0,225,0.0,0.0,0.0,0.0,0.0,0.0,-0.0012043715,-0.0045204163,0.0091279745,0.003804803,-0.003944427,-0.0050439835
1.399940386934081,0.7132580624267972,1.1599063197532293,-0.7925858556449796,-0.3087951559714327,0.008355624613286296,-1.4433544810386483,-0.7486690058035594,-1.4664765776839639,0.6662121730603187,0.35920315715809553,1.2986199404561047,0,226,0.0,0.0,0.0,0.0,0.0,0.0,-0.0014660358,-0.0048520565,0.008813977,0.002757609,-0.0034906864,-0.003909588
1.3999455959325635,0.7132662191873981,1.1599142407230472,-0.7925816184577915,-0.308808395699578,0.008358304211172575,-1.4446249361518821,-0.7530902016153602,-1.457011929341625,0.6731371392104663,0.35396535733530265,1.2889832588968932,0,227,0.0,0.0,0.0,0.0,0.0,0.0,-0.0005235672,-0.0015183687,0.0021816492,0.00010472536,-0.0014311373,-0.00047123432
1.3999516874510625,0.713234239869875,1.1598982232288158,-0.7925782940366651,-0.30882879141236713,0.008323723265284041,-1.4445515770747799,-0.7552916582066747,-1.452759664170454,0.6751154374861882,0.3523869600297247,1.2875728121989551,0,228,0.0,0.0,0.0,0.0,0.0,0.0,-0.0003490448,-0.0005236268,0.00047123432,-0.0002617836,-0.00040143728,0.00020945072
1.3999506327101903,0.7132712176554492,1.1598970328263563,-0.7925687389637391,-0.3088151936632997,0.008356546903253832,-1.4437922709229956,-0.7523145122412339,-1.4618069457908212,0.6690188282039036,0.35639403412364024,1.295629020468358,0,229,0.0,0.0,0.0,0.0,0.0,0.0,-0.00054109097,0.00027924776,-0.0016930103,-0.0032114387,6.979704e-05,0.0030543804
1.399970813420992,0.7132610405118718,1.1598754669298303,-0.792588978881986,-0.3088011221166986,0.008378706466519573,-1.4439574493361702,-0.7517639080228622,-1.461241370016978,0.6674998884851276,0.3556819599242534,1.2965242853796488,0,230,0.0,0.0,0.0,0.0,0.0,0.0,3.4928322e-05,0.000610888,-0.002722621,-0.0023212433,0.00019201636,0.002530694
1.399926053388709,0.7132574464605442,1.1599059924799053,-0.7925844125215403,-0.3088232735246072,0.00834185736927327,-1.444498314599971,-0.7520891929743839,-1.4637705008969422,0.6663747981012703,0.3551396810701103,1.2968049844619545,0,231,0.0,0.0,0.0,0.0,0.0,0.0,0.0,0.0008377433,-0.0026705265,-0.0022689104,0.00041884184,0.002303958
1.3999604310696867,0.7132588860059931,1.1598935655410492,-0.7925897849404022,-0.30880161973331927,0.008360185035274664,-1.4447247610367542,-0.7516729518317099,-1.4651482935036937,0.6656613292684687,0.3549078081261021,1.2977269625307981,0,232,0.0,0.0,0.0,0.0,0.0,0.0,-3.4928322e-05,0.0022514462,-0.0038745403,-0.0031241179,0.0014486313,0.0035079718
1.3999639397023187,0.7132812977737701,1.1599164339435657,-0.7926109471840422,-0.3088218255907378,0.00836307418705646,-1.4447077466964373,-0.7511088504636546,-1.46491420309479,0.6644763469767854,0.3553027478470407,1.298593507949006,0,233,0.0,0.0,0.0,0.0,0.0,0.0,0.0,0.00071561337,-0.0012042522,-0.0007504821,0.00050616264,0.0007855892
1.39994092052871,0.7132439484794243,1.1599004679358524,-0.7925983630317535,-0.30880154398769016,0.008339180538316556,-1.4453338251988654,-0.7500483307387638,-1.4673962790415445,0.661908948549979,0.3559102523372948,1.3012905068247564,0,234,0.0,0.0,0.0,0.0,0.0,0.0,0.00012218952,0.0012741089,-0.0018326044,-0.00059342384,0.000977397,0.0006979704
1.3999434707703085,0.713257823173157,1.1598951759313474,-0.7925820979681771,-0.308816347575477,0.008350548531835268,-1.44461371025836,-0.7479443171624114,-1.4702401909343592,0.6601633368545029,0.35680195288059163,1.302630191913937,0,235,0.0,0.0,0.0,0.0,0.0,0.0,0.0001745224,0.0005584359,-0.00047123432,-3.4987926e-05,0.0005759299,0.0
1.3999444609488694,0.7132347147656037,1.1599168016580639,-0.7925785447831314,-0.308812612526341,0.008345841063575188,-1.4445175254640488,-0.7482552776440518,-1.4698637359049926,0.6613453534212612,0.3577665545580977,1.3021474566945055,0,236,0.0,0.0,0.0,0.0,0.0,0.0,0.00036656857,0.0005236864,-0.0010994673,3.4987926e-05,0.00062835217,0.0
1.399937393481733,0.7132447443147443,1.1598876892855687,-0.7925887883456039,-0.30879309873319666,0.008338376346272717,-1.4443771818472508,-0.7479096772299808,-1.4702131223242871,0.6626456706661384,0.35786687966038155,1.3012093542161998,0,237,0.0,0.0,0.0,0.0,0.0,0.0,0.0,0.0,0.0,0.0,0.0,0.0
1.3999416022873834,0.7132474980286798,1.1598975592887772,-0.7925917166208188,-0.30879103927246726,0.00833809904548649,-1.4443996198245017,-0.7475400761050921,-1.4718975468135387,0.6609118530815293,0.3583872725835401,1.3026262444258716,0,238,0.0,0.0,0.0,0.0,0.0,0.0,0.00047123432,0.0006108284,-0.00090765953,0.00019192696,0.0005235672,-3.4928322e-05
1.399942380070539,0.7132450902107722,1.159918190097354,-0.792589000402135,-0.3088148356423775,0.00834090787054349,-1.4438709235790341,-0.7471479005313976,-1.471347109818152,0.6633240891411827,0.358656787832413,1.3004830193303887,0,239,0.0,0.0,0.0,0.0,0.0,0.0,0.0,0.0,0.0,0.0,0.0,0.0
1.399946309709031,0.7132699718211731,1.1599023626822342,-0.7925697922502953,-0.3088005602249006,0.008375806731791535,-1.443858165783816,-0.7477184885328995,-1.4704511173466106,0.6622439014426453,0.35858066509214787,1.3015467706118176,0,240,0.0,0.0,0.0,0.0,0.0,0.0,0.00036656857,0.00027924776,-0.00019204617,0.0011693835,0.00020945072,-0.00045371056
1.3999623966729582,0.7132443326239651,1.1599012839843015,-0.792576945451229,-0.3088085510522319,0.008335535615758338,-1.443973292724798,-0.7467723719941334,-1.4714137546100525,0.6622229582354313,0.3586243559373418,1.3022306014706198,0,241,0.0,0.0,0.0,0.0,0.0,0.0,6.9737434e-05,0.0,0.00013971329,0.0006457567,-1.7434359e-05,-0.0006457567
1.3999383147387632,0.7132434504022701,1.159903600756429,-0.7925809587464567,-0.30880331428190566,0.008353320583205039,-1.444508191203467,-0.7473044048718183,-1.475539581316795,0.6550980206047511,0.36168574234383616,1.3102237370489205,0,242,0.0,0.0,0.0,0.0,0.0,0.0,-5.2332878e-05,-0.0010122657,0.0041538477,0.0031241775,-0.00019201636,-0.0032289028
1.3999415517070162,0.7132430295567579,1.1599245250776873,-0.7925769887991707,-0.30880318864391243,0.008349338507295885,-1.4432672054107467,-0.747721974911685,-1.4673549855721264,0.6683298979566812,0.3584934715830212,1.2960790329433232,0,243,0.0,0.0,0.0,0.0,0.0,0.0,-0.00036656857,-0.0053406954,0.011187553,0.00671947,-0.0032637715,-0.008011103
1.3999388155119956,0.7132501270741662,1.1599129126975385,-0.7926006747827615,-0.3088236888176153,0.008348643299461642,-1.444558027567153,-0.7541228578972382,-1.455740974080306,0.6730503094816334,0.3552975000252179,1.2911882742627945,0,244,0.0,0.0,0.0,0.0,0.0,0.0,0.0,0.0,0.0,0.0,0.0,0.0
1.3999563703357873,0.7132500423733062,1.1598871661345136,-0.792592693607987,-0.30881179828460015,0.008345975393903741,-1.4442002914272527,-0.7533960510349921,-1.45619292845003,0.6736582806162369,0.35527844385576546,1.2899096149369413,0,245,0.0,0.0,0.0,0.0,0.0,0.0,-0.0014835596,-0.009686589,0.017732501,0.012356937,-0.0069289505,-0.013473868
1.3999479805839619,0.7132489899034045,1.1598817562875223,-0.792580203683261,-0.3088278527762598,0.008349283825011293,-1.4454953419273342,-0.7645586679994445,-1.4342269032955763,0.6897189336020884,0.3467597656372612,1.272410258990747,0,246,0.0,0.0,0.0,0.0,0.0,0.0,-0.0027052164,-0.013107479,0.024958253,0.019512773,-0.010594159,-0.021834016
1.399948690213764,0.7132732737153163,1.1598991263907978,-0.7925725730629872,-0.30879978505019157,0.008351280034178236,-1.4481018143349917,-0.7768247789782636,-1.4124022792519249,0.7059219216200797,0.33679981399716846,1.2530389870516039,0,247,0.0,0.0,0.0,0.0,0.0,0.0,-0.0017976761,-0.0096690655,0.018378377,0.017104328,-0.0069987476,-0.018867016
1.399952190034732,0.7132345223819605,1.1599110979236251,-0.7926002143462907,-0.3088040360179568,0.008356085146711507,-1.4494654242590372,-0.7847994559030393,-1.3958903143846786,0.7242606360936941,0.33094965333458487,1.233992725483463,0,248,0.0,0.0,0.0,0.0,0.0,0.0,0.0,0.0,0.0,0.0,0.0,0.0
1.3999755515715924,0.7132621716826475,1.1598823386366999,-0.7925932815022106,-0.30881154639705516,0.008355379952573518,-1.4495821474733779,-0.7832440998315349,-1.3989234128142676,0.7218078442057887,0.33167654360257237,1.2368405672165035,0,249,0.0,0.0,0.0,0.0,0.0,0.0,-0.0032812357,-0.020350575,0.038903236,0.04448843,-0.014329165,-0.046111584
1.3999416784264238,0.7132629585198528,1.1598910813025607,-0.7926003165530144,-0.3087998397417987,0.008363410603926816,-1.458147924218712,-0.8156291873980182,-1.3413111186809417,0.7640755750307682,0.30972297066456145,1.190974319805246,0,250,0.0,0.0,0.0,0.0,0.0,0.0,0.0,0.0,0.0,0.0,0.0,0.0
1.3999526207751871,0.7132357650391153,1.159953634315945,-0.7925856656404484,-0.308822547231699,0.008358882460297385,-1.4512799766121383,-0.8071117917684092,-1.3498703467218558,0.7749124579539399,0.31327671910489846,1.1811859963856854,0,251,0.0,0.0,0.0,0.0,0.0,0.0,-0.0043632984,-0.027960181,0.055658698,0.06979567,-0.019896746,-0.07456052
1.3999406287682,0.7132533292096844,1.1598946244192643,-0.7925941464548345,-0.3087982111911947,0.008345436718956867,-1.4569036848174248,-0.8398307730850577,-1.2848664547406228,0.8528416363620726,0.28898790855447515,1.0996117438750497,0,252,0.0,0.0,0.0,0.0,0.0,0.0,0.0,0.0,0.0,0.0,0.0,0.0
1.3999442173639776,0.7132452361868165,1.1599324079835784,-0.7925590529725339,-0.3088108749393212,0.00835290758913506,-1.4586937213929745,-0.8385805654139168,-1.2942069367879436,0.8357693803423559,0.2950197209189005,1.114792437044008,0,253,0.0,0.0,0.0,0.0,0.0,0.0,-0.0023213625,-0.012636185,0.023806214,0.026982784,-0.009267688,-0.030682921
1.3999492080770748,0.713250787299173,1.1598933568448273,-0.7925875913954593,-0.3087972158348958,0.008361496045285204,-1.4602126048631978,-0.8483786600399204,-1.2724061659697528,0.8656386360393388,0.2850701551154962,1.0811685914923603,0,254,0.0,0.0,0.0,0.0,0.0,0.0,-0.00080275536,-0.0043458343,0.007609606,0.0064926744,-0.0030718148,-0.0073827505
1.399948979935901,0.7132431398908711,1.1598895244683844,-0.7925732174928162,-0.30882806662225226,0.00835176217351977,-1.4619960329593058,-0.8523722178958647,-1.2676098432109517,0.8679187556146979,0.28316987084397904,1.0784798191230838,0,255,0.0,0.0,0.0,0.0,0.0,0.0,-0.0024609566,-0.008552134,0.012828112,0.0043632984,-0.005375564,-0.005742073
1.399928021831626,0.7132301211143575,1.1599105105029863,-0.7925768678895693,-0.30882787793406347,0.008348184391887227,-1.4630881813761847,-0.8603561789305694,-1.2544781047663824,0.8741421915806967,0.27829160949123294,1.0705666185022467,0,256,0.0,0.0,0.0,0.0,0.0,0.0,-0.0011519194,-0.001727879,0.0012568235,-0.0045553446,-0.0007330775,0.0039618015
1.3999222407685907,0.7132478223896428,1.159899000754669,-0.7925868891640242,-0.308807148209619,0.00834965193105612,-1.4651533820243952,-0.8631951427566844,-1.252346437479036,0.8669277736752539,0.27701356950456324,1.0767588040968932,0,257,0.0,0.0,0.0,0.0,0.0,0.0,0.0,0.0,0.0,0.0,0.0,0.0
1.3999543536561894,0.7132593746524668,1.159925908029731,-0.7925857021885302,-0.30880533846614755,0.008369461780070626,-1.4659202922478822,-0.8628702541530051,-1.2522410397265378,0.8671200367124694,0.2768602132563047,1.0764287351833233,0,258,0.0,0.0,0.0,0.0,0.0,0.0,-0.0033859015,-0.0014835,-0.0020769835,-0.023003459,0.00012218952,0.02148509
1.3999363096834392,0.7132349598700694,1.1598889639973415,-0.7925861560749851,-0.3088257444374586,0.008349964917589279,-1.4682364629903584,-0.8632698160841548,-1.25577118257626,0.8465648199823332,0.27745308928471324,1.0957943060342106,0,259,0.0,0.0,0.0,0.0,0.0,0.0,-0.0016231537,-0.00033164024,-0.003508091,-0.013735712,0.00071558356,0.011937976
1.399927785501534,0.7132468951661877,1.1599086062774469,-0.7925799596014779,-0.3087986922118316,0.00836286855049182,-1.4700715406031861,-0.8637015387073586,-1.2607781301789465,0.8329674585461038,0.2786209335880769,1.1085265060601355,0,260,0.0,0.0,0.0,0.0,0.0,0.0,-0.0046949387,-0.0019198656,-0.008656859,-0.03616321,0.0042237043,0.035447717
1.399943399613233,0.713267059594243,1.1599092551783656,-0.7925848059047174,-0.3088081164410586,0.00837197653309379,-1.474296007731761,-0.8647652335076781,-1.2696594303126447,0.7968368913553164,0.2830567093727539,1.143036128620821,0,261,0.0,0.0,0.0,0.0,0.0,0.0,0.0,0.0,0.0,0.0,0.0,0.0
1.3999481789433526,0.7132515808709805,1.1599107652991636,-0.7925975959266341,-0.3088139124341399,0.0083673135557187,-1.4738385316106817,-0.8651016669526005,-1.268637235013356,0.7980743607659464,0.28292575829379946,1.1425779985503106,0,262,0.0,0.0,0.0,0.0,0.0,0.0,-0.005061507,-0.0042236447,-0.004241228,-0.032463133,0.004345864,0.030962229
1.3999416777328269,0.7132729943673006,1.1598771620284465,-0.7925719377673819,-0.30882751586156587,0.008343213409011552,-1.4806536244740711,-0.8733915754603148,-1.2663644324130328,0.7621518193653751,0.2851499152507736,1.1749775619534695,0,263,0.0,0.0,0.0,0.0,0.0,0.0,-0.0020594597,-0.0023911595,-0.00045382977,-0.011309743,0.0013090074,0.01038456
1.399946618409993,0.7132589529008038,1.15990002197542,-0.7925821218115028,-0.30881228586830445,0.00835153042265896,-1.4819199730001968,-0.8720242325859043,-1.2732211771602937,0.7538132193285539,0.28826322385631425,1.1836437863191343,0,264,0.0,0.0,0.0,0.0,0.0,0.0,0.0,0.0,0.0,0.0,0.0,0.0
1.3999450532271334,0.7132422876392743,1.159909605455987,-0.7925691891845718,-0.30882081561110414,0.008361515861274043,-1.4815839743552661,-0.8718800424017508,-1.2734272604682328,0.7525455434519422,0.2879846259103755,1.1842679903946212,0,265,0.0,0.0,0.0,0.0,0.0,0.0,-0.005794525,-0.007644534,-6.9737434e-05,-0.029740393,0.0029845238,0.029914975
1.3999419870024639,0.7132815432548664,1.1598841627406102,-0.7925809957532074,-0.3088122707135851,0.008346812815205494,-1.4892746932087901,-0.8840657683100099,-1.2693129859675885,0.7173057602452926,0.2904624905719204,1.221028843206856,0,266,0.0,0.0,0.0,0.0,0.0,0.0,-0.002722621,-0.0033335686,3.4809113e-05,-0.01286304,0.0009599328,0.012653708
1.3999360299075188,0.713254520831532,1.1598640530992521,-0.7926022320867937,-0.30882582442484297,0.008365451643319168,-1.4896281516551984,-0.882766761673378,-1.2730631906635055,0.7123318030262713,0.29244638790621913,1.2257461610128213,0,267,0.0,0.0,0.0,0.0,0.0,0.0,-0.0034208298,-0.0046251416,3.4928322e-05,-0.019512832,0.0019198358,0.017802238
1.39993829341532,0.7132663742981321,1.1599130932340993,-0.7925904262397225,-0.30882228514156734,0.008350922719904522,-1.4939796178900484,-0.8885722951873886,-1.2721955490607808,0.689369615714888,0.2941376291288083,1.2458535201486818,0,268,0.0,0.0,0.0,0.0,0.0,0.0,-0.001413703,-0.0016230941,-3.4928322e-05,-0.008063436,0.0006457865,0.006003976
1.3999337564460428,0.7132450594053744,1.1599170965635328,-0.7925983858234967,-0.30881031703756995,0.008376151540811474,-1.4952783728508114,-0.8899507761592453,-1.2727379932788783,0.6806643600663302,0.294807203536785,1.2522100999661194,0,269,0.0,0.0,0.0,0.0,0.0,0.0,-0.0011694431,-0.0015184879,-3.4809113e-05,-0.0061086416,0.0010820925,0.0068941116
1.3999346272569502,0.7132675137659675,1.1598881830333356,-0.7925946724399414,-0.3088210337585161,0.008370531218857804,-1.4960887100201345,-0.8906858563929465,-1.2741984892276317,0.6758573845487557,0.29610299489009556,1.2583102357018532,0,270,0.0,0.0,0.0,0.0,0.0,0.0,-0.0023736954,-0.0027576685,-0.0010820627,-0.015533388,0.0026529133,0.014503598
1.39995616514484,0.71326303868623,1.1599071345207614,-0.7925949404666658,-0.30882581373002627,0.008330302956671753,-1.4983146143299773,-0.8933613301961558,-1.275585637417876,0.6602804199441488,0.29898541388724803,1.2732409943848297,0,271,0.0,0.0,0.0,0.0,0.0,0.0,-0.0039793253,-0.0044505,-0.0026878119,-0.023527026,0.0039793253,0.022863865
1.3999462662268447,0.7132605468013948,1.15990090823191,-0.7925795285216823,-0.30882072766040697,0.008342756168307104,-1.5021538700150552,-0.8980230171546894,-1.2766525140865304,0.6383035656681948,0.3023291182186729,1.2945713261918843,0,272,0.0,0.0,0.0,0.0,0.0,0.0,0.0,0.0,0.0,0.0,0.0,0.0
1.3999320149510146,0.7132622913691319,1.1599111785710452,-0.7925817213674348,-0.308817609418417,0.008376696057261268,-1.5029336108195053,-0.8977207581018976,-1.2778039340447496,0.6370751649099073,0.3024063719384209,1.2955727131820163,0,273,0.0,0.0,0.0,0.0,0.0,0.0,-0.005986452,-0.005829394,-0.0044680834,-0.03286457,0.0060388446,0.028745532
1.3999501881322904,0.7132639226717493,1.1599161151090038,-0.7925961282401692,-0.30881533106447256,0.008358126171187797,-1.508627891886292,-0.9034346129326573,-1.2815007689608346,0.6052385394618236,0.3088541188137528,1.3240462968099886,0,274,0.0,0.0,0.0,0.0,0.0,0.0,-0.0033860207,-0.0028972626,-0.0023562908,-0.01579529,0.003961891,0.016406178
1.3999393504169078,0.7132367177597145,1.159904899930544,-0.7925831135730307,-0.30880183597333977,0.008346413780705372,-1.5126470894289596,-0.9067040203422623,-1.2832607003122347,0.5891143436414618,0.31202327329419083,1.3395496761536052,0,275,0.0,0.0,0.0,0.0,0.0,0.0,-0.0076270103,-0.0062657595,-0.0052882433,-0.032044172,0.006998807,0.029338956
1.3999324191464724,0.7132579693971808,1.1598838620812704,-0.7925932240007904,-0.30881981208826104,0.008371294649964498,-1.5197655180263119,-0.912253875182313,-1.2901647059953252,0.5557250713625821,0.32033456153212053,1.3703498477602534,0,276,0.0,0.0,0.0,0.0,0.0,0.0,-0.004293561,-0.0036128163,-0.0024784803,-0.019617558,0.0043807626,0.01661551
1.3999360036160944,0.7132659634575687,1.1598754912877602,-0.7925828649549002,-0.30882999432940283,0.008368731767469386,-1.5248610166312229,-0.9168603862123971,-1.2924914784808035,0.5332274784998532,0.3244517971442141,1.3895035117923462,0,277,0.0,0.0,0.0,0.0,0.0,0.0,0.0,0.0,0.0,0.0,0.0,0.0
1.3999494918178708,0.7132718100617818,1.1598759642984715,-0.7926002772109678,-0.3087941507518875,0.008401300877751152,-1.5235849231001255,-0.9159181504764293,-1.2921300823479824,0.5376928421905107,0.32452806751816465,1.3854936164348315,0,278,0.0,0.0,0.0,0.0,0.0,0.0,-0.01137948,-0.0100880265,-0.006457567,-0.047595084,0.012042761,0.043144584
1.3999352761093915,0.713273034038433,1.1599587202457262,-0.7925867187261039,-0.3088214225605974,0.00835997873121623,-1.5365906284800759,-0.9267514633245302,-1.3000895349718873,0.4851057892646769,0.3370428504879277,1.433773534292366,0,279,0.0,0.0,0.0,0.0,0.0,0.0,-0.0066148043,-0.0057072043,-0.004241228,-0.026703566,0.007417649,0.024748802
1.3999545330815033,0.7132390283752373,1.1598989362352414,-0.7925877177363719,-0.30881555165998326,0.008344584728391209,-1.5439429378342229,-0.937367481713649,-1.2939458596051148,0.4627825317380084,0.34095182068055685,1.4541001519951995,0,280,0.0,0.0,0.0,0.0,0.0,0.0,-0.0033859015,-0.0026528835,-0.0024957657,-0.013473928,0.003455758,0.010489345
1.3999498897634985,0.7132513963863245,1.1598952544811962,-0.7925683610597059,-0.308800843063275,0.008362095991687217,-1.5453663023429765,-0.93567372590559,-1.3021867937273732,0.4511268451976408,0.3460173789495076,1.4630925419524894,0,281,0.0,0.0,0.0,0.0,0.0,0.0,-0.0030195713,-0.002338767,-0.0026005507,-0.011693686,0.0042411387,0.012339473
1.399935989775853,0.7132491130317702,1.1599046586781514,-0.7925730335665803,-0.3088025775291088,0.008306614825167993,-1.5491739678427527,-0.9367081024848494,-1.3086645407900572,0.4367112824728186,0.35165567865142666,1.4781561035372333,0,282,0.0,0.0,0.0,0.0,0.0,0.0,-0.0061608553,-0.0043284297,-0.00750494,-0.025708735,0.00853467,0.022235513
1.399949372470727,0.7132278801549814,1.1598722907631767,-0.7926034671106535,-0.30879285399044554,0.00835752468097333,-1.5535488666146835,-0.9419881416317428,-1.312595898099704,0.41717326071427324,0.35838576652924226,1.494948934141708,0,283,0.0,0.0,0.0,0.0,0.0,0.0,0.0,0.0,0.0,0.0,0.0,0.0
1.3999601091829257,0.7132555007497063,1.1598752636239005,-0.7925769898955013,-0.30882425691076615,0.008361092647836844,-1.5545781121223048,-0.9410293458989747,-1.315370260834815,0.4122383923290722,0.3598325116170901,1.4990012671459723,0,284,0.0,0.0,0.0,0.0,0.0,0.0,-0.0038223267,-0.0013787746,-0.0089885,-0.018797189,0.0085172355,0.01834333
1.3999335953824015,0.7132652230913556,1.1599048500586895,-0.7925930733336445,-0.3088268623441259,0.00837415931236867,-1.561410880488432,-0.9503690040806708,-1.3125883889330583,0.39174487217185616,0.36452545913024975,1.5192629657793633,0,285,0.0,0.0,0.0,0.0,0.0,0.0,-0.00062835217,0.0005584955,-0.009110451,-0.01034981,0.0063180625,0.0102626085
1.399934293506326,0.7132757169812463,1.1599052662839515,-0.7925889442095991,-0.30882190347682187,0.008361122595561037,-1.5587773135006129,-0.9418860632317559,-1.3335447604137523,0.3839313542789497,0.37474957370607903,1.527841428562867,0,286,0.0,0.0,0.0,0.0,0.0,0.0,0.00012218952,0.0025656223,-0.008028507,-0.0034382641,0.0042411685,0.004188776
1.3999464333538654,0.7132530681953738,1.1598911875627242,-0.7925597541430641,-0.3088225217737096,0.008360600665758663,-1.559642336047216,-0.9383868701317464,-1.3456891289046853,0.3760131892461129,0.38146277860593625,1.536325657468175,0,287,0.0,0.0,0.0,0.0,0.0,0.0,0.0,0.0,0.0,0.0,0.0,0.0
1.399957455913754,0.7132492951457045,1.1598807501953876,-0.7925843488504637,-0.30881512021101515,0.008372362970979253,-1.5590420726517855,-0.9386440033814929,-1.3431128253534785,0.38004071580615584,0.3798118209802954,1.5327140025950825,0,288,0.0,0.0,0.0,0.0,0.0,0.0,0.002233982,0.0068591237,-0.015201926,-0.0030892491,0.009058237,0.0049916506
1.3999456604426688,0.7132500962426654,1.1598993256693908,-0.7925765050414364,-0.3088156309220741,0.008358007399244534,-1.5562393831882049,-0.9325126714904792,-1.3569880615823662,0.3777526579416178,0.38812872472936494,1.5367002399810978,0,289,0.0,0.0,0.0,0.0,0.0,0.0,0.0,0.0,0.0,0.0,0.0,0.0
1.3999626425027174,0.7132453610640904,1.1599270556827557,-0.7925788363175701,-0.3088220100744615,0.00833820878855076,-1.5569697871737511,-0.9325555557554701,-1.3569892610168974,0.377074198340509,0.387954333317252,1.5366453406563383,0,290,0.0,0.0,0.0,0.0,0.0,0.0,0.0021816492,0.007120967,-0.016702771,-0.0043109655,0.009215325,0.005654931
1.3999403775071295,0.7132652688090867,1.1599003994785844,-0.7926051180092479,-0.3088158962303462,0.008368917830431203,-1.5546936052720357,-0.9250906465781908,-1.3739077326292075,0.37221578815956646,0.3973986871868929,1.5429118239657387,0,291,0.0,0.0,0.0,0.0,0.0,0.0,0.0,0.0,0.0,0.0,0.0,0.0
1.3999524709284248,0.7132619657291166,1.1598959156878663,-0.7925669400791612,-0.3088186994721346,0.008333214450850451,-1.554395495794202,-0.9252062790432609,-1.374298664604912,0.3735534512990997,0.3977033600537444,1.5418272064688014,0,292,0.0,0.0,0.0,0.0,0.0,0.0,0.0010471344,0.007278025,-0.01864016,-0.006230831,0.011309743,0.008150578
1.3999391506442203,0.7132458956408492,1.1598970470115317,-0.7925784092035826,-0.3087987746230761,0.008351333053321877,-1.5533645530930542,-0.9170822819184936,-1.3939069875828447,0.3654068708156802,0.40945768359701173,1.5521418532550166,0,293,0.0,0.0,0.0,0.0,0.0,0.0,0.0,0.0,0.0,0.0,0.0,0.0
1.3999438439552725,0.7132456095078896,1.1598950867743136,-0.7925868678340551,-0.30884672607928015,0.008369379906736614,-1.5532926166223684,-0.918077633991301,-1.3930824386388314,0.36617642864315775,0.40865127589276673,1.5511099420339138,0,294,0.0,0.0,0.0,0.0,0.0,0.0,0.0,0.0,0.0,0.0,0.0,0.0
1.3999387349950911,0.7132421143071718,1.1599146328924297,-0.7925774221779044,-0.3088006576417039,0.008360927433801183,-1.5534643616731876,-0.9179678917684285,-1.3927844916629184,0.3663656016707791,0.40900447630351966,1.5507072079492428,0,295,0.0,0.0,0.0,0.0,0.0,0.0,0.0,0.0,0.0,0.0,0.0,0.0
1.3999240917326006,0.7132534770166754,1.1599141572863234,-0.7925731723381665,-0.30883533524181195,0.008361559907357392,-1.5538711653891475,-0.9180824776432625,-1.3924784443198457,0.3661478399012431,0.4087770404597494,1.5512401510887723,0,296,0.0,0.0,0.0,0.0,0.0,0.0,0.0018850565,0.025411963,-0.06052804,-0.020472705,0.033265978,0.023247838
1.3999579866673395,0.7132638875183194,1.1598890148760301,-0.7926011578897826,-0.3088090118373657,0.008353266473324338,-1.5519014922693561,-0.892304362734921,-1.453817535597403,0.3450481814808287,0.4425779241696577,1.5749113917899467,0,297,0.0,0.0,0.0,0.0,0.0,0.0,0.00027918816,0.005550146,-0.013334274,-0.0043284,0.008464873,0.005584955
1.3999497834828252,0.7132337428983739,1.1599065866174332,-0.792572531148852,-0.3088209112081478,0.008343557362222413,-1.5510200043196782,-0.8871579778047616,-1.4667463922552033,0.3421588522609489,0.4505417597399246,1.578769457119766,0,298,0.0,0.0,0.0,0.0,0.0,0.0,0.0004014969,0.00911063,-0.021327972,-0.0067718923,0.010733753,0.007522464
1.3999547673904689,0.7132677775714463,1.159891724393673,-0.7925900299935938,-0.30881001933533947,0.008349905893798287,-1.5519600835348117,-0.8780460207358333,-1.487568927341076,0.33411441342415027,0.4611180483891448,1.5866269622486358,0,299,0.0,0.0,0.0,0.0,0.0,0.0,0.00050616264,0.008011043,-0.017749906,-0.005078912,0.010035634,0.0068591833
1.3999584960853622,0.7132671902347105,1.1599082686933948,-0.7925803442419779,-0.3088271214790127,0.008364214027793446,-1.5509662112054625,-0.8697814651398802,-1.506641611825419,0.3275690446486046,0.4724563537523626,1.5957427721587925,0,300,0.0,0.0,0.0,0.0,0.0,0.0,0.00038397312,0.0037699938,-0.008831382,-0.0022340417,0.0049043894,0.0034905672
1.3999521800055446,0.713250682939875,1.1599082941774872,-0.7926190069068011,-0.3088287360197051,0.00836987932726864,-1.5504707746548219,-0.8662084590674648,-1.51435717504009,0.326968840790003,0.47639655999307373,1.5983604060760732,0,301,0.0,0.0,0.0,0.0,0.0,0.0,0.0009948015,0.004851997,-0.010297537,-0.0016754866,0.0049741864,0.0029671192
1.3999401060198786,0.7132424709800548,1.1599012355089633,-0.7925866349868637,-0.3088130500256369,0.008367579568774739,-1.5489484939947231,-0.861761136922999,-1.5241993921828636,0.32484679714871,0.48108182500331564,1.6006350678633827,0,302,0.0,0.0,0.0,0.0,0.0,0.0,0.0017976761,0.0036477447,-0.005305767,0.00012218952,0.0024783611,0.0005584955
1.3999287413377257,0.7132575094659916,1.1598942733249886,-0.792586229609308,-0.3088224728247865,0.008364764236585536,-1.5480907520842189,-0.8578200277481108,-1.530038460529737,0.32623781631883236,0.4836383869427575,1.6008336782039116,0,303,0.0,0.0,0.0,0.0,0.0,0.0,0.0,0.0,0.0,0.0,0.0,0.0
1.399941148876378,0.7132486516854196,1.1599027231121004,-0.7925720805234212,-0.30881778001342214,0.008358939004059948,-1.547848791333669,-0.8576704738238556,-1.5302088862297125,0.3245403180939132,0.484500888417281,1.602544303666579,0,304,0.0,0.0,0.0,0.0,0.0,0.0,0.0034382343,0.0033509731,-0.0010820627,0.006108612,-6.979704e-05,-0.0047996044
