ias30/Pi0/openpi-main/predictions.csv
joint_0_right_waist,joint_1_right_shoulder,joint_2_right_elbow,joint_3_right_forearm_roll,joint_4_right_wrist_angle,joint_5_right_wrist_rotate,joint_6_left_waist,joint_7_left_shoulder,joint_8_left_elbow,joint_9_left_forearm_roll,joint_10_left_wrist_angle,joint_11_left_wrist_rotate,episode_index,frame_index,gt_joint_0_right_waist,gt_joint_1_right_shoulder,gt_joint_2_right_elbow,gt_joint_3_right_forearm_roll,gt_joint_4_right_wrist_angle,gt_joint_5_right_wrist_rotate,gt_joint_6_left_waist,gt_joint_7_left_shoulder,gt_joint_8_left_elbow,gt_joint_9_left_forearm_roll,gt_joint_10_left_wrist_angle,gt_joint_11_left_wrist_rotate
1.3999674650527396,0.7132300661988039,1.1599215381443007,-0.7926029460478473,-0.3088500576527852,0.008346999892459551,-1.3884738745060472,-0.7791453172302947,-1.2426709664992641,1.2228306820390729,0.24884295121083866,0.7399459680577486,0,0,0.0,-3.4987926e-05,-3.4809113e-05,0.0,0.0,0.0,0.0,0.0,-3.4928322e-05,3.4928322e-05,0.0,0.0
1.399970381422606,0.7132045787979175,1.1599005633964359,-0.7925825622455339,-0.3088621556607697,0.008364502317988614,-1.3887033376865205,-0.7787490265206128,-1.2431852565486747,1.2226829973756568,0.24850004121946725,0.7398431398637348,0,1,0.0,3.4987926e-05,0.0,3.4868717e-05,0.0,-3.49069e-05,3.4928322e-05,0.0,-1.7642975e-05,-3.4928322e-05,0.0,0.0
1.3999701696070628,0.71322167416855,1.1598894197125273,-0.7925300975708849,-0.30884144806430375,0.008328251669321276,-1.3890158674960906,-0.7793242696595545,-1.243215320874724,1.2223227569573167,0.2489434414181431,0.7404396448712781,0,2,1.7404556e-05,-3.4987926e-05,0.0,-3.4868717e-05,0.0,0.0,-3.4928322e-05,3.4987926e-05,1.7642975e-05,0.0,0.0,-1.7523766e-05
1.3999804402956393,0.7131832902916742,1.1598778221962347,-0.7925884555668544,-0.30884584152334815,0.008309214722180807,-1.388721894830904,-0.778699303752968,-1.2438145375510028,1.2221908576267126,0.24885420388549115,0.7407160070273549,0,3,-1.7404556e-05,3.4987926e-05,0.0,0.0,0.0,3.49069e-05,3.4928322e-05,-3.4987926e-05,0.0,3.4928322e-05,-1.744926e-05,0.0
1.3999577855761245,0.7132192410679167,1.1598760974221125,-0.7925828063021462,-0.3088469620254103,0.008372950152960905,-1.3886919319611917,-0.7791341901327696,-1.242464230892032,1.2235972173249945,0.24863114510880685,0.7401403940358957,0,4,1.7404556e-05,-3.4987926e-05,3.4809113e-05,0.0,0.0,0.0,-3.4928322e-05,3.4987926e-05,-1.7642975e-05,-3.4928322e-05,3.491342e-05,1.7523766e-05
1.3999947980796124,0.7132060556652189,1.1599155707274407,-0.7925792404459056,-0.30886240743830873,0.008367910973848144,-1.388879897546582,-0.7789955559968906,-1.2431353585726417,1.2227243754164614,0.24907804268366862,0.7393374098813089,0,5,-1.7404556e-05,3.4987926e-05,-3.4809113e-05,3.4868717e-05,-1.7493963e-05,0.0,0.0,0.0,0.0,0.0,-3.491342e-05,0.0
1.3999687572237633,0.7132343531907243,1.1598916162723794,-0.792553830275312,-0.3088786962017381,0.008355778860287108,-1.3884167145077921,-0.7790380166619432,-1.2424090721403571,1.225042795518584,0.24892911294577952,0.7373477490435886,0,6,0.0,-3.4987926e-05,3.4809113e-05,-3.4868717e-05,1.7493963e-05,-3.49069e-05,3.4928322e-05,-3.4987926e-05,1.7642975e-05,3.4928322e-05,3.491342e-05,0.0
1.3999799976513878,0.7132093888402093,1.1599213414219478,-0.7925925212305125,-0.3088640878651131,0.008327337310969896,-1.3886514231513938,-0.7787995645867284,-1.2437277077888833,1.2222374609524906,0.24876659536395532,0.740260150266899,0,7,0.0,3.4987926e-05,-3.4809113e-05,3.4868717e-05,0.0,0.0,-3.4928322e-05,0.0,0.0,-3.4928322e-05,0.0,-1.7523766e-05
1.3999769521568983,0.713240046588332,1.1598776631089718,-0.7925545076238418,-0.30883243819955997,0.008328439606113427,-1.3885662360738658,-0.7786681635512076,-1.242800898218037,1.2239826626759427,0.24889780216554339,0.7392322976270009,0,8,-1.7523766e-05,0.0,3.4809113e-05,-3.4868717e-05,0.0,0.0,0.0,3.4987926e-05,3.4928322e-05,3.4928322e-05,-1.7464161e-05,1.7523766e-05
1.3999446615083793,0.7132562519802009,1.1599316218573927,-0.7925882006131263,-0.30885669161626583,0.008307089569248326,-1.3888437513726366,-0.778576086645947,-1.2432094828503748,1.222984377355578,0.24882691801684928,0.7399034508592243,0,9,1.7523766e-05,-3.4987926e-05,1.7523766e-05,0.0,-1.7493963e-05,0.0,3.4928322e-05,0.0,-3.4928322e-05,-3.4928322e-05,1.7464161e-05,-1.7523766e-05
1.3999749231323944,0.7131824737304856,1.159932935062823,-0.7925997597270842,-0.30887291927418126,0.00833976741762466,-1.3884106214977312,-0.7784011945294604,-1.243074979236161,1.224074776734575,0.24885687248380867,0.7387727764754566,0,10,0.0,3.4987926e-05,-1.7523766e-05,0.0,5.2392483e-05,3.49069e-05,-3.4928322e-05,0.0,-1.7642975e-05,0.0,-1.7464161e-05,1.7523766e-05
1.3999839971772254,0.7132359984585052,1.1598826611132873,-0.7925835169667501,-0.3088082741597729,0.008373027220526078,-1.3888615168915273,-0.7789008960512178,-1.2433248692285772,1.2211521087244703,0.24883987638783134,0.7422593594676355,0,11,0.0,-3.4987926e-05,-3.4809113e-05,3.4868717e-05,-3.489852e-05,-5.2359886e-05,3.4928322e-05,-3.4987926e-05,1.7642975e-05,3.4928322e-05,-1.744926e-05,-1.7523766e-05
1.3999500821421602,0.7131852857960571,1.15989192359547,-0.7925399897617361,-0.3088633041546874,0.00829679782180425,-1.3885074323357625,-0.7789104680144352,-1.2438096152204536,1.2230871308027838,0.2488182954106722,0.7397631487698596,0,12,0.0,3.4987926e-05,3.4809113e-05,-3.4868717e-05,0.0,1.7452985e-05,-3.4928322e-05,0.0,0.0,-3.4928322e-05,1.744926e-05,1.7523766e-05
1.3999594676865794,0.7132138260674258,1.1599308566261037,-0.7925997995604288,-0.30885368073449915,0.008328065058194167,-1.3889297747835398,-0.7784120135887438,-1.243790083963273,1.2242243658666643,0.248904648909759,0.7382565893690795,0,13,0.0,0.0,0.0,0.0,0.0,3.49069e-05,0.0,0.0,0.0,3.4928322e-05,1.7464161e-05,-1.7523766e-05
1.3999837415159166,0.7132245629847204,1.159922782621215,-0.7925904276884451,-0.30884160977679376,0.008355343068880328,-1.3885795906477811,-0.7786728376516466,-1.2436000526225797,1.224149125258736,0.2488043219219799,0.739314592862941,0,14,-1.7523766e-05,0.0,0.0,0.0,0.0,-3.49069e-05,0.0,0.0,0.0,0.0,-1.7464161e-05,1.7523766e-05
1.3999528128716963,0.713213191254728,1.1599140149728144,-0.7925923328257288,-0.3088497938412468,0.008327316380005396,-1.3888120786234655,-0.7788919715607738,-1.2423694476702378,1.2230581415455053,0.24840155285463517,0.739257249642999,0,15,1.7523766e-05,-3.4987926e-05,0.0,0.0,0.0,3.49069e-05,0.0,-1.7404556e-05,-1.7642975e-05,0.0,0.0,0.0
1.3999662291320514,0.7131758766991754,1.15994651948163,-0.7926068707808193,-0.3088433704762522,0.008361186186463872,-1.3884494381414152,-0.7789892598939336,-1.241812306041562,1.2244042043200976,0.24884097836784025,0.7387305072418031,0,16,0.0,3.4987926e-05,0.0,0.0,-1.7493963e-05,0.0,3.4928322e-05,1.7404556e-05,0.0,-3.4928322e-05,-1.744926e-05,-1.7523766e-05
1.3999566150082992,0.7132335707947766,1.1599227423030987,-0.7925843721754562,-0.30887126164844275,0.008358882581490392,-1.3887879002881207,-0.7793075638149808,-1.2421593238367157,1.2234964124116654,0.24885114126935906,0.7394764398736166,0,17,0.0,0.0,0.0,-1.7464161e-05,5.2392483e-05,0.0,-3.4928322e-05,0.0,1.7642975e-05,3.4928322e-05,1.744926e-05,0.0
1.3999737711257438,0.7132424393037264,1.1599145586614228,-0.7925951244703329,-0.308824604917417,0.008365419588701168,-1.3882565716979727,-0.7791281440035639,-1.2432386788048195,1.222715461495281,0.24888598115750268,0.7401366938033465,0,18,1.7404556e-05,-3.4987926e-05,0.0,5.2332878e-05,-5.2392483e-05,0.0,0.0,0.0,0.0,-3.4928322e-05,0.0,-3.4868717e-05
1.3999820432502803,0.7131988391064459,1.159911639390382,-0.7925420023077204,-0.3088589315726311,0.008359689739966134,-1.3888481909810249,-0.7789484955206858,-1.2423009683266522,1.2240210987257674,0.2488865286324194,0.7388197297418951,0,19,-1.7404556e-05,3.4987926e-05,0.0,-3.4868717e-05,0.0,0.0,0.0,0.0,0.0,0.0,-1.744926e-05,3.4868717e-05
1.3999637716604367,0.7132248204956209,1.1599331606953396,-0.7925790750370288,-0.3088589237864466,0.008362750508503356,-1.3889165471015872,-0.7790506017899624,-1.2431343075451293,1.223022251446329,0.24847876605494218,0.7395732758839494,0,20,0.0,0.0,0.0,0.0,1.7493963e-05,-3.49069e-05,0.0,3.4987926e-05,0.0,0.0,0.0,0.0
1.3999665824898395,0.7132141177286511,1.1599285947627984,-0.7925890391466069,-0.3088775398693353,0.008353857256911762,-1.388491159832257,-0.7788031161344388,-1.243494175096269,1.2240460425541204,0.2487668758283263,0.7393333713818745,0,21,0.0,-3.4987926e-05,0.0,0.0,-1.7493963e-05,0.0,0.0,-3.4987926e-05,-1.7642975e-05,0.0,3.491342e-05,1.7523766e-05
1.3999684495837064,0.7131954614293833,1.1599439940785385,-0.7925787179362412,-0.30886270928170545,0.008320294259563156,-1.3888395059669223,-0.7785878337767215,-1.2432011173383681,1.2230102203228042,0.24871924098058965,0.7397138918803172,0,22,0.0,0.0,-3.4809113e-05,0.0,1.7493963e-05,0.0,3.4928322e-05,-1.7404556e-05,0.0,3.4928322e-05,-1.7464161e-05,0.0
1.399966827674479,0.7132088594691565,1.159865248350945,-0.7925920311781999,-0.3088483991227604,0.008313730379201538,-1.3882714203705981,-0.779135321001054,-1.2435725905808401,1.2234556631128564,0.24925423229521954,0.7401567630604142,0,23,1.7404556e-05,0.0,3.4809113e-05,3.4868717e-05,0.0,3.49069e-05,0.0,0.0,0.0,-3.4928322e-05,1.7464161e-05,0.0
1.3999828858511847,0.7131893224927222,1.1599151674977979,-0.7925479014407116,-0.3088503644463558,0.00835724663065497,-1.387344902280312,-0.7789076041038405,-1.2407847328125612,1.2310547973929844,0.24910107178104796,0.7328956253703185,0,24,-1.7404556e-05,0.0,0.0,-3.4868717e-05,3.489852e-05,-3.49069e-05,-3.4928322e-05,1.7404556e-05,5.2571297e-05,-1.7404556e-05,-1.7464161e-05,-1.7523766e-05
1.3999599450210845,0.7132226175230105,1.159928287826593,-0.7925891258872386,-0.30882993318846325,0.008305057887820594,-1.388495181405702,-0.7784858044749122,-1.2426787172638007,1.2238595660134601,0.2489842515868944,0.7394202956710849,0,25,-1.7523766e-05,3.4987926e-05,0.0,0.0,-5.2392483e-05,-1.7452985e-05,0.0,0.0,0.0,0.0,0.0,0.0
1.3999476047458033,0.7132442830856521,1.1599147368151426,-0.7925894982891094,-0.3088599507461527,0.008293468690931166,-1.3883927757271253,-0.7785472356686065,-1.24429118497912,1.223089652420939,0.24907430022604415,0.7399824601125179,0,26,1.7523766e-05,0.0,-3.4809113e-05,3.4868717e-05,0.0,1.7452985e-05,0.0,0.0,-5.2571297e-05,1.7404556e-05,0.0,0.0
1.3999690476805167,0.7132367345475373,1.159880937505354,-0.7925498298088303,-0.3088776859181897,0.008316514633774825,-1.3886883328729693,-0.7795577476832501,-1.2422979989239993,1.2219546363501879,0.24843926095844907,0.7408467772447325,0,27,0.0,-3.4987926e-05,0.0,-3.4868717e-05,1.7493963e-05,3.49069e-05,0.0,0.0,0.0,0.0,0.0,0.0
1.39998549823838,0.7131977734712546,1.1598520492168636,-0.7925870914328216,-0.30886655988921113,0.008357569231522569,-1.388678187635114,-0.7789985846099081,-1.2430783435916684,1.223805657260322,0.24854830688933152,0.7389517185175084,0,28,0.0,0.0,5.2332878e-05,0.0,0.0,-3.49069e-05,5.2332878e-05,-0.00022679567,0.0012043715,0.0024260283,0.0,-0.0027575493
1.3999760061876818,0.7132164838992643,1.1599353592678894,-0.792579834276722,-0.3088279430166993,0.008314409265134552,-1.3888509300890326,-0.7792350051970801,-1.2417595681780056,1.223686042611078,0.2485607687541692,0.7379887347167048,0,29,0.0,3.4987926e-05,0.0,3.4868717e-05,3.489852e-05,0.0,0.0,0.0,0.0,0.0,0.0,0.0
1.3999622576801076,0.7132367133219806,1.159933145155561,-0.7925558350500278,-0.30882109492928783,0.008322300007551976,-1.3888676994738105,-0.7788827409942243,-1.2422104607227413,1.226418286822118,0.24872146186932922,0.73633218081033,0,30,0.0,-3.4987926e-05,-5.2332878e-05,-3.4868717e-05,0.0,0.0,0.0005759001,-0.0009599328,0.0045030117,0.013351798,0.0,-0.014241934
1.3999539855526208,0.7131969993966051,1.1598912501016936,-0.7925908852675577,-0.3088134837810012,0.008325888409420916,-1.3877109802149221,-0.7802509974879497,-1.2368590807679034,1.2395176435968078,0.24907598483184726,0.7225090238481318,0,31,0.0,3.4987926e-05,3.4809113e-05,0.0,0.0,0.0,0.0,0.0,0.0,0.0,0.0,0.0
1.3999597977566651,0.713236523716454,1.159907029253158,-0.7926005201926913,-0.3088059313199619,0.008324476074598797,-1.3880197141571093,-0.7796899724154052,-1.2376135771565273,1.2388981716299714,0.24873274266468368,0.7236623977289681,0,32,0.0,-3.4987926e-05,-3.4809113e-05,0.0,-3.489852e-05,3.49069e-05,0.00064587593,-0.0005585551,0.0031938553,0.009965777,0.0,-0.009354949
1.3999773538464577,0.7132165781659816,1.1598671558319151,-0.7925746894210365,-0.30884992249508136,0.008356267622360329,-1.3873525195016152,-0.7809041076968536,-1.2328629328468517,1.2501169882950032,0.24848434635267358,0.7118715063555296,0,33,-1.7523766e-05,0.0,0.0,0.0,3.489852e-05,0.0,0.0,0.0,0.0,0.0,0.0,0.0
1.3999584653247126,0.7131950716353839,1.159894191030857,-0.792575423352833,-0.3088135672121315,0.008359327354231217,-1.3865901480812486,-0.7804561193894277,-1.2331235299893384,1.2542872146753756,0.24948368579935704,0.707808625215945,0,34,0.0,3.4987926e-05,0.0,3.4868717e-05,-5.2392483e-05,-3.49069e-05,0.0009075403,-8.72612e-05,0.001221776,0.006527543,-1.744926e-05,-0.006195903
1.3999483076055774,0.7132518427474206,1.1598907455397813,-0.7925780652632228,-0.30887088021116715,0.008310480594322153,-1.3862514655495255,-0.7808120934822889,-1.2326323605400453,1.2566305652251946,0.24878100032966866,0.7066125146845711,0,35,0.0,1.7404556e-05,3.4809113e-05,-3.4868717e-05,1.7493963e-05,3.49069e-05,0.0,0.0,0.0,0.0,0.0,0.0
1.3999514946031568,0.7132412780716969,1.1599246178338631,-0.7925924060934272,-0.30885451132051533,0.008351863848858812,-1.3866999555296367,-0.7808237838924377,-1.2330575889049895,1.2539390191926538,0.248476692153171,0.7081562899749464,0,36,1.7523766e-05,-1.7404556e-05,1.7523766e-05,3.4868717e-05,0.0,-3.49069e-05,0.00062823296,0.00010472536,-3.4928322e-05,0.002233982,1.744926e-05,-0.002129376
1.3999788175969468,0.7132196646990036,1.1599418440241338,-0.7925522893864064,-0.30886231019490473,0.008331840805806286,-1.385137931406583,-0.7797209775784004,-1.2330155049756872,1.2623787687711188,0.24943667325827484,0.6998887400494633,0,37,0.0,0.0,-1.7523766e-05,-3.4868717e-05,0.0,0.0,0.0010473728,0.00068068504,0.0,0.005026579,0.00031417608,-0.004083991
1.3999610841066956,0.7132164944540267,1.159921675752434,-0.7926039106136645,-0.30885084757761544,0.008304076576858827,-1.3839889833522274,-0.7793133285571762,-1.2327775408838666,1.264933315136688,0.2494828471045933,0.6978336813169842,0,38,0.0,-3.4987926e-05,0.0,0.0,0.0,3.49069e-05,0.0,0.0,0.0,0.0,0.0,0.0
1.3999873772315354,0.7131924014663135,1.1598887969101175,-0.7925969404663771,-0.3088553895372476,0.008357130352490881,-1.3843057433720818,-0.7793080596320705,-1.233587982990122,1.262482738389621,0.24909360825670662,0.7010611075682475,0,39,0.0,3.4987926e-05,-3.4809113e-05,0.0,0.0,0.0,0.00089001656,0.00045377016,0.0,0.0042237043,0.0003490448,-0.0039967895
1.3999707047897865,0.7132172887716373,1.1598807570545606,-0.7925956014719691,-0.30883451873668544,0.008341666027889886,-1.3822012450949246,-0.7783295611694259,-1.232283710442501,1.2715896142913337,0.2503879635909544,0.6922045476837062,0,40,1.7404556e-05,-3.4987926e-05,3.4809113e-05,0.0,-1.7493963e-05,-3.49069e-05,0.0,0.0,0.0,0.0,0.0,0.0
1.3999735822183217,0.713192523617677,1.1599290538931815,-0.7925670463859376,-0.3088818517954127,0.008317335479602285,-1.3820617805220416,-0.7777438178274038,-1.232796071682477,1.2740463665825568,0.25024099074204575,0.6888546740507411,0,41,-3.4928322e-05,0.0,-3.4809113e-05,3.4868717e-05,1.7493963e-05,-1.7452985e-05,0.00059342384,0.0005236268,0.0,0.0027052164,0.00062832236,-0.0024784207
1.3999432302935513,0.7131915831450295,1.1598943306955423,-0.7925470954046696,-0.30885241629616433,0.008319108223750557,-1.3828432478841486,-0.7789853736907878,-1.2328005849035737,1.2691038845367448,0.2501443729179824,0.6951491856948107,0,42,3.4928322e-05,0.0,3.4809113e-05,0.0,0.0,0.0,0.00024437904,0.000872612,-0.00080275536,-0.00024437904,0.00068068504,0.00036650896
1.4000040068836088,0.7131837019936402,1.1599054441679595,-0.79255046064127,-0.30882195532891044,0.008305453937213237,-1.381228550250156,-0.775211878530463,-1.2367105692833142,1.2698507960166292,0.25203667046288863,0.6944252997155511,0,43,-3.4928322e-05,3.4987926e-05,1.7523766e-05,-3.4868717e-05,0.0,0.0,0.0,0.0,0.0,0.0,0.0,0.0
1.3999341860286385,0.713229229555002,1.1599507764334949,-0.7925718385289546,-0.3088505703961577,0.00832193652172696,-1.380507622904205,-0.7755459139228706,-1.2349991305530779,1.2766055100015552,0.2523156805528658,0.6879972346606306,0,44,1.7523766e-05,0.0,-1.7523766e-05,0.0,0.0,1.7452985e-05,0.0013438463,0.0025307536,-0.0040667057,-0.0010820627,0.0016056895,0.0021467805
1.3999560954445571,0.7132532401456707,1.1599061279277159,-0.7925791621403072,-0.3088404189156655,0.008309172202080555,-1.3791035521273045,-0.7721427545184137,-1.2403990640245623,1.2741978803127587,0.25377851770735266,0.6924631957849865,0,45,0.0,-3.4987926e-05,-3.4809113e-05,0.0,0.0,3.49069e-05,0.0,0.0,0.0,0.0,0.0,0.0
1.3999614844370287,0.7132099247519558,1.159890372742635,-0.7925928911414009,-0.3088556500798378,0.008356710368381181,-1.3769891970865422,-0.7690282761634117,-1.2436321518908366,1.2769586841780054,0.2559976277533806,0.6902448773461004,0,46,0.0,3.4987926e-05,3.4809113e-05,0.0,-1.7493963e-05,-3.49069e-05,0.002775073,0.0043632984,-0.0044505596,0.0023038387,0.002338767,-0.0015010238
1.3999606556689077,0.7132276308570322,1.1599140205905765,-0.7925791304101135,-0.30885883208995324,0.008330146232981303,-1.3776928253127338,-0.7703244626905211,-1.2434311525462265,1.2707742234915291,0.2555762667635505,0.6953339738184674,0,47,-1.7523766e-05,-3.4987926e-05,-3.4809113e-05,0.0,0.0,3.49069e-05,0.0014486313,0.0019721985,-0.0013962984,0.0032812357,0.0011693537,-0.0029321313
1.3999435569105687,0.7131944617623424,1.1598817586196706,-0.7925714485186722,-0.3088587775792034,0.008355275965244808,-1.3768685123129285,-0.769428601222162,-1.2448266901881127,1.270433716786245,0.2566174241053282,0.6962023559935477,0,48,1.7523766e-05,0.0,5.2332878e-05,0.0,0.0,-3.49069e-05,0.0,0.0,0.0,0.0,0.0,0.0
1.3999393496717167,0.7131841911547181,1.1599359366369666,-0.7925890405114266,-0.3088733037538674,0.008347140664039247,-1.3710263786559507,-0.7617661775102772,-1.250089526253741,1.286284714198742,0.2610018958694052,0.6814155559120249,0,49,0.0,0.0,-1.7523766e-05,3.4868717e-05,5.2392483e-05,0.0,0.006667137,0.008464873,-0.0053581,0.017208934,0.0051138103,-0.014573514
1.399959334310879,0.7131731371107508,1.1599475418676986,-0.792560642457304,-0.3088080644884134,0.008310664665989644,-1.3664849873059033,-0.7540508561966784,-1.2565497261862575,1.2930146113708934,0.2644959160320395,0.6771502320258609,0,50,0.0,0.0,0.0,0.0,-3.489852e-05,3.49069e-05,0.0071558952,0.010681391,-0.008936048,0.013090014,0.005759597,-0.0099134445
1.3999582071637109,0.7132036786657606,1.1599241315450595,-0.7925393105662949,-0.30884812835893855,0.00835223745147262,-1.358136957555651,-0.7405783457973012,-1.2687494129442047,1.3060194418767166,0.2724874684018732,0.6690415242767863,0,51,0.0,3.4987926e-05,3.4928322e-05,-3.4868717e-05,0.0,0.0,0.0026704073,0.0038048625,-0.0039619207,0.0023561716,0.002408564,-0.0016231537
1.3999659402694524,0.7132362062168797,1.1599498175281193,-0.7925558245623718,-0.3088520689849749,0.008359387544737962,-1.3575940361558465,-0.7386355345890103,-1.2706182387306202,1.3028930010805104,0.27257458424347736,0.6701946100999298,0,52,0.0,-3.4987926e-05,-6.9737434e-05,0.0,3.489852e-05,-3.49069e-05,0.0,0.0,0.0,0.0,0.0,0.0
1.3999672048515874,0.7132068330922534,1.159895009400618,-0.7925906806928302,-0.30880364288275935,0.00832124132883928,-1.3574919338585612,-0.7388292934953783,-1.2706925051133706,1.302994275529641,0.2721209261399816,0.6708713226468381,0,53,0.0,3.4987926e-05,0.0,0.0,-3.489852e-05,0.0,0.0073826313,0.013997555,-0.01740098,0.001553297,0.007120937,0.0012217164
1.3999696094716312,0.713208548130632,1.1598932715562962,-0.7925768492817815,-0.3088463036882177,0.008344322298295863,-1.350181976060797,-0.725623203327083,-1.287473465912744,1.306288593853826,0.2797189133727093,0.6703030900826707,0,54,0.0,0.0,0.0,0.0,3.489852e-05,3.49069e-05,0.004049182,0.0092327595,-0.012339473,-0.0040317774,0.0046076477,0.0064228177
1.399972593252777,0.7132231682378003,1.1598595354095667,-0.7925989984261776,-0.3088059170154581,0.008359059685492257,-1.3481220813963877,-0.7196079762623558,-1.2962785669362933,1.3020367455836195,0.2819754664429741,0.6760483851984102,0,55,0.0,-3.4987926e-05,3.4809113e-05,3.4868717e-05,-3.489852e-05,0.0,0.0,0.0,0.0,0.0,0.0,0.0
1.3999551577686713,0.7131992197363896,1.1598966751715196,-0.7925527388838101,-0.3088673854149531,0.008342225035294259,-1.3477715578085259,-0.71769511006947,-1.2970156817519505,1.3029309352897376,0.28240410151556555,0.6747934409016202,0,56,0.0,0.0,0.0,-3.4868717e-05,0.0,-3.49069e-05,0.0081682205,0.021380305,-0.032550335,-0.019809365,0.0104545355,0.024050593
1.3999601698285182,0.7132067259758145,1.1599390411086725,-0.7925942539026897,-0.3088503830466855,0.008322153216717832,-1.3403540569945824,-0.698077513268802,-1.32818970874748,1.2839885185453972,0.29190808346569214,0.6986610479420067,0,57,1.7404556e-05,3.4987926e-05,1.7523766e-05,3.4868717e-05,-1.7493963e-05,0.0,0.0,0.0,0.0,0.0,0.0,0.0
1.3999835890987764,0.713242329883222,1.1599215121632787,-0.7925504954325193,-0.3088635869801046,0.008312985471047528,-1.3404009471174454,-0.6997881984390011,-1.32593162168597,1.2848711089685783,0.2920983709833723,0.6972239021304486,0,58,-1.7404556e-05,-3.4987926e-05,-5.2332878e-05,-3.4868717e-05,1.7493963e-05,0.0,0.00511384,0.012339413,-0.016301513,-0.008534789,0.0055850446,0.011362135
1.3999705425533697,0.7131862587335144,1.1598850234315505,-0.7925660178842835,-0.3088679347921748,0.00833777636195726,-1.3320435320263282,-0.6816988732972794,-1.346873068973706,1.2830810868117466,0.30089100478657826,0.7037996765144588,0,59,0.0,3.4987926e-05,3.4809113e-05,0.0,0.0,3.49069e-05,0.0019721985,0.0041365027,-0.0049915314,-0.0002965927,0.002251476,0.0015358925
1.399974247226877,0.7132436617943649,1.1599136034405186,-0.7925813526381782,-0.30885338028211967,0.00835716422686849,-1.3304942498109003,-0.678768082530181,-1.350171038254278,1.2820867183849016,0.30247777103550355,0.7060412587521674,0,60,0.0,0.0,-3.4809113e-05,0.0,-1.7493963e-05,1.7452985e-05,0.004485488,0.0071558356,-0.0077317953,0.0032463074,0.0038746297,-0.0007854104
1.3999526563524722,0.7132255581042268,1.1598756115873166,-0.7925794732408907,-0.30886042622826915,0.008375146566947756,-1.3249316354833416,-0.6674763118492069,-1.3657835083235752,1.2783086125826066,0.3076883077931197,0.7124566242808081,0,61,0.0,0.0,3.4809113e-05,0.0,1.7493963e-05,-5.2359886e-05,0.0,0.0,0.0,0.0,0.0,0.0
1.3999436172037691,0.7132407710465645,1.1598924331291534,-0.7925687082347862,-0.3088471145775735,0.008331299121543833,-1.3257585569095132,-0.6697954665748097,-1.3605997029062307,1.2862204892914553,0.30707867909485304,0.7036839770701604,0,62,0.0,-3.4987926e-05,-3.4809113e-05,0.0,-1.7493963e-05,0.0,0.010175347,0.01364845,-0.009983301,0.019809484,0.007976174,-0.014817834
1.3999634884789929,0.7132064385288429,1.1598312497672856,-0.7925830503419778,-0.30887722316600025,0.00832933554872132,-1.3129124848491556,-0.6540732549506649,-1.3692231165586368,1.3156854076765023,0.3168652134690934,0.6812413904090168,0,63,0.0,0.0,5.2332878e-05,0.0,1.7493963e-05,3.49069e-05,0.0,0.0,0.0,0.0,0.0,0.0
1.3999737813301951,0.7132001172843386,1.1599268698264258,-0.7925909890973355,-0.308842074389762,0.008359458048769572,-1.3162484481378607,-0.6583164848143298,-1.369072072418974,1.3032445323219948,0.3136396173636049,0.691742839587835,0,64,0.0,0.0,0.0,3.4868717e-05,3.489852e-05,-3.49069e-05,0.007784128,0.011274815,-0.0079238415,0.015376449,0.0063878894,-0.013491392
1.39993403263433,0.7132004577788875,1.1599260034940662,-0.7925417531386277,-0.30883677685686445,0.008320330945618518,-1.3064515200595486,-0.6458193029058819,-1.3767816621454823,1.3237654880956884,0.32159406706679106,0.6736596883254795,0,65,-1.7523766e-05,3.4987926e-05,-1.7523766e-05,0.0,-3.489852e-05,0.0,0.0,0.0,0.0,0.0,0.0,0.0
1.39995351751394,0.7132392633044123,1.159924273824717,-0.7925528420675358,-0.3088350389884308,0.00832659028473503,-1.30906754988199,-0.6469217411267673,-1.3790809688439216,1.3138459352690925,0.3208500020800681,0.6814399292963486,0,66,1.7523766e-05,0.0,-3.4809113e-05,-3.4868717e-05,0.0,0.0,0.014329076,0.02535963,-0.02790773,0.010349631,0.012479097,-0.0056548715
1.3999701369977535,0.7132308637550645,1.1598626432792998,-0.7925665930159512,-0.3088869822607327,0.008324387346401878,-1.2960339901376978,-0.6229835241228834,-1.4062567545024363,1.3215099297290591,0.33127567810783637,0.6802011937894512,0,67,-1.7523766e-05,-5.2392483e-05,3.4809113e-05,0.0,0.0,0.0,0.0027401447,0.006161034,-0.008150816,-0.0010122061,0.0032637715,0.0029495955
1.3999380698934643,0.713210457826589,1.159940459176856,-0.7925721671596404,-0.3088511427385218,0.008317858309961923,-1.2912586723117219,-0.6102890296946685,-1.4234133415250412,1.312669549701991,0.33786863494091535,0.6918452070400577,0,68,1.7523766e-05,5.2392483e-05,0.0,0.0,0.0,3.49069e-05,0.005323291,0.012810707,-0.01818633,-0.006771922,0.005340725,0.009005904
1.3999643658194065,0.7132596936378484,1.1599402592941626,-0.7925739970547121,-0.3088674210494261,0.008367720257074872,-1.2894027808512585,-0.607340978925702,-1.4277776232164987,1.3113216706905553,0.33909223962750273,0.6933855679842353,0,69,1.7404556e-05,-3.4987926e-05,0.0,0.0,0.0,-5.2359886e-05,0.002146721,0.0057421327,-0.008342624,-0.0041538477,0.0030019581,0.0067195296
1.399981174866962,0.7131904666591172,1.159944579082775,-0.7925894787434742,-0.3088318320219729,0.008297288440927232,-1.2858494854538316,-0.5989460807123418,-1.4399404521490948,1.3079350073620086,0.3436890942686851,0.6988255057205965,0,70,-1.7404556e-05,3.4987926e-05,1.7523766e-05,3.4868717e-05,0.0,1.7452985e-05,0.0037872791,0.0115017295,-0.016877294,-0.009512067,0.005096376,0.012077689
1.3999493608274878,0.7132489590698337,1.1599576118906036,-0.7925427891934029,-0.3088482941961859,0.00832091369007162,-1.2825676020371928,-0.5869626977833065,-1.4578267280937869,1.297353543351831,0.34784978324130883,0.7127850405486027,0,71,-1.7523766e-05,0.0,-5.2332878e-05,0.0,0.0,5.2359886e-05,0.001902461,0.005393088,-0.00919795,-0.0071733,0.002757609,0.007714331
1.3999374556369648,0.7132558005306576,1.1598503695489137,-0.7925653258048928,-0.3088730957572076,0.00837291875980964,-1.279885292104363,-0.5792769637874686,-1.4699673213669564,1.2876231848001092,0.35145415987918427,0.7226516752703552,0,72,1.7523766e-05,-3.4987926e-05,0.0,-3.4868717e-05,0.0,-1.7452985e-05,0.0018675327,0.0064576864,-0.011623859,-0.009791255,0.0028100014,0.011536658
1.3999601998452291,0.7131756865193803,1.1598881615557193,-0.7925813119644068,-0.30884167516135314,0.008350393214606979,-1.2801851195425173,-0.578993847991474,-1.473238936408136,1.2813021326023404,0.35247381199572636,0.7290045427743744,0,73,0.0,3.4987926e-05,3.4809113e-05,0.0,0.0,0.0,0.0006109476,0.0025656223,-0.0047996044,-0.0052012205,0.0013962388,0.006352961
1.3999505494586646,0.7132204916343134,1.1599219030098311,-0.792571643441775,-0.30882484231040513,0.008370247142450252,-1.279870854472121,-0.5751467948451763,-1.4792095521515587,1.2741302632186038,0.35343460747738364,0.7366776399606629,0,74,0.0,0.0,-3.4809113e-05,0.0,0.0,0.0,0.00012207031,0.0016755462,-0.0033335686,-0.0057071447,0.0008726716,0.0070162416
1.399968419734801,0.7132211422561728,1.1598806678583722,-0.7925644197960079,-0.30885233069847595,0.00836414068970999,-1.2790513896037472,-0.5741325187855083,-1.4831389487948208,1.2694607569857848,0.35449276277302827,0.7450376921753082,0,75,1.7404556e-05,-3.4987926e-05,0.0,0.0,-1.7493963e-05,0.0,3.4928322e-05,-5.2332878e-05,-0.000104784966,-0.0017278194,-1.7464161e-05,0.0019896626
1.3999642139019546,0.7131933710103665,1.159856599167776,-0.7925797277834948,-0.3088438731812091,0.008341619407736997,-1.2794447031561875,-0.5755239686878167,-1.4786526627715784,1.2715266546000568,0.3540968708928653,0.7413405990299482,0,76,-1.7404556e-05,0.0,5.2332878e-05,-1.7464161e-05,5.2392483e-05,0.0,-0.0009948015,-0.0016929507,0.002827406,-0.0004886389,-1.7464161e-05,0.00019198656
1.3999835204897046,0.713174176991496,1.159932162679282,-0.792611468281396,-0.3088064576276286,0.00836809102563683,-1.2806350376626392,-0.5795725894575421,-1.472901163757901,1.2734948777954846,0.3537745796775084,0.7404749610454353,0,77,0.0,0.0,-1.7523766e-05,5.2332878e-05,-5.2392483e-05,0.0,-0.0010471344,-0.0023388267,0.0032987595,0.00015699863,-0.0004363358,-0.00071555376
1.3999665081537784,0.7131925713341606,1.1599114230739167,-0.7925419231966547,-0.30885543846202657,0.008355798201758715,-1.281738375206796,-0.5817677339598338,-1.4692378222298361,1.2740896813355627,0.3534798217744227,0.7387342852940844,0,78,0.0,3.4987926e-05,0.0,-3.4868717e-05,0.0,-3.49069e-05,-0.0031416416,-0.0074873567,0.011676192,0.0037350655,-0.003281206,-0.006161034
1.399958357008609,0.7132644738032674,1.1599294351104452,-0.792596118156911,-0.3088621277640985,0.008309936126349561,-1.2858011065502444,-0.5905297564789476,-1.4556070520243332,1.2794454702636016,0.3494913664757866,0.7312017184325571,0,79,0.0,0.0,-3.4809113e-05,0.0,1.7493963e-05,0.0,-0.0012216568,-0.0027402043,0.003909588,0.0017627478,-0.0013962686,-0.0025656223
1.3999663483505442,0.7132372631616001,1.159916372787359,-0.7925759527369376,-0.30884955119280405,0.00832679209532968,-1.286647072575261,-0.5905978963685021,-1.4554637709813227,1.2777139630453371,0.3487361168749407,0.7319050762086013,0,80,0.0,0.0,3.4809113e-05,0.0,-1.7493963e-05,3.49069e-05,-0.001326561,-0.0031939745,0.0045028925,0.0017627478,-0.0013090074,-0.0026180148
1.3999643455950905,0.7132310999714215,1.1599523646911913,-0.7925744723326649,-0.3088696022700669,0.008345781757311264,-1.2885243828305966,-0.5969780374742327,-1.4461865696173437,1.2831569501885045,0.3467025720449799,0.7253832065928152,0,81,0.0,-3.4987926e-05,-3.4809113e-05,0.0,1.7493963e-05,-3.49069e-05,-0.0027227402,-0.006824255,0.009250283,0.0043632984,-0.0035080612,-0.0057944655
1.3999672384889394,0.7131921578404025,1.1598911814020394,-0.7925899197769446,-0.30885031461924944,0.008311540186643667,-1.290496396698061,-0.6018123599625256,-1.4405064685935556,1.284806139936913,0.34280094595793653,0.7227235525995991,0,82,0.0,3.4987926e-05,0.0,3.4868717e-05,3.489852e-05,-1.7452985e-05,-0.0013613701,-0.003141582,0.0041713715,0.0017104149,-0.0016929805,-0.002565682
1.3999696772203862,0.7132355711757797,1.1598964809988204,-0.792537226587288,-0.3088271053193236,0.008296744481965268,-1.2918273383372347,-0.6039209428230542,-1.438176162144684,1.2856018878859108,0.34228514433074453,0.7211968028362264,0,83,0.0,-3.4987926e-05,0.0,-3.4868717e-05,-3.489852e-05,5.2359886e-05,0.0,0.0,0.0,0.0,0.0,0.0
1.3999510230436445,0.7131722524763827,1.1598773996111367,-0.7925940361393664,-0.30886812675443925,0.008345139904232064,-1.290393564473339,-0.6018262709666956,-1.4434921917370815,1.281717591437489,0.34334352670632684,0.7260226671973483,0,84,-1.7523766e-05,0.0,5.2332878e-05,3.4868717e-05,0.0,-3.49069e-05,-0.002530694,-0.006352961,0.0075746775,0.0020769835,-0.0026878417,-0.0037349463
1.3999572955437096,0.7131860877469626,1.1599390948670552,-0.7925494693892188,-0.3088723188391838,0.008313920277455889,-1.2930823064488317,-0.6087851363564105,-1.4343849324667108,1.2836135609053123,0.3403924997298551,0.7223986698488821,0,85,1.7523766e-05,3.4987926e-05,-5.2332878e-05,0.0,0.0,3.49069e-05,0.0,0.0,0.0,0.0,0.0,0.0
1.3999759605146989,0.713228537755488,1.1598540476037755,-0.792569740015909,-0.30883879936690517,0.008335005416863897,-1.293110429765718,-0.6063650770021726,-1.439077140808383,1.2806398506802465,0.3413010708231724,0.7257593259723959,0,86,0.0,-3.4987926e-05,3.4809113e-05,-5.2332878e-05,0.0,0.0,-0.0007330179,-0.0012043118,0.00085532665,-0.0017278194,-0.0008377433,0.00076794624
1.3999615484828714,0.7131975924387348,1.1599100815158105,-0.7926126077324508,-0.30884548279204854,0.008339132847936193,-1.2932355003244098,-0.6058954785166132,-1.4401096789963772,1.2766060178928436,0.34097724429984494,0.7297076105765751,0,87,0.0,0.0,-3.4809113e-05,0.0,0.0,0.0,0.0,0.0,0.0,0.0,0.0,0.0
1.399972946433437,0.713201490934353,1.1599001407647251,-0.7926011697229354,-0.30885141484292483,0.008333502660871782,-1.2939472566664825,-0.6091276040507765,-1.4354987783690099,1.2801861889292137,0.34037284077951535,0.7245907823742859,0,88,-1.7523766e-05,0.0,0.0,0.0,-1.7493963e-05,0.0,0.0,0.0,0.0,0.0,0.0,0.0
1.3999417687282654,0.7131862183259015,1.159877227835898,-0.792605978251247,-0.308853803560909,0.00834884159359459,-1.2924533041282766,-0.6062401799686274,-1.4406163359488733,1.2776627071983633,0.3416545314070802,0.7286772538401516,0,89,0.0,0.0,3.4809113e-05,5.2332878e-05,1.7493963e-05,-3.49069e-05,0.0,0.0,0.0,0.0,0.0,0.0
1.3999450356269956,0.7132066618856896,1.159917501033715,-0.7925353102051578,-0.30885299247009196,0.008305347209088572,-1.291624369821987,-0.6024406795458587,-1.4454585145178953,1.2727366859514209,0.34247268917089396,0.7345565524775381,0,90,1.7523766e-05,3.4987926e-05,0.0,-3.4868717e-05,0.0,3.49069e-05,0.0021293163,0.014119744,-0.0291121,-0.032847166,0.0049741864,0.037332594
1.3999743617067233,0.7132072489117687,1.1599309157384587,-0.7925888033721383,-0.30885262933109586,0.008348030625929424,-1.2913459542470236,-0.5960226844054335,-1.4643967992370581,1.2491019239089864,0.34476387049558843,0.7608655072878672,0,91,0.0,0.0,0.0,0.0,0.0,-3.49069e-05,0.0035254955,0.012269676,-0.02330029,-0.020926476,0.0071558654,0.024661422
1.3999651071756731,0.7132315360201303,1.1599207455271212,-0.7925834883372329,-0.3088491401284996,0.008333494146905906,-1.2869218971551684,-0.5784799255518621,-1.4978907703310118,1.2191761553029679,0.3547140566873012,0.7959064422086986,0,92,0.0,0.0,-3.4809113e-05,0.0,5.2332878e-05,0.0,0.0015534163,0.005009055,-0.0092327595,-0.0077143908,0.0029495955,0.0089885
1.3999628710584238,0.7132294659540807,1.1599033797876657,-0.7925807858245458,-0.30878439423706167,0.008316904353194005,-1.2845209428593378,-0.5681886679518161,-1.5121205703643894,1.2089059011541285,0.35889340259157027,0.8079235397460887,0,93,-1.7523766e-05,-3.4987926e-05,3.4809113e-05,3.4868717e-05,-5.2332878e-05,0.0,0.0,0.0,0.0,0.0,0.0,0.0
1.3999477162620144,0.7132027113367428,1.1599202505748822,-0.7925535545649509,-0.30884683525379636,0.008311293116986819,-1.2874014657733996,-0.5799955923451553,-1.4927515250815628,1.2218706259917547,0.3539507102875374,0.792237768059238,0,94,1.7523766e-05,0.0,1.7523766e-05,-3.4868717e-05,0.0,3.49069e-05,0.0042061806,0.015603244,-0.028256893,-0.02391088,0.008569568,0.028309226
1.3999742078885593,0.7132135925221924,1.1599577505354033,-0.7925956232941683,-0.30885005308101215,0.008336506994487087,-1.2826116770886762,-0.5658521914028397,-1.5164323354307236,1.2050589662724893,0.3622801401063828,0.813396916679829,0,95,1.7404556e-05,0.0,-1.7523766e-05,3.4868717e-05,3.489852e-05,0.0,0.0,0.0,0.0,0.0,0.0,0.0
1.3999756562744181,0.7131988791765829,1.1599382427767768,-0.79255377645443,-0.3088115127053993,0.008362264875074217,-1.2805945177486238,-0.5564328377264647,-1.53145934774817,1.1944455686847781,0.36564264931903195,0.8250222367812965,0,96,-1.7404556e-05,3.4987926e-05,0.0,-3.4868717e-05,0.0,-3.49069e-05,0.0027227402,0.011466801,-0.021118402,-0.019809604,0.00659737,0.02354449
1.3999740163849637,0.7132279463988733,1.1599062742002169,-0.7925745272908967,-0.30881801344234,0.008321836942125179,-1.280399158507624,-0.5527987537932949,-1.5417948778086037,1.1790502047434772,0.36913457183243326,0.8425432399272659,0,97,0.0,0.0,-3.4809113e-05,0.0,-3.489852e-05,0.0,0.0,0.0,0.0,0.0,0.0,0.0
1.3999570982066811,0.7132305005769138,1.1599074959384656,-0.792595862189823,-0.30882086427115535,0.008303365856319732,-1.2796508865878469,-0.5508592800027007,-1.5449827553611983,1.1788229559061068,0.3698561244396758,0.8440824012147065,0,98,0.0,-3.4987926e-05,3.4809113e-05,3.4868717e-05,0.0,3.49069e-05,0.001029849,0.005462885,-0.011047959,-0.012164831,0.0028448403,0.012356937
1.3999659655596361,0.7132008888474961,1.159905148408546,-0.7925691638718135,-0.30884656557138895,0.008348932627255397,-1.2788697655282812,-0.5470554531098742,-1.55268474227564,1.1692161833116137,0.37183489033895095,0.8527731453113465,0,99,0.0,3.4987926e-05,0.0,-3.4868717e-05,0.0,-3.49069e-05,0.00012207031,0.001047194,-0.0023038387,-0.0030543804,0.00071558356,0.0032114387
1.399959170370302,0.7132537011396294,1.1599483018336176,-0.7926083184741672,-0.3088490223111844,0.008305732021123238,-1.2794126185678592,-0.5449791261987486,-1.5565151599151505,1.1635743920396227,0.37277598367827397,0.8592730370526189,0,100,0.0,-3.4987926e-05,0.0,0.0,0.0,0.0,1.7404556e-05,0.00076794624,-0.0019549131,-0.0035954714,0.00031417608,0.003700018
1.3999584258126754,0.7131903637587965,1.1599578083174704,-0.79259943817407,-0.30887586612679135,0.008310085762422599,-1.278878119148551,-0.5471537883010836,-1.5544684154327644,1.1622316780231006,0.37218017811462706,0.859402998227157,0,101,0.0,3.4987926e-05,0.0,3.4868717e-05,-1.7493963e-05,0.0,-3.4809113e-05,-0.00013959408,0.00045382977,-0.0011693239,0.0,0.0008378029
1.3999599576232926,0.7132561559207593,1.1599227213982373,-0.7925570654461793,-0.308871681293212,0.008319698553051867,-1.2795262985862088,-0.545194826464868,-1.5569327224770695,1.1596160842423924,0.3730464389754968,0.8624795976094232,0,102,-1.7523766e-05,0.0,-3.4809113e-05,-3.4868717e-05,1.7493963e-05,3.49069e-05,-0.00015711784,-0.0003491044,0.0008378029,-1.7523766e-05,0.0,0.0
1.3999482348562122,0.7132252625890639,1.1598641897356257,-0.792597939042681,-0.3088555424401714,0.008346548345961907,-1.279205636442157,-0.5455746009505011,-1.5564017256238927,1.1580182309322158,0.3732071769080256,0.8632948721475372,0,103,1.7523766e-05,0.0,3.4809113e-05,0.0,0.0,-3.49069e-05,0.0,0.0,0.0,0.0,0.0,0.0
1.3999769282911987,0.713218887378246,1.159901519043441,-0.7925916825823646,-0.3088578126142871,0.008328773891851373,-1.2786727365758448,-0.5451042619598233,-1.5567309955071609,1.1604913707906128,0.37353107027468174,0.8620893725038175,0,104,-1.7523766e-05,-3.4987926e-05,0.0,0.0,-1.7493963e-05,0.0,-0.0006457567,-0.0009250045,0.0006632805,-0.002530694,-1.7464161e-05,0.0019547343
1.3999470639751495,0.7132071649410796,1.1599257670679903,-0.7925994541566308,-0.30887729457291974,0.008321603315569527,-1.279169253442811,-0.5460370320434639,-1.5557490838694321,1.1586929249974336,0.3731500415446724,0.8629369926349875,0,105,1.7523766e-05,3.4987926e-05,0.0,0.0,1.7493963e-05,3.49069e-05,-0.0002617836,0.0006457567,-0.0038746595,-0.006632209,6.982684e-05,0.0069639087
1.3999748676073522,0.7132180644441699,1.1599305214808278,-0.7925920295915038,-0.3088442939445887,0.008354662965423728,-1.279347913343528,-0.5424207823797084,-1.5660685134602266,1.1461048310617914,0.3748627496396945,0.8761225937383779,0,106,-1.7523766e-05,0.0,0.0,0.0,0.0,0.0,0.0,0.0,0.0,0.0,0.0,0.0
1.3999537586320878,0.713235226477698,1.1599364396112888,-0.7925825461781381,-0.3088571795504976,0.008378116200642029,-1.2784250999188411,-0.5404966917644926,-1.5684787371695965,1.1463237004017468,0.3754495601458467,0.8771681298134402,0,107,1.7523766e-05,0.0,0.0,0.0,0.0,-3.49069e-05,0.0,0.004066646,-0.009058237,-0.009354949,0.0013962388,0.010175288
1.3999619061793693,0.713234164155737,1.1599160201707734,-0.7926011666697498,-0.30885333335432297,0.008328606608212061,-1.279788347294316,-0.5401557060685543,-1.5718821965777092,1.138990815359539,0.375275820235023,0.8843156840155676,0,108,0.0,0.0,-3.4809113e-05,-1.7464161e-05,0.0,0.0,0.00024437904,0.0054977536,-0.0104545355,-0.009372473,0.0032986999,0.011204958
1.3999679332306467,0.7132377288410668,1.1598842658531339,-0.7925996906909405,-0.3088599332346011,0.008301173814170129,-1.279463558050817,-0.5341196541114621,-1.5827563309339674,1.1316000931903543,0.3787615770841777,0.8940421987063963,0,109,0.0,0.0,0.0,6.979704e-05,-1.7493963e-05,0.0,0.0,0.0,0.0,0.0,0.0,0.0
1.399947956843796,0.7132228444828024,1.1598778242993995,-0.7925384322836097,-0.3088607058457063,0.008332507620915837,-1.2792153789499765,-0.5297333007323496,-1.5898957539178702,1.1235702613506051,0.3807293451746629,0.9022404778033571,0,110,-1.7523766e-05,-3.4987926e-05,5.2332878e-05,-5.2332878e-05,1.7493963e-05,3.49069e-05,0.0,0.0,0.0,0.0,0.0,0.0
1.3999286067575532,0.7132180350998302,1.1599371207112865,-0.7925959717706751,-0.30886203311319815,0.008338427944661417,-1.2797311126525817,-0.5360702021541645,-1.5787961923445677,1.1342929683073981,0.37763447737944283,0.890796337943874,0,111,1.7523766e-05,3.4987926e-05,-1.7523766e-05,0.0,3.489852e-05,-3.49069e-05,0.0018150806,0.016877353,-0.031066895,-0.028396487,0.008011073,0.031485796
1.3999708167031377,0.7132366372090434,1.1599360834073296,-0.7925926842183258,-0.3088223690817083,0.00834299499994523,-1.2770962845974285,-0.5122153786611672,-1.6219630305246968,1.094194982240785,0.3885896233544313,0.9357763467226882,0,112,-1.7523766e-05,0.0,0.0,3.4868717e-05,-3.489852e-05,3.49069e-05,5.2332878e-05,0.003001988,-0.005410433,-0.005026579,0.0013438761,0.0058467984
1.399953426164245,0.713237982693803,1.1599234952603328,-0.7925481066167428,-0.3088485858662676,0.008374227821843067,-1.2782985628761145,-0.513774376973738,-1.6208212189253866,1.091309464746213,0.38859680960802834,0.9375321040348038,0,113,1.7523766e-05,0.0,0.0,0.0,0.0,-3.49069e-05,1.7404556e-05,0.005480349,-0.010192752,-0.011222482,0.0021293163,0.011030495
1.3999622558976383,0.7132269808057123,1.1599406233877867,-0.7925488963737674,-0.308846048401675,0.008339088114041902,-1.277965189392232,-0.5087106348652005,-1.6312095729207072,1.0828957928345935,0.3906678202465428,0.9463456988475374,0,114,0.0,-3.4987926e-05,0.0,0.0,-1.7493963e-05,0.0,0.0,0.0,0.0,0.0,0.0,0.0
1.3999693969028264,0.7131948342499804,1.1599258172325726,-0.7925480505211613,-0.30885858568406116,0.008323253941945798,-1.2777936015070923,-0.5102549261660964,-1.628900304407099,1.0828490667879938,0.3901431345224723,0.9466107739611483,0,115,0.0,0.0,0.0,0.0,1.7493963e-05,0.0,-0.00022685528,0.0047472715,-0.009826183,-0.01286304,0.0020594895,0.013421595
1.3999540232119494,0.7131737451640328,1.159905849027182,-0.7925471959855426,-0.3088523450621779,0.008307156173195758,-1.278303103455192,-0.5022776149342195,-1.6437303408383712,1.0669504284817701,0.3932813565140746,0.9631736392762417,0,116,-1.7523766e-05,0.0,0.0,-3.4868717e-05,0.0,0.0,0.0,0.0,0.0,0.0,0.0,0.0
1.3999513181852938,0.7132118680347382,1.1599199525929755,-0.7925955504422553,-0.308864927893929,0.008319551694163188,-1.2779156623577237,-0.503572904626187,-1.6404075222520416,1.0706913874178028,0.3922111168687472,0.9585702231777603,0,117,1.7523766e-05,0.0,-3.4809113e-05,0.0,3.489852e-05,0.0,-0.0006108284,0.0029845238,-0.007347822,-0.010210156,0.0021991134,0.011362135
1.399976888905336,0.7132036098579649,1.1598745989209271,-0.7925792857907351,-0.30880967510245244,0.008326409198144518,-1.2782976670356492,-0.49920794190211365,-1.6504431921859009,1.058792775429847,0.39527802389924016,0.9717408418374003,0,118,0.0,0.0,3.4809113e-05,3.4868717e-05,-3.489852e-05,5.2359886e-05,-0.0006109476,0.00329867,-0.008220553,-0.010559201,0.0018849671,0.0110479
1.3999695360920623,0.7131982045752887,1.1599327739199783,-0.7925286099174059,-0.30881868270753954,0.008368256584172902,-1.2780384651369279,-0.4952417828375145,-1.6619401330402177,1.0454671283420114,0.39878819142202,0.9871251805848672,0,119,0.0,3.4987926e-05,-5.2332878e-05,-3.4868717e-05,0.0,-5.2359886e-05,-0.00012207031,0.0031590462,-0.0071035624,-0.007993579,0.0021467507,0.009093165
1.3999758088556349,0.713232968859877,1.159880774731065,-0.7925590777630296,-0.3088127288493801,0.008329077664919264,-1.2788420746291278,-0.49584284733165657,-1.6602143007450672,1.043456054891251,0.39859246490938455,0.9895549511549677,0,120,0.0,0.0,5.2332878e-05,0.0,0.0,0.0,0.0,0.0,0.0,0.0,0.0,0.0
1.399976872848195,0.7132503993461695,1.1599282819739032,-0.7925963108873527,-0.3088562572232399,0.008321630827314288,-1.2786526806454344,-0.49643331329708623,-1.6585138651995148,1.0457561810625688,0.3976803778495475,0.9856366714913247,0,121,0.0,0.0,0.0,0.0,0.0,3.49069e-05,1.7404556e-05,0.005899191,-0.012636185,-0.011362195,0.0037350059,0.012583852
1.3999604780204695,0.7132100425560032,1.1599394306770665,-0.7926026120212759,-0.3088394257445697,0.008352083607205489,-1.279200716769425,-0.4876030446161088,-1.6777250565285282,1.0294631544137214,0.4025975501580956,1.0050037533079124,0,122,-1.7523766e-05,1.7404556e-05,-3.4809113e-05,0.0,0.0,-3.49069e-05,6.9856644e-05,0.0029496253,-0.005846858,-0.005253434,0.0020245612,0.006387949
1.3999482263615148,0.7132544445936727,1.1598869939412741,-0.7925996153312104,-0.3088446870350379,0.008323847496815093,-1.2799607384300589,-0.4867389747445983,-1.6813430625239048,1.0181674130622913,0.4045039541684051,1.0155598524115006,0,123,1.7523766e-05,-6.979704e-05,3.4809113e-05,0.0,0.0,0.0,0.0,0.0017453134,-0.0036650896,-0.0046949387,0.0009599328,0.0043108463
1.399950804974542,0.7131778890537831,1.1599123487833916,-0.7925981432212006,-0.3088244151740435,0.008307955321746014,-1.2789322967862415,-0.4849022727879673,-1.6839421140294488,1.02103480684427,0.4049712628984679,1.0125627250420233,0,124,0.0,5.2392483e-05,-3.4809113e-05,3.4868717e-05,0.0,3.49069e-05,-0.0005235672,0.0017104149,-0.005061507,-0.009372354,0.0009599328,0.009808779
1.399965986561452,0.713246655791149,1.15985700534707,-0.7925570448396392,-0.30884061926821504,0.008339424218298235,-1.2790417446530782,-0.48526470567569957,-1.686308118992992,1.0140164855064304,0.40574721742330894,1.0204069200093544,0,125,1.7404556e-05,-3.4987926e-05,0.0,-3.4868717e-05,3.489852e-05,1.7452985e-05,-0.0013438463,0.00019198656,-0.0027227402,-0.0076794624,0.0002618134,0.0063530207
1.399981422656319,0.7132039574693401,1.1598897475237622,-0.7926042340423737,-0.30880110364688435,0.008375740770665763,-1.2809950545289563,-0.48466407318216587,-1.689180988846499,1.0074760623503627,0.40582545366712497,1.02604338445378,0,126,-1.7404556e-05,0.0,3.4809113e-05,0.0,-5.2392483e-05,0.0,-0.0027228594,0.0,-0.003892064,-0.012356997,0.00059339404,0.011623859
1.3999754596929894,0.7132052206137066,1.1599201291730508,-0.7925929896545346,-0.3088762943241523,0.008366910047830849,-1.2840808029433248,-0.48521633232945527,-1.6923141303014528,0.9935566464309799,0.40629068093779575,1.0384025863444029,0,127,0.0,3.4987926e-05,-5.2332878e-05,0.0,0.0,-5.2359886e-05,-0.0016056299,1.7464161e-05,-0.0019372702,-0.0061784387,0.0002618134,0.0057771206
1.399967178116177,0.713219481544674,1.1598352131785776,-0.7926017811966027,-0.30887482674769323,0.008308573243867672,-1.2841149658081528,-0.48575275083341385,-1.6935796693349585,0.9887446085852267,0.4071655713961288,1.043205854244433,0,128,0.0,0.0,1.7523766e-05,3.4868717e-05,1.7493963e-05,0.0,-0.0028797388,-0.00015705824,-0.0032287836,-0.011554062,0.0008377433,0.011798382
1.3999648548648849,0.7132389704391812,1.1599010694909737,-0.7925367542739026,-0.30884048106623607,0.008313518121769718,-1.2876312678616673,-0.48360901118521,-1.7015197741232169,0.9729224811205183,0.40961432314602103,1.059902800511972,0,129,0.0,0.0,0.0,-3.4868717e-05,0.0,3.49069e-05,-0.0016406775,-0.00041890144,-0.0017803907,-0.0068416595,0.00031417608,0.0062482357
1.3999568022197977,0.7132351601161365,1.1598997033027194,-0.7925880214646916,-0.30885210401721186,0.008320790178240577,-1.2883278243331409,-0.483544026332728,-1.7029005055866815,0.9703885538667765,0.4095499977718672,1.06238861692474,0,130,-1.7523766e-05,-3.4987926e-05,0.0,3.4868717e-05,0.0,-3.49069e-05,0.0,0.0,0.0,0.0,0.0,0.0
1.3999386883674803,0.713196714333873,1.1598839793370177,-0.7925638205355442,-0.3088543758211404,0.008339800024136968,-1.2899660816962766,-0.486681792261662,-1.6992918942943553,0.9676381410258275,0.40870663770767407,1.0638019359047408,0,131,0.0,3.4987926e-05,3.4809113e-05,-3.4868717e-05,3.489852e-05,0.0,-0.001308918,-0.0006457865,-0.0010994673,-0.005393088,0.00019195676,0.0053058863
1.3999478258950726,0.7132229539443259,1.159917188836801,-0.7925877953521024,-0.30882183974794547,0.008313113376282223,-1.290337052660818,-0.48668210014665214,-1.6986225591255308,0.9682591336779909,0.40834717658694886,1.063774244819858,0,132,0.0,0.0,1.7523766e-05,3.4868717e-05,-3.489852e-05,0.0,0.0,-0.00012215972,0.0,0.00012212992,0.0,0.0
1.3999335363744587,0.7132243950746064,1.1599467967814459,-0.7925493299538678,-0.30886308897370734,0.008337166891649433,-1.290367633623813,-0.4861103719682917,-1.7008162188866236,0.965945957490641,0.4087658841729687,1.0662262025210467,0,133,1.7523766e-05,0.0,-1.7523766e-05,-3.4868717e-05,0.0,3.49069e-05,0.00040125847,-0.0013090074,0.0028448105,0.0057771206,-1.7434359e-05,-0.0046076775
1.399973848879448,0.7132229990393114,1.159933972927141,-0.7926036437764961,-0.3088678846294571,0.00835032817032032,-1.289360076862389,-0.48775125414735365,-1.6978078776198553,0.9710004462689752,0.40948492115861157,1.0628739569332122,0,134,-1.7523766e-05,-3.4987926e-05,1.7523766e-05,0.0,-1.7493963e-05,0.0,0.0,0.0,0.0,0.0,0.0,0.0
1.3999462529739233,0.7131872150619363,1.1599334044396086,-0.7925917794039237,-0.308879337029338,0.008356861050443093,-1.2896506195212831,-0.48666813671286024,-1.6991714115312613,0.9698160731129931,0.40909330171754776,1.062869570835362,0,135,1.7523766e-05,3.4987926e-05,-1.7523766e-05,0.0,1.7493963e-05,0.0,0.0013962984,-0.00478217,0.008796573,0.008272827,0.0,-0.008395076
1.399969469044362,0.7132431250076983,1.1599411170721605,-0.7925964084626391,-0.30885211334720886,0.008348611470449085,-1.2887439810129462,-0.4916622739339544,-1.6903641994544434,0.9780637008126614,0.4089243112377592,1.0557570344149054,0,136,0.0,0.0,-3.4809113e-05,3.4868717e-05,-1.7493963e-05,0.0,0.0,0.0,0.0,0.0,0.0,0.0
1.3999673926203409,0.7132278957401966,1.1598949822496556,-0.7925619827498755,-0.30886557399351905,0.008352187061284969,-1.2887434518670209,-0.49221503587959065,-1.6911985019397224,0.9736796238407186,0.4094400756691259,1.0591591284128645,0,137,-1.7523766e-05,0.0,0.0,0.0,1.7493963e-05,-3.49069e-05,0.0013962984,-0.007574737,0.008639216,0.0032637715,1.7434359e-05,-0.0028449297
1.3999401571819723,0.7132135279177134,1.159879659267797,-0.7925510098828487,-0.30887989418519174,0.008330864288494059,-1.2874073173172043,-0.5015628279657167,-1.678075785951368,0.982317177354257,0.40819859207030784,1.050471995796071,0,138,0.0,-3.4987926e-05,5.2332878e-05,-3.4868717e-05,0.0,3.49069e-05,0.0,0.0,0.0,0.0,0.0,0.0
1.3999441198893745,0.7132014442787745,1.1599445105014787,-0.7926066660876956,-0.3088803399144251,0.00834481648671005,-1.2878702468941299,-0.5008567250733348,-1.6780995217379675,0.9799537182925975,0.4080933248587542,1.0529880980282722,0,139,1.7523766e-05,0.0,-5.2332878e-05,3.4868717e-05,0.0,-3.49069e-05,0.0016056299,-0.009459704,0.006388068,-0.0003491044,0.0012566447,0.0014312267
1.399964759648201,0.713176617453206,1.1598757706484764,-0.7925588906165882,-0.3088419671842929,0.008307145480243557,-1.2869152928244967,-0.5093051656561963,-1.6761011100418104,0.9773470771365156,0.41075078107226354,1.0566224324751876,0,140,-1.7523766e-05,0.0,3.4809113e-05,-3.4868717e-05,3.489852e-05,0.0,0.00076806545,-0.003455758,0.0012739897,-0.0016230941,0.0012915432,0.0024086237
1.3999520993916856,0.713218242378094,1.159916386315356,-0.7926087843848328,-0.30880444940916696,0.008319363748980754,-1.2848511138727423,-0.512539966023378,-1.6701267177004784,0.9836014895209813,0.4101972859014853,1.0512848603362732,0,141,1.7523766e-05,3.4987926e-05,-3.4809113e-05,0.0,0.0,3.49069e-05,0.0018324852,-0.0037350059,-0.00031411648,-0.0055152774,0.003543049,0.006754279
1.3999626459340238,0.7132332250385867,1.1598840961456343,-0.7925695561924215,-0.30881495264397063,0.008339957363114991,-1.2830164463672296,-0.514111407051463,-1.675395791133082,0.9734568678620695,0.415277409228993,1.0633782126609204,0,142,0.0,-3.4987926e-05,0.0,3.4868717e-05,-3.489852e-05,-3.49069e-05,0.0,0.0,0.0,0.0,0.0,0.0
1.399985600027454,0.7132083477885534,1.1598749850101497,-0.7925671633220724,-0.308859796133614,0.008312624228255891,-1.28513015181132,-0.5122189796253198,-1.6836827670610834,0.960055499608614,0.4173724832524382,1.078036559201749,0,143,0.0,0.0,0.0,-3.4868717e-05,0.0,0.0,0.0010123253,-0.00013965368,-0.0029845238,-0.004555285,0.0029670596,0.005270958
1.399961939018945,0.7131938706313331,1.159872822291114,-0.7925703692520645,-0.30883705283397694,0.00830848152686476,-1.2833066343377464,-0.5157982988663429,-1.6759823381367098,0.9694218574547224,0.41722206450992777,1.0666240060924845,0,144,1.7404556e-05,3.4987926e-05,3.4809113e-05,0.0,0.0,0.0,0.0009599924,0.0013439655,-0.00750494,-0.0077842474,0.0034557283,0.009180427
1.3999886069740233,0.7132385686750417,1.1599213332759133,-0.7925916321884479,-0.30883847226884475,0.008329608735004972,-1.28267397172549,-0.5075800925369817,-1.6984767244325158,0.9460708613879077,0.4241016786656701,1.0925979442134361,0,145,-3.4928322e-05,-3.4987926e-05,0.0,0.0,0.0,3.49069e-05,0.0,0.0,0.0,0.0,0.0,0.0
1.3999585098603458,0.713199392065387,1.1599115995719536,-0.7925965245077398,-0.3088424563770674,0.008345273231455425,-1.2825350636737023,-0.512547726539345,-1.6876866583441148,0.9586700040803056,0.4217579042751246,1.0803215121861895,0,146,1.7523766e-05,3.4987926e-05,1.7523766e-05,0.0,3.489852e-05,0.0,-1.7523766e-05,0.0022689104,-0.0049916506,-0.0052533746,0.0015358925,0.006091237
1.3999784247004061,0.7132480481757377,1.1599395437323907,-0.7925832026927743,-0.3088051026842209,0.00836446828699235,-1.2834069890376112,-0.5096139789416532,-1.6950833461168393,0.9477094005641303,0.42347194925809467,1.0918879091958076,0,147,0.0,0.0,-1.7523766e-05,0.0,-3.489852e-05,0.0,-0.0005584955,0.0018326044,-0.0052883625,-0.0086568,0.0017977059,0.009372354
1.3999521591516368,0.7132409942141636,1.159930664149235,-0.7926040178154047,-0.3088385992306385,0.008361123814949134,-1.2841244502936455,-0.5094392821981694,-1.6964923401740086,0.9428396306684352,0.4239745912655494,1.096545179426941,0,148,0.0,1.7404556e-05,1.7523766e-05,3.4868717e-05,0.0,-3.49069e-05,0.0,0.0,0.0,0.0,0.0,0.0
1.3999648389009691,0.7132466777161016,1.1599487156265909,-0.7925758498998098,-0.30886859573408476,0.008318790522839941,-1.284608490957248,-0.5093193292368221,-1.6983570945311635,0.9409681566245576,0.4245013552852508,1.099346171614806,0,149,0.0,-1.7404556e-05,-1.7523766e-05,0.0,0.0,-1.7452985e-05,-0.0035953522,0.00013965368,-0.005846858,-0.016057074,0.0015533566,0.014329195
1.3999527345033165,0.7132463389366944,1.1599308452004,-0.7925542476230076,-0.3088341539979417,0.008298346705719198,-1.287422416663117,-0.5092954386317,-1.701867465235127,0.9281995937526638,0.425839034499977,1.1103004946189663,0,150,-1.7523766e-05,0.0,0.0,-3.4868717e-05,0.0,5.2359886e-05,-0.0017104149,-5.2392483e-05,-0.0024085045,-0.0066846013,0.0005759299,0.006230831
1.399947581756422,0.7132295589781036,1.1598917239449686,-0.7925835423315141,-0.30883011028326934,0.008340932918341199,-1.2894198559243502,-0.5089324147890865,-1.7045606896090826,0.9220741099775747,0.4264422446339091,1.115872093748164,0,151,1.7523766e-05,0.0,0.0,0.0,0.0,0.0,0.0,0.0,0.0,0.0,0.0,0.0
1.3999758729275809,0.7132587914249008,1.1599204618124284,-0.7925965017038772,-0.3088475199607227,0.008348941244078168,-1.2915494763258661,-0.5094536579990853,-1.7076848651007437,0.9121528723014318,0.4270457755337053,1.1255934238231575,0,152,0.0,-3.4987926e-05,0.0,0.0,3.489852e-05,-3.49069e-05,-0.005881667,-1.7464161e-05,-0.010279894,-0.027611136,0.0037001073,0.026476622
1.3999607110447891,0.7132026212661002,1.1599279824015714,-0.7925982994389862,-0.30879718524205185,0.008313375554045729,-1.2953343150724268,-0.510447865324419,-1.7148002599803667,0.8929374931109021,0.4300460258489565,1.14298845107841,0,153,0.0,5.2392483e-05,-3.4809113e-05,3.4868717e-05,-5.2392483e-05,3.49069e-05,0.0,0.0,0.0,0.0,0.0,0.0
1.3999644128348352,0.7132581884731176,1.1598949416238953,-0.7925654299786723,-0.3088766227982194,0.008344908149642238,-1.2952429491556297,-0.5087134919869295,-1.7156459301296603,0.8945902410158483,0.43018303781795997,1.1419613065136474,0,154,0.0,-5.2392483e-05,3.4809113e-05,-3.4868717e-05,0.0,-3.49069e-05,0.0,0.0,0.0,0.0,0.0,0.0
1.3999627680891165,0.71319554449507,1.1599203963607467,-0.7925949796325166,-0.3088445902858229,0.00832260834167206,-1.2955318940708014,-0.5108670887141082,-1.7128226583595008,0.8936319263387251,0.4296418742413,1.1422801908776992,0,155,0.0,3.4987926e-05,0.0,0.0,0.0,3.49069e-05,0.0,0.0,0.0,0.0,0.0,0.0
1.3999674349931448,0.7132313863486317,1.1599218433642267,-0.7925873756551269,-0.30886225376753523,0.008345248955563942,-1.293852028221202,-0.5101110763232612,-1.7122078059037276,0.8988052960292536,0.4292611568448858,1.137276042389203,0,156,0.0,0.0,-3.4809113e-05,0.0,1.7493963e-05,-3.49069e-05,-0.006894231,0.0045902133,-0.022235513,-0.037035823,0.0076794624,0.037158012
1.3999851987704606,0.713234250302523,1.1598758879483908,-0.7925987199134614,-0.3088533503959242,0.008292149600174345,-1.3025327215596396,-0.5062157010663019,-1.7360327180004358,0.8568827897052603,0.43764779950772675,1.1787213610460143,0,157,0.0,-3.4987926e-05,3.4809113e-05,-1.7464161e-05,0.0,3.49069e-05,-0.0010994673,0.0031765103,-0.007557273,-0.009913504,0.0021118522,0.008848906
1.3999868327449176,0.7131985420661155,1.1599134775489524,-0.7926125337907329,-0.30884409970016663,0.008350936629132668,-1.3020959997345778,-0.5019952112057287,-1.742202465716247,0.8524990836085253,0.4391396271321722,1.1825956812488043,0,158,-1.7523766e-05,3.4987926e-05,0.0,0.0,0.0,0.0,0.0,0.0,0.0,0.0,0.0,0.0
1.3999405996520462,0.7132429649755959,1.1599148441884173,-0.7926090612521751,-0.30883945081101244,0.008355461371899882,-1.3020477827211412,-0.5026640013296098,-1.741519775474893,0.850961847467009,0.4392368289748886,1.1846397834510676,0,159,1.7523766e-05,-3.4987926e-05,-3.4809113e-05,1.7464161e-05,3.489852e-05,-3.49069e-05,-0.0015534163,0.0011519194,-0.0037350655,-0.007190764,0.0012740791,0.0069987774
1.3999625839465977,0.7131997431018628,1.1598821025318622,-0.7925936994209118,-0.3088010343058395,0.008325897866204449,-1.3045602981607294,-0.5022863302619089,-1.7457050168630008,0.8411325692804656,0.4404653797925844,1.1942249287622586,0,160,0.0,-1.7404556e-05,0.0,0.0,0.0,0.0,0.0,0.0,0.0,0.0,0.0,0.0
1.3999665412003146,0.7131963874471697,1.1598883536335833,-0.792578594912288,-0.30880402370474735,0.008307671452298828,-1.30477190451807,-0.5014122243991085,-1.7474992872402526,0.8412421471514673,0.4411554319409755,1.1952369756902053,0,161,-1.7523766e-05,5.2392483e-05,3.4809113e-05,0.0,-3.489852e-05,0.0,-0.002617836,-0.00027924776,-0.00071561337,-0.008011103,5.236268e-05,0.007155776
1.3999475801678614,0.7132435538288757,1.1599276377100154,-0.7925876913200255,-0.3088470262092266,0.00831521318682476,-1.3068698808672754,-0.5022510475864999,-1.7469895794939105,0.8352864881414219,0.4408525467812436,1.1993616939281775,0,162,3.4928322e-05,0.0,-3.4809113e-05,3.4868717e-05,0.0,-1.7452985e-05,0.0,0.0,0.0,0.0,0.0,0.0
1.399983438388747,0.7132213308753749,1.1598954066004425,-0.7925465650155953,-0.3088220017775286,0.008301160868862014,-1.3091222756838579,-0.5027836663650869,-1.7481615869555334,0.8275852959390055,0.44145551175191244,1.2062448209351613,0,163,-3.4928322e-05,0.0,3.4809113e-05,-3.4868717e-05,0.0,0.0,-0.005794525,-0.003019452,-0.0027401447,-0.018256068,0.00085520744,0.016859889
1.3999491915929614,0.7132396315153358,1.159936243755932,-0.7925947839225914,-0.3088492484564025,0.008300413331752013,-1.3145528335861019,-0.5063645523229909,-1.7503526658433994,0.8099856050732567,0.4423080705032249,1.222840559764872,0,164,0.0,0.0,-3.4809113e-05,0.0,0.0,5.2359886e-05,-0.005253434,-0.00284487,-0.003944397,-0.01888448,0.002617985,0.017383575
1.3999650976362394,0.7132438185248902,1.159891686735858,-0.7925776267703447,-0.3088390090643678,0.008337661535003522,-1.31531243476626,-0.5072679026280179,-1.7516706240949291,0.8050914069811309,0.44377673594948985,1.2279084736671433,0,165,1.7523766e-05,0.0,3.4809113e-05,3.4868717e-05,0.0,-3.49069e-05,-0.0074002743,-0.004118979,-0.0065973997,-0.026581347,0.0045203865,0.023858547
1.3999621431135618,0.713245624304418,1.1599334845957692,-0.7925440981151647,-0.30885824991967414,0.008327854829346828,-1.3261269127949362,-0.5122395256464225,-1.7623843939344719,0.7657366187824018,0.44988428779789663,1.2630388285818759,0,166,0.0,-3.4987926e-05,-3.4809113e-05,-3.4868717e-05,0.0,0.0,0.0,0.0,0.0,0.0,0.0,0.0
1.3999648626809016,0.7132093899141659,1.1598892733234947,-0.7925962616233277,-0.3088313768732462,0.008335132400408455,-1.3254825343136887,-0.5118268852061375,-1.7614724461942823,0.7681476317715806,0.4497813563621514,1.2607085076943059,0,167,0.0,3.4987926e-05,3.4809113e-05,0.0,0.0,0.0,-0.009197831,-0.004869461,-0.009005904,-0.033004224,0.006457746,0.028885245
1.3999656053367302,0.713241110871755,1.1599301253512306,-0.7925729032673177,-0.30886240820462146,0.008328127246987142,-1.3368192774199759,-0.5176508746663673,-1.7745409497553293,0.7269995336601601,0.45872021117868894,1.2981275528035403,0,168,0.0,-3.4987926e-05,0.0,-1.7464161e-05,0.0,0.0,0.0,0.0,0.0,0.0,0.0,0.0
1.3999681915507436,0.7132038690842126,1.159916815469115,-0.7925806211242361,-0.30885374838909674,0.008334589433364637,-1.3385157432906198,-0.5192646599214696,-1.7738330853357327,0.7228589084976917,0.45893596990096125,1.3006888941949906,0,169,1.7404556e-05,3.4987926e-05,-3.4809113e-05,1.7464161e-05,0.0,0.0,-0.009721518,-0.0043807626,-0.010908365,-0.034156084,0.008011043,0.031066775
1.400004132775175,0.7132425271500111,1.1598899595378755,-0.7925822769832994,-0.30885660808258764,0.008321226663553224,-1.347162829781709,-0.5233462800206118,-1.7833595783091118,0.6914217574561031,0.4655995617889991,1.3287904639823154,0,170,-1.7404556e-05,-5.2392483e-05,3.4809113e-05,3.4868717e-05,0.0,3.49069e-05,-0.008953452,-0.0038571954,-0.010402203,-0.031328678,0.008621931,0.029880166
1.3999634277482451,0.7131807864280443,1.1599217611767232,-0.7925444907096549,-0.3088483181415934,0.008353228741280102,-1.353155960386906,-0.5257186834271613,-1.7895048144145924,0.6729135237331785,0.4711579205913733,1.3458099059916235,0,171,0.0,1.7404556e-05,0.0,-3.4868717e-05,0.0,-5.2359886e-05,-0.0026705265,-0.0012217164,-0.0036650896,-0.011222482,0.0026528835,0.008953571
1.3999698293791383,0.7132193249681869,1.1599430586027717,-0.7925683837899204,-0.308844067011616,0.008290826146408284,-1.358795379599087,-0.5276958510910147,-1.7978600196347712,0.6511711379500956,0.47730672505922755,1.3656496789561035,0,172,0.0,3.4987926e-05,-3.4809113e-05,-1.7464161e-05,0.0,1.7452985e-05,0.0,0.0,0.0,0.0,0.0,0.0
1.3999692677893907,0.7132355824047779,1.159908229700592,-0.7926173109981104,-0.30885210084009057,0.008320701527729698,-1.3565877980961771,-0.5283520199445796,-1.793667307900382,0.6577031262362427,0.4749283542962968,1.3601053782172485,0,173,0.0,0.0,3.4809113e-05,5.2332878e-05,3.489852e-05,0.0,-0.007592082,-0.0043982267,-0.006771922,-0.025638878,0.006091237,0.024085522
1.3999665517758026,0.7132245688579198,1.1599273322807984,-0.7925443457963801,-0.308794201589557,0.008306093489520319,-1.3630746161504161,-0.5299752875659804,-1.8021950833371068,0.6358769693163261,0.48088126999678144,1.3805880508548314,0,174,0.0,-3.4987926e-05,-3.4809113e-05,-3.4868717e-05,-3.489852e-05,-1.7452985e-05,-0.0023911,-0.0016930103,-0.0016754866,-0.006876588,0.0020245612,0.0073826313
1.3999664125383227,0.7132099336866771,1.1598860319149167,-0.7925839811998249,-0.30885861733771564,0.008314101908452177,-1.365916618254597,-0.5315302071034854,-1.804757958451217,0.6272985699653875,0.48262235699319256,1.389307517595197,0,175,1.7404556e-05,0.0,3.4809113e-05,3.4868717e-05,0.0,1.7452985e-05,-0.005445361,-0.0043458343,-0.0027924776,-0.019181132,0.0034033954,0.015847683
1.3999898416063363,0.7131908878365119,1.1599375559909242,-0.7925531281576119,-0.3088317285660289,0.008296879082677953,-1.3708608535600506,-0.5375784170791496,-1.8036392582919631,0.6119047099975445,0.48535530715040076,1.401991626850668,0,176,-1.7404556e-05,5.2392483e-05,-3.4809113e-05,0.0,3.489852e-05,0.0,0.0,0.0,0.0,0.0,0.0,0.0
1.3999654198797333,0.7132650418947591,1.1599231121123106,-0.7925439241267553,-0.3088078481849997,0.008301330018904127,-1.3705867079836276,-0.5373539277959498,-1.8037947105859768,0.6112331195705515,0.4846485091239794,1.4025433807598506,0,177,0.0,-5.2392483e-05,0.0,-3.4868717e-05,-3.489852e-05,0.0,-0.0029671192,-0.003019452,0.00013959408,-0.00783658,0.0009250343,0.0066845417
1.399953632235852,0.7132040804970224,1.159901826458764,-0.792589432889634,-0.3088443967964321,0.008298965662673182,-1.373372143379288,-0.5384385214695632,-1.8059354290976735,0.6032989838844747,0.48602444260657396,1.4081067298214354,0,178,0.0,0.0,5.2332878e-05,0.0,0.0,0.0,0.0,0.0,0.0,0.0,0.0,0.0
1.3999495723353874,0.7131902739957978,1.1599349852830516,-0.7925823028347,-0.30883596995022405,0.008302889377623864,-1.3738948786840957,-0.5396242108822845,-1.8038952151346885,0.604222413449663,0.4857326419910547,1.4080778353268226,0,179,-1.7523766e-05,3.4987926e-05,-5.2332878e-05,0.0,0.0,3.49069e-05,-0.0005760193,-0.0024434328,0.0036478043,-0.0006980896,-0.00013965368,0.00045382977
1.3999501357032635,0.713222036352918,1.1598958655061524,-0.7925855707295436,-0.3088322074704494,0.008340561433808246,-1.374055558623926,-0.5412665801342968,-1.8019462130251855,0.602316801335405,0.48590579552360674,1.4094953754862474,0,180,1.7523766e-05,-3.4987926e-05,3.4809113e-05,3.4868717e-05,3.489852e-05,-3.49069e-05,0.0,0.0,0.0,0.0,0.0,0.0
1.399956502390164,0.7132164314963405,1.1599234022419034,-0.7925463205935396,-0.3088061163145608,0.00832501452207572,-1.37362723512611,-0.5410996664208626,-1.8012489808023833,0.6035240307173133,0.48623265562432194,1.4081598215911226,0,181,0.0,3.4987926e-05,0.0,-3.4868717e-05,0.0,0.0,-3.4928322e-05,-0.0019896626,0.0054279566,0.0030891895,-0.0021292865,-0.002932191
1.3999623019286067,0.7132410753044044,1.15991719541292,-0.7925936533372712,-0.3088083274585927,0.008329981078609891,-1.3737466617209635,-0.5425599025938275,-1.7969005165604022,0.606631097132129,0.48400441126777644,1.4052641089328919,0,182,0.0,0.0,0.0,0.0,-3.489852e-05,0.0,3.4928322e-05,-0.00089013577,0.0016057491,0.00076794624,-0.0009599328,-0.0006980896
1.3999652646150609,0.7132538417384331,1.159904746953915,-0.7926021226756118,-0.30883907577645664,0.00830041131252057,-1.3746278268826762,-0.5453889584241636,-1.792513305037624,0.6071148642041467,0.4830199540405463,1.4045186475120166,0,183,0.0,-3.4987926e-05,0.0,3.4868717e-05,0.0,3.49069e-05,-0.00041878223,-0.0019198656,0.0021641254,-0.0006457567,-0.0006457567,0.00019192696
1.399959532653489,0.7132034660335628,1.1599398792030617,-0.7925638760475348,-0.3088369678459827,0.0083591907434931,-1.3739327524463767,-0.5463785893268995,-1.7925279933794072,0.60575739434658,0.48309530812411977,1.4056735069437565,0,184,1.7404556e-05,5.2392483e-05,0.0,-3.4868717e-05,0.0,-3.49069e-05,0.0,0.0,0.0,0.0,0.0,0.0
1.3999836341825749,0.7132664157573274,1.1599095045401446,-0.7926012909652974,-0.30884965931934005,0.008316828549765117,-1.3754008122609276,-0.547544135293704,-1.7910517925843668,0.6052131946554539,0.4819754820147069,1.4058045115163622,0,185,-1.7404556e-05,-5.2392483e-05,-3.4809113e-05,3.4868717e-05,0.0,3.49069e-05,-0.0014836788,-0.0017628074,0.0007330179,-0.0031590462,-0.0001745522,0.0019721985
1.399963354819887,0.7131770861084272,1.1598982981387942,-0.7925444104537814,-0.30883225192590874,0.008357597501888938,-1.3766678888478274,-0.5495782706974198,-1.7894611341180786,0.6027971334322414,0.4821031116999642,1.4074313638877414,0,186,0.0,0.0,3.4809113e-05,0.0,-1.7493963e-05,0.0,-0.002722621,-0.003647685,0.0035254955,-0.004433155,-0.0008377433,0.003281355
1.3999598298187412,0.7132027553242106,1.159918169373992,-0.7925725961770899,-0.3088602284683177,0.008368517811470964,-1.3798561692950082,-0.554760950362173,-1.7814490087114312,0.5989896753417124,0.4793853702972979,1.4093124887002706,0,187,0.0,0.0,0.0,0.0,5.2392483e-05,-3.49069e-05,-0.00094246864,-0.0016930103,0.0020945072,-0.0012565851,-0.0009075701,0.00068056583
1.3999651504453057,0.7131817371380363,1.1599343129462405,-0.7925620974217662,-0.3088000515610712,0.008304922291491247,-1.3815662563000553,-0.5565309398707526,-1.780794952480863,0.5953857896200588,0.47917078914193784,1.4120432608962439,0,188,0.0,3.4987926e-05,0.0,0.0,0.0,3.49069e-05,0.0,0.0,0.0,0.0,0.0,0.0
1.3999574431928292,0.7132256133663734,1.159929999806463,-0.7925522118405951,-0.3088066363201911,0.008366052372814455,-1.3804064798646059,-0.5553225679222931,-1.7822790844205167,0.5960418382609252,0.47913426386515107,1.411391933965668,0,189,0.0,-3.4987926e-05,0.0,-3.4868717e-05,-5.2392483e-05,-3.49069e-05,-0.0037175417,-0.00795871,0.01319468,-0.0021991134,-0.0053756237,0.000349164
1.3999797592386407,0.7131772404300083,1.1599562464565811,-0.7925992980600383,-0.3088598654272083,0.008317285046530955,-1.3839056878923701,-0.5625066449119649,-1.7700247578486439,0.5952373271590455,0.4746357841922956,1.4112140996372595,0,190,1.7404556e-05,3.4987926e-05,0.0,3.4868717e-05,1.7493963e-05,3.49069e-05,-0.0013439655,-0.0032986403,0.0054279566,-0.0002617836,-0.0023387372,-0.00012230873
1.399987002307764,0.7132564036019747,1.1599355386028132,-0.7925510211071856,-0.30885647075413053,0.008352557281681636,-1.3867032797085224,-0.5682777635556409,-1.761172026882344,0.5925305675638355,0.4714858714634512,1.4126922215322493,0,191,-1.7404556e-05,0.0,-3.4809113e-05,-3.4868717e-05,0.0,-3.49069e-05,-0.0027575493,-0.006300688,0.010419607,-0.00024437904,-0.004729837,-0.00076794624
1.3999821466457814,0.7132445084449802,1.1599141172568543,-0.7925773292135458,-0.3088354248669639,0.008324037088590974,-1.3889848813359198,-0.5747028601132856,-1.7501561277974984,0.5945290917929773,0.4654210663359175,1.409846371678733,0,192,0.0,0.0,3.4809113e-05,0.0,0.0,3.49069e-05,0.0,0.0,0.0,0.0,0.0,0.0
1.399976115768534,0.7132535721007739,1.159912862447831,-0.7925834936566736,-0.3088383945263278,0.008359941306815782,-1.3884913622613875,-0.5731998851440998,-1.7510879192057232,0.5940587368423544,0.4660888117374615,1.4099083941124033,0,193,0.0,0.0,-3.4809113e-05,0.0,0.0,-3.49069e-05,-0.0055327415,-0.011676192,0.019634962,-0.0009250045,-0.00944224,-0.0025131702
1.3999606235508963,0.713228081952319,1.1598693390213817,-0.7925999721029123,-0.3088537696118567,0.008299902413763173,-1.3940097835653664,-0.5841885925378958,-1.7340497796673322,0.591153737668707,0.4569601743496283,1.4091261039165233,0,194,0.0,0.0,0.0,3.4868717e-05,-1.7493963e-05,0.0,-0.005148649,-0.008691788,0.015271664,-0.0030369163,-0.0063355565,-0.00050616264
1.3999779827234948,0.7132257414282267,1.1598790277422264,-0.7925762566682882,-0.30886889726610867,0.008328533627647974,-1.4013816512610042,-0.5975562898928628,-1.7116462372936647,0.5877175611822885,0.4480293687247994,1.4091243169823038,0,195,1.7404556e-05,0.0,3.4809113e-05,0.0,1.7493963e-05,-1.7452985e-05,-0.0023736954,-0.004171312,0.005654812,-0.0030891895,-0.0024783611,0.00024437904
1.3999758653304901,0.7132280843015988,1.159943122753027,-0.7925642727234326,-0.30885623366704845,0.008274348029255236,-1.4025874766587125,-0.5983064640819243,-1.7113358393134235,0.5850668871897368,0.44841038484953244,1.410020535800015,0,196,-1.7404556e-05,0.0,0.0,0.0,0.0,1.7452985e-05,0.0,0.0,0.0,0.0,0.0,0.0
1.399966507094738,0.7132155352281597,1.1599303283532458,-0.7925579404708742,-0.3088539680849824,0.008318408218568258,-1.4026487410000432,-0.5991808686119624,-1.7107706694814815,0.5827794164089072,0.44818051744381265,1.412158827303565,0,197,-1.7523766e-05,0.0,-3.4809113e-05,0.0,0.0,0.0,-0.0047997236,-0.0070860386,0.008098245,-0.008063436,-0.0033859313,0.0037175417
1.3999368994766639,0.7132275066192844,1.1598698147990227,-0.7925437169202751,-0.30883848011096454,0.008326890968313507,-1.408281874106787,-0.6084251902958878,-1.7014376367225144,0.5759165631873842,0.44391371242129335,1.41363128519993,0,198,1.7523766e-05,-3.4987926e-05,3.4809113e-05,-3.4868717e-05,3.489852e-05,3.49069e-05,-0.0035429,-0.0043982267,0.0027751923,-0.008464873,-0.0008377433,0.005707264
1.3999708979583874,0.7132134601495971,1.159914985219787,-0.792595911472493,-0.30884225836061935,0.008362405798302332,-1.4129890080315248,-0.6119585606713405,-1.698498066462062,0.5649215599506429,0.4428278137962893,1.4206905930275857,0,199,0.0,-1.7404556e-05,0.0,3.4868717e-05,-3.489852e-05,0.0,0.0,0.0,0.0,0.0,0.0,0.0
1.3999553515357792,0.7132004394850048,1.159914898367285,-0.792559401033055,-0.30886011897034177,0.008355981648816095,-1.4103028188699962,-0.6091309253919462,-1.7041190053294188,0.5684657472547228,0.4448904620140336,1.418960176373393,0,200,-1.7523766e-05,5.2392483e-05,0.0,-3.4868717e-05,0.0,-3.49069e-05,-0.0041538477,-0.0036826134,0.00050616264,-0.011152625,0.0,0.009773731
1.3999411965015007,0.7132320222986792,1.159925401464115,-0.7926132075156543,-0.3088549531603854,0.00831554618605233,-1.4134397400841987,-0.6122355038210251,-1.70190186523543,0.5588165997209382,0.4439529213250432,1.427787341160713,0,201,3.4928322e-05,-3.4987926e-05,0.0,0.0,0.0,0.0,-0.0010473728,-0.0008727312,0.00013947487,-0.002775073,0.0,0.0024783611
1.3999770346034148,0.7131975558971788,1.1599218000367946,-0.7925757784241039,-0.3088490448428288,0.008287440722346374,-1.4143928978356821,-0.6134507157740332,-1.7014534807356407,0.5573153616828748,0.4443060804335151,1.429131792404425,0,202,-1.7404556e-05,0.0,-5.2332878e-05,3.4868717e-05,0.0,0.0,-0.0010296106,-0.00089007616,0.0004887581,-0.0024434924,0.0,0.0020769835
1.399972393405509,0.7131788783180674,1.1598679586414646,-0.7925534620014615,-0.3088632470914263,0.008314266290947862,-1.414948193306802,-0.6124089621338067,-1.7035589308450134,0.5547296495289666,0.44530310167982895,1.4321986567883211,0,203,0.0,3.4987926e-05,1.7523766e-05,0.0,0.0,0.0,-0.0019198656,-0.0011344552,0.0015010834,-0.0026877522,-0.00013965368,0.0024609566
1.3999510370199948,0.713241453888983,1.159868586066012,-0.7925538636089824,-0.30887298091657905,0.008309233852030777,-1.4168540707121375,-0.6123850388342424,-1.7005264845765589,0.5524772340715856,0.44036159417086823,1.4327936490654483,0,204,1.7404556e-05,0.0,3.4809113e-05,0.0,0.0,0.0,-0.001553297,-0.0006981492,0.0033859015,-0.0006458163,-0.0020245612,0.0001745224
1.3999902691454318,0.7132143120849436,1.1599402889100043,-0.7925564465414621,-0.3088550413105849,0.008317801964536376,-1.4190322380659204,-0.6161537716882676,-1.6976255752718237,0.5505351122813946,0.44349486012086725,1.4358126134370957,0,205,-3.4928322e-05,-3.4987926e-05,0.0,-3.4868717e-05,0.0,3.49069e-05,-0.0008727312,-0.00012218952,0.0025656223,5.2392483e-05,-0.0019547641,-0.0006632805
1.3999588696982308,0.7131957247165289,1.1599149534784063,-0.7925943007764157,-0.3088644917547915,0.008349978861310819,-1.4174366874452586,-0.611512897362601,-1.700463522813102,0.552644879793746,0.44299850659116957,1.4339397369080287,0,206,0.0,0.0,0.0,3.4868717e-05,-1.7493963e-05,-3.49069e-05,-0.0006632805,-6.979704e-05,0.0028449297,0.00033158064,-0.002478391,-0.0017801523
1.3999462151393312,0.7131894909323563,1.1599080328114266,-0.7925590469033605,-0.30886808480497274,0.008316045889057285,-1.4195039733117345,-0.6141891900216848,-1.6946922017191701,0.551245837778684,0.4394427353012871,1.43279234059762,0,207,1.7523766e-05,-1.7404556e-05,-3.4809113e-05,-3.4868717e-05,5.2392483e-05,0.0,-0.00029671192,0.0,0.0010297298,0.00033164024,-0.0012740791,-0.00082039833
1.3999591076445308,0.7131931376012277,1.1599026858215935,-0.7925861536529895,-0.3088018059398482,0.008311030157994547,-1.4206609466306708,-0.6163890833776765,-1.6913200592412037,0.552130607015091,0.43742763087371755,1.4315928905679154,0,208,0.0,1.7404556e-05,5.2332878e-05,0.0,-5.2392483e-05,3.49069e-05,-8.714199e-05,0.0,0.0005583763,0.00040143728,-0.0006632209,-0.00059330463
1.3999681869864284,0.7132041546149362,1.1599550993768544,-0.7926104472945865,-0.30886275006967795,0.008353594451432416,-1.4226795070145404,-0.6226892810779066,-1.6823569678643688,0.5507914231897346,0.4339334313107466,1.431482975890708,0,209,0.0,3.4987926e-05,0.0,0.0,1.7493963e-05,-3.49069e-05,0.0,0.0,0.0,0.0,0.0,0.0
1.399967999077604,0.7132468069486604,1.1599653881485135,-0.792593288997532,-0.3088447816000765,0.00831839829659003,-1.4207247447037188,-0.6147272060044898,-1.6918466000605459,0.552950550052882,0.43681256235299276,1.4307848209154364,0,210,0.0,0.0,-1.7523766e-05,0.0,3.489852e-05,0.0,0.0,0.0,-0.0003838539,0.000436306,-0.00013962388,-0.00029683113
1.3999901217870088,0.7132249043313493,1.1599374255779265,-0.7925995076456305,-0.30881415827415387,0.008291051699675686,-1.419737916538308,-0.6146451227103115,-1.6940046478968758,0.5528746902883195,0.4377888398710559,1.4312567534640395,0,211,0.0,0.0,-3.4809113e-05,0.0,-3.489852e-05,0.0,0.0,0.0,0.0,0.0,0.0,0.0
1.3999621061702043,0.7132444177534566,1.1598969230120897,-0.792575942552996,-0.30885896298949306,0.008327243199938975,-1.4204296500372107,-0.616869190822759,-1.691448831431298,0.5543564181329415,0.4374225940908991,1.4294071317004773,0,212,0.0,-3.4987926e-05,0.0,0.0,0.0,3.49069e-05,0.00045371056,0.0005759597,-0.0027401447,0.00038397312,0.00027924776,-1.7404556e-05
1.3999641243227634,0.7131974155379642,1.159859269500923,-0.7925844613996121,-0.30883629818936326,0.008335758264092098,-1.419966997535455,-0.615187288486813,-1.6930081653621791,0.554091653780302,0.43601535043497525,1.4296453682185781,0,213,0.0,0.0,5.2332878e-05,0.0,0.0,-3.49069e-05,0.0,0.0,0.0,0.0,0.0,0.0
1.3999502205734735,0.7131695400165465,1.1599227179479272,-0.7925911785462435,-0.3088493939066555,0.008313740410253474,-1.4200931381302002,-0.616233314015973,-1.6906530077851178,0.5550817747473459,0.43527827520023865,1.4293232716828654,0,214,0.0,0.0,0.0,0.0,0.0,3.49069e-05,0.0027401447,0.0038571954,-0.0068068504,0.0026878119,0.0027401447,-0.00024437904
1.39996964508373,0.7132033153971813,1.1599503936575026,-0.7925979274864617,-0.3088460685905654,0.008370293665648738,-1.4153286838684507,-0.6075337058335972,-1.7044708292014827,0.5603142694471381,0.44090324432814626,1.4282469949482082,0,215,0.0,3.4987926e-05,-5.2332878e-05,0.0,3.489852e-05,-3.49069e-05,0.0,0.0,0.0,0.0,0.0,0.0
1.3999755206996845,0.7132371204484446,1.1598766382263273,-0.7925829432465147,-0.30881457702023035,0.008316015050098368,-1.4169944281562947,-0.6088544656221876,-1.703355799529065,0.557555754560758,0.4397525320214659,1.429310548425224,0,216,1.7404556e-05,-3.4987926e-05,-1.7523766e-05,0.0,0.0,0.0,0.0039269924,0.006946385,-0.009023428,0.004869461,0.004136473,-0.0015707016
1.3999910249497693,0.7131887410907146,1.1598739706797254,-0.7925977551537353,-0.3088129476417849,0.008335077770330079,-1.4105828312448654,-0.597319786084814,-1.7163090288609981,0.5651570942935752,0.44551364481900824,1.4262302539048803,0,217,-1.7404556e-05,0.0,6.9856644e-05,0.0,-5.2392483e-05,0.0,0.0020420551,0.0039619207,-0.0052359104,0.0022165775,0.0019896328,-0.0008202791
1.399974014792674,0.7131793251436312,1.1599327911526531,-0.7925784473290379,-0.3088649855991412,0.008335191102571853,-1.4109884469844358,-0.5989172840663766,-1.718008521098933,0.5650293769698808,0.4482408990520752,1.4272205727959588,0,218,0.0,0.0,-1.7523766e-05,0.0,1.7493963e-05,0.0,0.0038746595,0.0076619983,-0.010733843,0.0037873387,0.004747331,-0.0010995865
1.3999716177255184,0.7132061955648322,1.1599366396953492,-0.7925905375359218,-0.30886795866533256,0.008307359893046387,-1.4076660127004328,-0.5932590152597478,-1.7225918118219965,0.5696592395050324,0.4473244476822623,1.4226758551906067,0,219,-1.7523766e-05,-1.7404556e-05,0.0,0.0,0.0,0.0,0.0049567223,0.010663927,-0.01752305,0.0031765103,0.0067893267,-5.2332878e-05
1.3999611431792842,0.7131608153457182,1.1599182919252926,-0.7925857880080949,-0.3088645936799746,0.008314688684001632,-1.4019752035659467,-0.5796622920606268,-1.744220819496774,0.5729373524731229,0.4564662250769721,1.4243590829829524,0,220,1.7523766e-05,5.2392483e-05,-3.4809113e-05,0.0,-1.7493963e-05,0.0,0.0016405582,0.0033510923,-0.005550146,0.00020939112,0.0025132596,0.00013947487
1.3999902987437145,0.7132357482378301,1.1599039548242434,-0.7926018895916279,-0.30887757568103086,0.008335222344264455,-1.401068441064946,-0.5771712962696837,-1.7509853786524139,0.5703551162489245,0.4604907928591838,1.4272927453204283,0,221,0.0,-3.4987926e-05,3.4809113e-05,-1.7464161e-05,1.7493963e-05,0.0,0.0013090372,0.0034556985,-0.0058294535,1.7523766e-05,0.0021292865,0.00045382977
1.399963502365847,0.7132223119674732,1.1599156459864333,-0.7926208796660288,-0.30885310564571505,0.008308347597405381,-1.40071037712355,-0.5762472838553048,-1.753390219226694,0.5689885310769273,0.46119256378635903,1.427937474389064,0,222,-1.7523766e-05,3.4987926e-05,-3.4809113e-05,1.7464161e-05,0.0,0.0,0.0016057491,0.004502952,-0.007941246,-0.00015711784,0.0043982565,0.0019198656
1.3999530423776896,0.7132482138409842,1.1598768236777306,-0.7925891537056948,-0.3088349227755245,0.008325491202138432,-1.3979911532082978,-0.5686101941346763,-1.765728358623231,0.5694109749112888,0.46739106080493575,1.4295593015111137,0,223,1.7523766e-05,0.0,3.4809113e-05,0.0,3.489852e-05,3.49069e-05,0.0010122061,0.0028100014,-0.0068939924,-0.0014136434,0.003822267,0.0034382343
1.3999913928779073,0.7132535306788688,1.1599212834749102,-0.7926008174101498,-0.3087857432797799,0.00836866744195048,-1.3985918801788055,-0.5700584188040004,-1.7647577607894847,0.5678382333787524,0.4681502654366129,1.4312310566175033,0,224,-1.7523766e-05,-3.4987926e-05,-3.4809113e-05,3.4868717e-05,0.0,0.0,0.0,0.0,0.0,0.0,0.0,0.0
1.3999666795368584,0.7131989841409136,1.159887157213425,-0.7925561361941397,-0.3088061622700166,0.008368812191148588,-1.398514943391846,-0.5695645570493985,-1.7659031761366941,0.5666883470568573,0.46817680962174,1.432928626988922,0,225,1.7523766e-05,3.4987926e-05,5.2332878e-05,-3.4868717e-05,-3.489852e-05,-3.49069e-05,-0.00024425983,-0.00076794624,0.0006632805,-0.0021119118,0.0005584955,0.0018675327
1.3999730943858595,0.7132400745261167,1.1599396699782134,-0.7925791680545259,-0.3088499225319054,0.008313740358047255,-1.400278972729686,-0.57269434749198,-1.7631107993587554,0.5627925439559518,0.4691908275840317,1.4366456783946253,0,226,0.0,-3.4987926e-05,-1.7523766e-05,0.0,0.0,0.0,-0.003368616,-0.008150697,0.010559201,-0.0054977536,-0.0012217462,0.00317657
1.399960201262255,0.7132022658126054,1.1599332396535156,-0.792593480461973,-0.308858875902063,0.008306322089362956,-1.4037847940175558,-0.5824866808382769,-1.75068598665367,0.5580902518404653,0.46726810969735844,1.4391738181263978,0,227,0.0,0.0,0.0,0.0,0.0,0.0,0.0,0.0,0.0,0.0,0.0,0.0
1.3999754610950992,0.713182121450383,1.1599102033129176,-0.7925866348153289,-0.3088449777621448,0.008329138306170769,-1.4029498467753916,-0.5809593729946859,-1.7517264988989008,0.5578197361562293,0.4674567820322186,1.439069293544539,0,228,0.0,3.4987926e-05,1.7523766e-05,0.0,0.0,3.49069e-05,-0.0065972805,-0.012845635,0.018657565,-0.006527543,-0.0064751506,0.0026179552
1.3999717221304968,0.7132268939327007,1.1599372861788952,-0.7925938139385145,-0.30885206834544876,0.008339076670316348,-1.4110864620402128,-0.5970329063125132,-1.7304151935043621,0.549084686217104,0.46014798478362084,1.4435420595589596,0,229,0.0,0.0,-5.2332878e-05,0.0,3.489852e-05,0.0,0.0,0.0,0.0,0.0,0.0,0.0
1.3999769429238558,0.7132244691999783,1.1599084764346377,-0.7926054930438038,-0.3088412836556087,0.008369928460778038,-1.4128200335442391,-0.5995900098677444,-1.722137443924309,0.5531790294798985,0.4548724268514557,1.4392194074740958,0,230,0.0,0.0,3.4809113e-05,3.4868717e-05,-5.2392483e-05,-3.49069e-05,-0.0074350834,-0.017034411,0.025743604,-0.0047822,-0.010489434,0.0008376837
1.399961690343947,0.7132594591871803,1.159915350722979,-0.7925559460702799,-0.3088750422027559,0.008327887577561728,-1.4190443649278783,-0.6166476618271929,-1.6958799891363436,0.5498469610351223,0.44424906018874877,1.4381092841351586,0,231,0.0,0.0,-3.4809113e-05,-5.2332878e-05,1.7493963e-05,0.0,-0.0020071268,-0.004276037,0.0064926147,-0.0007854104,-0.0036477447,-6.9737434e-05
1.3999808276109293,0.7132475379494508,1.159859950736136,-0.7926252580001859,-0.30882091461659483,0.008300658825930275,-1.4204470382669923,-0.6206659192982372,-1.6895765282997681,0.5473573401308591,0.4406127037717803,1.4392214866135116,0,232,0.0,-3.4987926e-05,3.4809113e-05,5.2332878e-05,0.0,3.49069e-05,-0.0016406775,-0.004502952,0.007417679,-0.0005236268,-0.0032637715,-0.00045382977
1.3999660197347745,0.7132185980115139,1.1599446463393002,-0.7925636271450668,-0.3088417795775186,0.008356401434355716,-1.421597615242617,-0.62168589471334,-1.6863030018668281,0.5482687106731895,0.4370776268247082,1.4370959872600908,0,233,0.0,-1.7404556e-05,-3.4809113e-05,-3.4868717e-05,0.0,-3.49069e-05,-0.002967,-0.0066322684,0.012583852,-0.00022685528,-0.0057246685,-0.0015881062
1.3999695177080154,0.7132045773125726,1.1598879429757416,-0.7925863535878893,-0.30884469988522567,0.008339861075580187,-1.4219719940665505,-0.6229725542212025,-1.6868166795749426,0.546221398848206,0.43978039881540065,1.4402730315391405,0,234,0.0,5.2392483e-05,3.4809113e-05,0.0,-1.7493963e-05,3.49069e-05,-0.004572749,-0.009354949,0.016336203,-0.00076794624,-0.00808087,-0.0025308132
1.3999619237243877,0.7132396655985382,1.1599224207277103,-0.7925753810937639,-0.3088667857744248,0.0083829977654529,-1.4258395324990132,-0.6307395582588985,-1.6709150598016915,0.5459879158407644,0.43148939512705414,1.4370162969560227,0,235,0.0,0.0,0.0,0.0,5.2392483e-05,1.7452985e-05,0.0,0.0,0.0,0.0,0.0,0.0
1.399964093429734,0.7132324067322188,1.1599285440945661,-0.7925662444909672,-0.30879777479941645,0.008404074479957876,-1.4251789339077143,-0.6294485589455036,-1.6752096081767538,0.5462751927573464,0.43368623181956845,1.4371419608094813,0,236,-1.7523766e-05,0.0,0.0,-1.7464161e-05,-3.489852e-05,-5.2359886e-05,0.0,0.0,0.0,0.0,0.0,0.0
1.3999444379688109,0.713245214295425,1.1599028663274507,-0.7925791813960655,-0.3088259059748117,0.008336025999330051,-1.4293778456340334,-0.6399676382972733,-1.6549917221463766,0.5473850432054777,0.42624188935265983,1.433895040073312,0,237,0.0,-3.4987926e-05,-3.4809113e-05,5.2332878e-05,3.489852e-05,-1.7452985e-05,-0.007906437,-0.014311731,0.023352504,-0.0050439835,-0.011798412,-0.0004364252
1.3999625501144917,0.7132063143116046,1.1598882979183613,-0.7925281944789663,-0.30878647791076697,0.008277781028128529,-1.4371860999754422,-0.657242444195376,-1.6321744773056706,0.5391637344908115,0.4158732381959493,1.4373849452417768,0,238,1.7523766e-05,0.0,3.4809113e-05,-5.2332878e-05,0.0,1.7452985e-05,-0.0044853687,-0.008674324,0.015934825,-0.0027227402,-0.0071558654,-0.0003838539
1.3999853169839838,0.7132202418417593,1.1599441125269896,-0.7926134179132936,-0.3088022664136092,0.008302178131293572,-1.4397242408161497,-0.6663504750660629,-1.6113249015269049,0.543324304760576,0.4071689787522993,1.429351008647521,0,239,0.0,3.4987926e-05,-3.4809113e-05,5.2332878e-05,0.0,3.49069e-05,0.0,0.0,0.0,0.0,0.0,0.0
1.399994838178803,0.7132469785038871,1.1598740618364054,-0.7925547056318893,-0.3087926673084671,0.008367353933499494,-1.4435092783032917,-0.6898652533365449,-1.5797234612988198,0.5474282134042646,0.39588792328136024,1.423761339746539,0,240,0.0,-3.4987926e-05,0.0,0.0,-3.489852e-05,0.0,-0.005078912,-0.015480995,0.025673866,0.0006632209,-0.010698855,-0.0055850744
1.3999592742215217,0.7131999134563466,1.1598810977486118,-0.7925467287529409,-0.3088343201405022,0.00835572370068852,-1.4451531742705457,-0.68665226482043,-1.58430670448975,0.5422269218875784,0.39874421891834566,1.4279808338017081,0,241,0.0,0.0,0.0,0.0,0.0,-3.49069e-05,-0.0015184879,-0.00614357,0.010105491,0.0017104149,-0.004258603,-0.0032287836
1.3999815680535872,0.7131911999476587,1.1598665393473289,-0.7925376251482031,-0.30887677909235545,0.0083287440448106,-1.4445462493269456,-0.6785920378316822,-1.588676873643535,0.5458777495345577,0.394444580977915,1.4216965563551411,0,242,0.0,3.4987926e-05,5.2332878e-05,-3.4868717e-05,0.0,5.2359886e-05,-0.00085520744,-0.0036826134,0.006126046,0.001658082,-0.002548188,-0.0019898415
1.3999586998337925,0.7132295038464725,1.1599395310201766,-0.7925616691044394,-0.3088435161353301,0.008384838103199212,-1.4475046231410178,-0.6898995020475591,-1.5749518745202586,0.5462929463658653,0.391355822406513,1.4216747864074604,0,243,0.0,-3.4987926e-05,-1.7523766e-05,0.0,0.0,-1.7452985e-05,-0.0024783611,-0.016580641,0.024731278,0.004485488,-0.0073129237,-0.006614685
1.3999934042772193,0.7131842187009563,1.15992919606563,-0.7925851986222651,-0.3088694051803116,0.008342509471551815,-1.4494333967240836,-0.7105977430294124,-1.5510352809418384,0.5467517626878753,0.38733448675302634,1.418730269972705,0,244,-1.7523766e-05,0.0,-3.4809113e-05,0.0,0.0,-3.49069e-05,-0.0005759001,-0.0080809,0.009250283,0.00047123432,-0.0016406178,-0.0012741089
1.3999720950072052,0.7131872788243738,1.1598892731379762,-0.7925686171218839,-0.30886050407603644,0.008319423653751679,-1.4496884588945074,-0.7097761033710392,-1.5509322537445904,0.5454803881372705,0.3862794744566179,1.4186653382367445,0,245,1.7523766e-05,0.0,3.4809113e-05,0.0,0.0,0.0,-0.000349164,-0.009302616,0.009494543,3.4928322e-05,-0.00068068504,-6.9856644e-05
1.3999619721644168,0.7131700811563727,1.1599016791599124,-0.7925780509402744,-0.30883584550924487,0.008300773489430613,-1.4492966758654766,-0.7147393869831121,-1.545733620477349,0.5488455082355919,0.38655071813069836,1.416170832133539,0,246,-1.7523766e-05,-1.7404556e-05,1.7523766e-05,0.0,0.0,5.2359886e-05,-0.00031411648,-0.01830852,0.015882611,-0.0019896626,0.00071561337,0.0015010834
1.3999513500982093,0.7131962165090951,1.1599074538789214,-0.7925905716962683,-0.3088229635503132,0.008428932347716599,-1.4511893921153542,-0.7622185305481962,-1.481238117192399,0.5504406360776278,0.3663815593422899,1.410066375112471,0,247,1.7523766e-05,5.2392483e-05,-1.7523766e-05,-1.7464161e-05,0.0,-6.981287e-05,5.2332878e-05,-0.009634197,0.0060213804,-0.0026704073,0.0018325746,0.0031416416
1.3999751013812038,0.7132237156628822,1.1599046550560548,-0.7925945663821309,-0.30886224334857126,0.008323612639653796,-1.4525164052945083,-0.7700364651762354,-1.4994543104367672,0.5421644257095376,0.390527746886515,1.4237631066441336,0,248,0.0,0.0,0.0,1.7464161e-05,3.489852e-05,5.2359886e-05,-3.4928322e-05,-0.010384738,0.0056722164,-0.004188776,0.0035255551,0.003979206
1.3999549986814082,0.7132201916909446,1.1598944482481583,-0.7925545217561957,-0.30881992736704894,0.008308129349933305,-1.4507429301046766,-0.7617040220580849,-1.5120253677516358,0.5359830329556143,0.3947726093900453,1.429336434879337,0,249,0.0,0.0,0.0,0.0,-3.489852e-05,0.0,0.0002617836,-0.01694715,0.007749319,-0.007766664,0.008639395,0.009965897
1.3999622557531388,0.7132408075610851,1.1599271069909232,-0.7925753025308635,-0.3088576830720145,0.008365327646092812,-1.4523148411040219,-0.7792639942621193,-1.5105739468403212,0.5160677519438746,0.40909742128904164,1.4520105359390878,0,250,-1.7523766e-05,0.0,-3.4809113e-05,5.2332878e-05,0.0,-3.49069e-05,0.00064587593,-0.0088662505,0.0028100014,-0.004415691,0.0049741864,0.0053755045
1.3999333415035622,0.7132246260945801,1.1599207666248985,-0.792565294191468,-0.308847006199329,0.008292158501334556,-1.4495666135914207,-0.7823226850724808,-1.5068024375507756,0.5226585239808972,0.40725338292734026,1.4457862262528367,0,251,3.4928322e-05,0.0,3.4809113e-05,-6.979704e-05,-1.7493963e-05,3.49069e-05,0.0014486313,-0.01059413,0.0031590462,-0.0056200027,0.008115798,0.00795877
1.3999854727951528,0.7132394622404021,1.159911078427109,-0.7926160123385995,-0.30890543696133804,0.0083160839069945,-1.4484473166438545,-0.7822319641299104,-1.5083220769937222,0.5234155265990137,0.41033827183156996,1.4462745462789561,0,252,-3.4928322e-05,-3.4987926e-05,-3.4809113e-05,1.7464161e-05,5.2392483e-05,0.0,0.0014660358,-0.007208228,0.0005235672,-0.003822267,0.0063878894,0.0056374073
1.3999479336132814,0.713211594170706,1.1598506360019938,-0.7926121619257863,-0.308830918923902,0.008321887228523681,-1.4471002914099034,-0.7897215381200703,-1.5091052864286867,0.5192194232407142,0.4181898192976787,1.4535191183369103,0,253,1.7523766e-05,3.4987926e-05,3.4809113e-05,0.0,-3.489852e-05,-3.49069e-05,0.0006631613,-0.0024434328,-1.7404556e-05,-0.0018151402,0.0019896626,0.0020769835
1.3999503499003954,0.713240841510043,1.1599510305631486,-0.7925880332856711,-0.3088668675777454,0.008302662153787978,-1.4455602877102491,-0.7920570646803753,-1.5083611799523027,0.5186989218170773,0.41927490056057465,1.4545276331288144,0,254,0.0,-3.4987926e-05,-3.4809113e-05,3.4868717e-05,0.0,0.0,0.00078547,-0.0013439059,-0.00089013577,-0.0024260283,0.00375247,0.0035256147
1.3999577631274507,0.7131922270453384,1.159876725103068,-0.792555273206707,-0.3088534836560253,0.008339945500493117,-1.4441751551675572,-0.7920216602458555,-1.5107459755210098,0.5166839193534232,0.42373095062552724,1.4575879221025227,0,255,0.0,3.4987926e-05,0.0,-3.4868717e-05,0.0,3.49069e-05,8.72612e-05,0.00054109097,-0.0016930103,-0.0006108284,0.00089010596,0.0007853508
1.3999883078260207,0.7132498550926154,1.159872752431736,-0.7926092514738675,-0.3088568295413654,0.00839716117821757,-1.4451749026204306,-0.7920696089244328,-1.5119991252203502,0.5155388513766727,0.4256084955291824,1.459849311063953,0,256,0.0,-3.4987926e-05,3.4809113e-05,0.0,0.0,-3.49069e-05,1.7404556e-05,0.0020245314,-0.0024957657,-0.00024437904,-1.7464161e-05,0.00019204617
1.3999674980955468,0.7132106065465209,1.1599183909744724,-0.7926028016491766,-0.30883662590644023,0.008315669474765726,-1.4459739522116726,-0.7930047504338433,-1.5121975146792048,0.5146212791801978,0.42461150147566307,1.4597404279995543,0,257,0.0,-1.7404556e-05,0.0,3.4868717e-05,3.489852e-05,3.49069e-05,1.7404556e-05,0.0076096654,-0.004625082,6.9856644e-05,-0.0006108582,-0.00029683113
1.3999606935109579,0.7131749638647946,1.1599145184514477,-0.7925573484784625,-0.3088079857633008,0.008346019385100642,-1.4447985340398601,-0.7840781940193506,-1.5167746099347266,0.5151460506816178,0.4224091709068256,1.4583187906322663,0,258,0.0,5.2392483e-05,-3.4809113e-05,-3.4868717e-05,-3.489852e-05,-5.2359886e-05,-8.714199e-05,0.004241109,-0.002338767,0.00038391352,-0.0009773672,-0.0007505417
1.399963945395273,0.7132461408849475,1.159906425998126,-0.7926056703995142,-0.30883676838839685,0.00829923496655498,-1.4444387843593174,-0.7761192454685856,-1.5224446771292512,0.5162940649283434,0.4234661240396237,1.4571901977080042,0,259,0.0,-3.4987926e-05,0.0,0.0,0.0,1.7452985e-05,-6.9737434e-05,0.0085347295,-0.005026698,0.0019373298,-0.0025831163,-0.0028272867
1.3999692619646684,0.7132165941037942,1.1598606338731468,-0.7926112971726649,-0.30883944262768775,0.008322107519496299,-1.4456115173985946,-0.7743784822164541,-1.523016089223278,0.516495695933583,0.42057997424855537,1.4566044707676307,0,260,0.0,3.4987926e-05,5.2332878e-05,0.0,-1.7493963e-05,0.0,-0.00012230873,0.0056373477,-0.0034731627,0.0014835596,-0.0018675029,-0.002007246
1.3999610342758604,0.7132343189145453,1.15994444049294,-0.7925902005746152,-0.3088747942232193,0.008291558241695232,-1.4463311336655806,-0.7622446882818025,-1.5297940303187136,0.5184400950804562,0.4170151472600306,1.4527545258197063,0,261,0.0,-3.4987926e-05,-5.2332878e-05,0.0,1.7493963e-05,3.49069e-05,-0.000104665756,0.0045728087,-0.0027052164,0.0017628074,-0.0019198358,-0.0022165775
1.3999424329504564,0.713222075816374,1.1598715262754753,-0.7926201030807655,-0.3088467219588447,0.008352784205331767,-1.445118046893643,-0.7520500560144567,-1.5374469018696915,0.5198949607475913,0.41708958969457444,1.4509294655526739,0,262,0.0,-1.7404556e-05,3.4809113e-05,-1.7464161e-05,0.0,-3.49069e-05,0.0,0.0,0.0,0.0,0.0,0.0
1.399972307518822,0.7131645862530681,1.1599183895313434,-0.7926033725055822,-0.30886863216283805,0.008320556130149002,-1.445052718144778,-0.760487502523902,-1.5318388601778252,0.5190653815534502,0.4170458092766763,1.4516498950248715,0,263,0.0,1.7404556e-05,-3.4809113e-05,1.7464161e-05,0.0,3.49069e-05,-0.0005236864,0.01364845,-0.00808084,0.0051661134,-0.0044331253,-0.005584955
1.3999645268047385,0.7131707906463367,1.1598724063940056,-0.7925794393963452,-0.30884335111613553,0.00835353524958093,-1.4454462214976642,-0.7507214183648659,-1.5375644844064402,0.5240324783592395,0.41401732366738364,1.4475382745384422,0,264,0.0,3.4987926e-05,0.0,-1.7464161e-05,-1.7493963e-05,-3.49069e-05,0.0,0.0,0.0,0.0,0.0,0.0
1.399955203404364,0.7132297384761335,1.1598962347253083,-0.7926181189042537,-0.30885905275351844,0.008339541469112106,-1.4454704498110071,-0.750692945142676,-1.5352767350500343,0.5282984569992579,0.4105551538081386,1.4430171902267164,0,265,0.0,-3.4987926e-05,0.0,1.7464161e-05,1.7493963e-05,0.0,-0.00033152103,0.008168161,-0.005061388,0.0030543208,-0.0032986999,-0.0035254955
1.3999717510051968,0.7131893075542857,1.1598655840443863,-0.7926000080944385,-0.308830337212513,0.008323913179695674,-1.4459352230249127,-0.7434963417126513,-1.5421922868424587,0.5255237980898514,0.4102312509026408,1.4451660685341203,0,266,0.0,3.4987926e-05,3.4809113e-05,3.4868717e-05,0.0,-1.7452985e-05,0.0,0.0,0.0,0.0,0.0,0.0
1.3999668984306854,0.7132491146741962,1.1599163997845603,-0.7925388239409475,-0.30884461858336326,0.008320357171754653,-1.4453697708613331,-0.7438369300064754,-1.5430857651504555,0.5271781122559968,0.4117942030338852,1.444258144129063,0,267,0.0,-3.4987926e-05,-3.4809113e-05,0.0,0.0,1.7452985e-05,-0.000104665756,0.0022863746,-0.0015360117,0.0016755462,-0.0009075701,-0.0014138222
1.399958923865591,0.7131521619275842,1.1599025810176105,-0.7925165458732955,-0.3088507591477398,0.008308358844116397,-1.4460095429754873,-0.7420477766183727,-1.5430160445724483,0.5285084857460108,0.4095275821956036,1.4420188074564169,0,268,0.0,0.0,5.2332878e-05,-3.4868717e-05,0.0,3.49069e-05,0.0,0.0,0.0,0.0,0.0,0.0
1.3999586711651206,0.7132290729486828,1.1599420786603205,-0.7925692634162206,-0.3088187931162331,0.008367383638837675,-1.4451942981863648,-0.7400990127708025,-1.5440276681115663,0.5295405042001293,0.40922839462318245,1.4419837982253894,0,269,1.7404556e-05,3.4987926e-05,-1.7523766e-05,3.4868717e-05,0.0,-3.49069e-05,0.0,0.0,0.0,0.0,0.0,0.0
1.3999852943701472,0.7132492711735223,1.1598977259633645,-0.7925348140670917,-0.3088605913536463,0.008324794963231377,-1.44463373265159,-0.7385985495624099,-1.5459416104420323,0.531072157739229,0.40935915676617046,1.440588812704393,0,270,-1.7404556e-05,0.0,0.0,0.0,0.0,0.0,0.0,0.0,0.0,0.0,0.0,0.0
1.3999636360063077,0.7132263533820589,1.1599350774242683,-0.7925527222449424,-0.3088522380305741,0.008310524939775535,-1.4454329159456145,-0.7411627452793477,-1.544661666889717,0.5284463834894685,0.4109274052558788,1.4424230229241362,0,271,0.0,-3.4987926e-05,0.0,0.0,3.489852e-05,0.0,0.00019180775,8.7201595e-05,-8.72612e-05,0.00226897,-0.00015705824,-0.0017278194
1.39996699801964,0.7131965087010373,1.1599286134218603,-0.7925388721459321,-0.3088010990452791,0.008327627674497731,-1.4447151945016892,-0.7413804731075886,-1.5434038583749783,0.5306924449033535,0.4104332191547968,1.4408490029552012,0,272,1.7404556e-05,0.0,0.0,-3.4868717e-05,0.0,0.0,5.2452087e-05,0.0,0.00012230873,5.2332878e-05,-3.4928322e-05,-6.9856644e-05
1.3999836269482846,0.7132000626878214,1.159935228274136,-0.7925810088718842,-0.3088114557670603,0.00832062591820962,-1.4456352228182439,-0.7411836965745366,-1.5435175400639025,0.5303860887502267,0.4099135974959339,1.4410907897964735,0,273,-1.7404556e-05,0.0,-3.4809113e-05,3.4868717e-05,-5.2392483e-05,0.0,1.7523766e-05,-6.9737434e-05,0.00013947487,0.0,3.4928322e-05,3.4809113e-05
1.3999826042258263,0.7131988800566306,1.1598938668358352,-0.7925534453551358,-0.30886305063579245,0.008329023661315509,-1.4456876465351804,-0.7429191904189968,-1.540258770452504,0.5307493830353466,0.4094788042870734,1.4409293535166048,0,274,0.0,3.4987926e-05,5.2332878e-05,-3.4868717e-05,1.7493963e-05,0.0,0.0,0.0,0.0,0.0,0.0,0.0
1.3999597899816678,0.713243417962892,1.1599311869898112,-0.7926144500944998,-0.3088342139978025,0.008308616530280628,-1.4453655438484017,-0.7421363531925536,-1.5420153283765874,0.5306327637014973,0.4099815233490363,1.4405093265961448,0,275,0.0,0.0,-5.2332878e-05,0.0,0.0,3.49069e-05,-0.00015711784,-0.001658082,0.0030195713,-0.000174582,-0.0007330477,-3.4809113e-05
1.399953511691694,0.7132090201941733,1.1598897503792558,-0.7925911877196219,-0.308828514182559,0.008354177057911942,-1.4439796478325844,-0.7399920993741379,-1.5444444447065457,0.5308411744154554,0.41012995669318314,1.441255597423198,0,276,0.0,-5.2392483e-05,0.0,3.4868717e-05,0.0,-3.49069e-05,-0.0010297298,-0.0034732223,0.0055675507,-0.00022685528,-0.0019024312,0.0
