ias30/Pi0/openpi-main/test3_predictions.csv
joint_0_right_waist,joint_1_right_shoulder,joint_2_right_elbow,joint_3_right_forearm_roll,joint_4_right_wrist_angle,joint_5_right_wrist_rotate,joint_6_left_waist,joint_7_left_shoulder,joint_8_left_elbow,joint_9_left_forearm_roll,joint_10_left_wrist_angle,joint_11_left_wrist_rotate,episode_index,frame_index,gt_joint_0_right_waist,gt_joint_1_right_shoulder,gt_joint_2_right_elbow,gt_joint_3_right_forearm_roll,gt_joint_4_right_wrist_angle,gt_joint_5_right_wrist_rotate,gt_joint_6_left_waist,gt_joint_7_left_shoulder,gt_joint_8_left_elbow,gt_joint_9_left_forearm_roll,gt_joint_10_left_wrist_angle,gt_joint_11_left_wrist_rotate
1.3999519311683344,0.713251807234346,1.1599124242114125,-0.7926024624318156,-0.3088065701823706,0.008354831227929632,-1.3876402433446027,-0.7788454065818838,-1.2427674297056992,1.2233416482476296,0.2486853013230875,0.7403716725455317,1,0,0.0,0.0,0.0,0.0,0.0,0.0,3.4928322e-05,-1.7464161e-05,0.0,0.0,3.489852e-05,0.0
1.3999520623103545,0.7132581175062219,1.15992793033082,-0.7925840562830876,-0.3088272889062191,0.00836919285651792,-1.3880599262707098,-0.7784604843431225,-1.2433926214730904,1.2225313810540726,0.2484823233237429,0.7402414849911529,1,1,0.0,0.0,0.0,0.0,0.0,0.0,-3.4928322e-05,1.7464161e-05,1.7642975e-05,-3.4928322e-05,0.0,0.0
1.3999493423887581,0.713242612429074,1.1599142120748849,-0.7925661099331688,-0.3088030265212307,0.008361829594542573,-1.3895399973455,-0.7802139369541747,-1.242782776528879,1.2186566272688268,0.24818638105608487,0.744576830959207,1,2,0.0,0.0,0.0,0.0,0.0,0.0,3.4928322e-05,0.0,-1.7642975e-05,5.2332878e-05,0.0,-3.4868717e-05
1.3999446375494542,0.7132311647092021,1.1599018324087595,-0.7925888550301913,-0.3088051569600428,0.008345951436843092,-1.388115537156426,-0.7778747372229304,-1.2445059049919815,1.222168372890818,0.24871778235529743,0.7411754964471406,1,3,0.0,0.0,0.0,0.0,0.0,0.0,0.0,-1.7464161e-05,0.0,-1.7404556e-05,1.744926e-05,3.4868717e-05
1.399935982355112,0.7132338233556142,1.1599052228036297,-0.7925896166592512,-0.3088075429855833,0.008377404570223132,-1.3882245647274998,-0.7785408442353133,-1.2431015252209188,1.2233384150370115,0.24853773702047405,0.7406801893782922,1,4,0.0,0.0,0.0,0.0,0.0,0.0,0.0,1.7464161e-05,1.7642975e-05,0.0,0.0,0.0
1.399962295187799,0.713258818408263,1.1599040458741037,-0.7925809124992054,-0.30882642493805534,0.008373313676045576,-1.3885012320401344,-0.7785494555150075,-1.2438002763674059,1.2219028538599894,0.24880264457840723,0.7400699971653986,1,5,0.0,0.0,0.0,0.0,0.0,0.0,0.0,-1.7464161e-05,0.0,0.0,-1.744926e-05,0.0
1.3999547172986024,0.7132546608933574,1.1599148283711558,-0.7925919004090812,-0.30882342619982794,0.008353748381466904,-1.38791263239932,-0.7789001409222018,-1.24311590505812,1.2232182895155923,0.24876242133337795,0.7396426686820465,1,6,0.0,0.0,0.0,0.0,0.0,0.0,1.7404556e-05,1.7464161e-05,-1.7642975e-05,0.0,0.0,0.0
1.3999605793120402,0.7132640436559311,1.1599146637784674,-0.7925948822343584,-0.30881904365001867,0.008370835267872849,-1.3878983572977561,-0.7784526198440423,-1.2438948795691778,1.2224589011983285,0.24883042246340192,0.7409092640887632,1,7,0.0,0.0,0.0,0.0,0.0,0.0,-5.2332878e-05,0.0,0.0,1.7404556e-05,0.0,0.0
1.399945318902131,0.7132307454037732,1.1599326806827595,-0.792603511467294,-0.3087984750041316,0.00835747919444118,-1.387882382516846,-0.7787007969808064,-1.2418813209466129,1.224233926834902,0.24867288853335517,0.7389826942585521,1,8,0.0,0.0,0.0,0.0,0.0,0.0,0.0,0.0,0.0,0.0,0.0,-3.4868717e-05
1.3999354527864212,0.7132552188808761,1.1599141761849743,-0.7925902214272703,-0.30881678321772316,0.008364835255687425,-1.3883396898780564,-0.7787536582931935,-1.2428918789415657,1.2227709046240287,0.2486701573101752,0.7404472343502035,1,9,0.0,0.0,0.0,0.0,0.0,0.0,0.0,0.0,0.0,0.0,1.744926e-05,3.4868717e-05
1.3999603844271598,0.7132621425739518,1.1599077828548698,-0.7925825434126068,-0.30882040929010757,0.008370487037481108,-1.387520744610125,-0.7782150494377954,-1.2438933565662613,1.2224269268145251,0.248860183928522,0.7404894263725241,1,10,0.0,0.0,0.0,0.0,0.0,0.0,3.4928322e-05,0.0,0.0,-1.7404556e-05,0.0,1.7523766e-05
1.3999510324830355,0.7132504738688871,1.1598975839021446,-0.7925755847884437,-0.3087990165131303,0.008360444578488658,-1.3886141452749878,-0.7790008805871735,-1.2429176714329584,1.2217545512995993,0.24872054003756738,0.741451605797306,1,11,0.0,0.0,0.0,0.0,0.0,0.0,0.0,0.0,-1.7404556e-05,0.0,0.0,-1.7523766e-05
1.399946770374836,0.7132422207854828,1.159925792918749,-0.7925808031495523,-0.3088042124414133,0.008369103080467621,-1.3881907248310783,-0.7790501330734894,-1.2430648384954763,1.2227754067864007,0.2484777801687608,0.7407202727225191,1,12,0.0,0.0,0.0,0.0,0.0,0.0,0.0,0.0,1.7404556e-05,0.0,-1.744926e-05,0.0
1.3999470192698462,0.713237283270522,1.1599152795307681,-0.7925868751391966,-0.30883184195594365,0.008385192574532071,-1.3876830748550268,-0.7784455031419838,-1.2435657696105138,1.224657130891068,0.24857855851732868,0.7391037075582607,1,13,0.0,0.0,0.0,0.0,0.0,0.0,0.0,0.0,0.0,1.7404556e-05,0.0,-3.4868717e-05
1.3999521441622467,0.7132501907060883,1.1599358872520773,-0.792580117286631,-0.3088071351506064,0.00836003129541997,-1.3882428078625848,-0.7783541424793068,-1.2433413916716936,1.2222581487452315,0.2486772718477766,0.7404199996926204,1,14,0.0,0.0,0.0,0.0,0.0,0.0,-3.4928322e-05,0.0,0.0,-1.7404556e-05,1.744926e-05,3.4868717e-05
1.3999448078834282,0.7132646614195696,1.1598919137008783,-0.7925934933587734,-0.3088132568601478,0.00835563648647193,-1.3876385283707422,-0.7787518344988572,-1.2441654292288913,1.2228445885435628,0.24913881175270655,0.7409079912603675,1,15,0.0,0.0,0.0,0.0,0.0,0.0,3.4928322e-05,0.0,0.0,0.0,-1.744926e-05,0.0
1.3999340114715544,0.7132517393588043,1.1599010210234446,-0.7926076955048229,-0.3087989443678657,0.008366426631735006,-1.388155133245863,-0.7783510225082005,-1.2432720085681355,1.2224322590953327,0.24856361851562883,0.7410807605147095,1,16,0.0,0.0,0.0,0.0,0.0,0.0,-3.4928322e-05,0.0,0.0,1.7404556e-05,-3.489852e-05,0.0
1.3999616300619335,0.7132706703030831,1.1598898941406157,-0.7925820426072117,-0.30881215299695325,0.00835721971462045,-1.3880874373519787,-0.7785573056389475,-1.2428229272625213,1.222818313113008,0.24860316954031758,0.7399804627179576,1,17,0.0,0.0,0.0,0.0,0.0,0.0,3.4928322e-05,-1.7464161e-05,0.0,0.0,5.234778e-05,0.0
1.3999592407884205,0.7132499774287707,1.1599170589228494,-0.7925789238636691,-0.3088109039510625,0.008357440610316881,-1.3880542103352964,-0.7786162656605466,-1.24313361799788,1.2239954188170266,0.2487840005529932,0.7392349701366224,1,18,0.0,0.0,0.0,0.0,0.0,0.0,0.0,3.4868717e-05,0.0,-1.7404556e-05,-1.744926e-05,0.0
1.399944156113032,0.7132765665404938,1.159918944536872,-0.7926175796932068,-0.3088138982126067,0.008349237346560994,-1.3879664503724578,-0.7791959046559817,-1.2428195000410622,1.2226152297286057,0.2486610576267682,0.7408665748864017,1,19,0.0,0.0,0.0,0.0,0.0,0.0,0.0,-1.7404556e-05,0.0,0.0,1.744926e-05,-3.4868717e-05
1.3999505040274558,0.7132440940583283,1.1599184607493056,-0.7925927743262585,-0.30881841761390866,0.00835594394753624,-1.3882568513245916,-0.7785717903028043,-1.2434121787645092,1.2216459758357652,0.24864799829294526,0.7409181486059189,1,20,0.0,0.0,0.0,0.0,0.0,0.0,0.0,-1.7464161e-05,0.0,1.7404556e-05,-1.744926e-05,3.4868717e-05
1.3999647012344243,0.7132402924966058,1.1599116524916364,-0.792585506221303,-0.3088207355752426,0.008367500371941665,-1.3880275871777044,-0.7785794523439811,-1.2428821309790654,1.2241851892614195,0.2486842308427452,0.7393769743546215,1,21,0.0,0.0,0.0,0.0,0.0,0.0,1.7404556e-05,1.7464161e-05,1.7642975e-05,-1.7404556e-05,0.0,0.0
1.399939072016062,0.713233074300795,1.1599142035410328,-0.7926045251405176,-0.308803062468941,0.008340552782492081,-1.3877678147757386,-0.7783580965435108,-1.2434228096714546,1.2228602198303293,0.2486451096736567,0.7400087659493798,1,22,0.0,0.0,0.0,0.0,0.0,0.0,-5.2332878e-05,0.0,0.0,-3.4928322e-05,1.744926e-05,-3.4868717e-05
1.3999683033590706,0.7132474542127467,1.1598787859849033,-0.7925984906405315,-0.30881519640971966,0.008357403443218508,-1.3877874322241652,-0.7783247763229479,-1.2439782389792498,1.2222120267655758,0.2489388471984568,0.7413894068693088,1,23,0.0,0.0,0.0,0.0,0.0,0.0,3.4928322e-05,0.0,-1.7642975e-05,3.4928322e-05,-1.744926e-05,0.0
1.399935274535747,0.7132574629987284,1.1599020816300583,-0.7925749716926005,-0.30880654631294185,0.008351508078397551,-1.3890188681559967,-0.7796863757190255,-1.2443816621704296,1.214498859720093,0.2492895474071173,0.7492819061445695,1,24,0.0,0.0,0.0,0.0,0.0,0.0,0.0,0.0,-1.7404556e-05,0.0,1.744926e-05,3.4868717e-05
1.3999215102134177,0.7132362660174436,1.1599081850590331,-0.7925890474175635,-0.3088203980471256,0.008377032787368932,-1.38755036164309,-0.7786455477248564,-1.2433467297849663,1.2240065216515945,0.2489905998353668,0.7391663341554093,1,25,0.0,0.0,0.0,0.0,0.0,0.0,-3.4928322e-05,0.0,1.7404556e-05,0.0,-1.744926e-05,1.7523766e-05
1.3999459705196375,0.7132265393426782,1.1599344520509316,-0.7925990673383858,-0.30880720192235955,0.008342745436200241,-1.3879685907906594,-0.7783295477481917,-1.2437650895953674,1.2222550053154362,0.24884810774863275,0.7408466489512091,1,26,0.0,0.0,0.0,0.0,0.0,0.0,0.0,0.0,0.0,1.7404556e-05,0.0,-1.7523766e-05
1.3999432099555003,0.7132508231732353,1.1599127016781399,-0.7925830554376777,-0.30881176428530055,0.008347990162381271,-1.387752102152335,-0.7782311540437469,-1.243801052175832,1.2227079521114068,0.2492251123336134,0.7413665771410467,1,27,0.0,0.0,0.0,0.0,0.0,0.0,0.0,0.0,0.0,0.0,0.0,0.0
1.3999461846881898,0.7132547044743627,1.1598983729189596,-0.7925673655150917,-0.30881589916135244,0.008358288824555065,-1.3882223109478886,-0.7790323658586948,-1.2432660839194276,1.2226925177260481,0.24868988398261552,0.7407058588009562,1,28,0.0,0.0,0.0,0.0,0.0,0.0,3.4928322e-05,0.0,0.0,0.00012218952,0.0,0.0
1.399952049703019,0.7132588994640103,1.1599121816613225,-0.7925936476169612,-0.308800718560767,0.00835542522655178,-1.3880981503810583,-0.7787473530959543,-1.2435792032772637,1.2217096067830437,0.2487596127782675,0.7417065405753553,1,29,0.0,0.0,0.0,0.0,0.0,0.0,0.0,0.0,0.0,0.0,0.0,0.0
1.3999507430666775,0.7132260487757615,1.1599214410307703,-0.7925863394106382,-0.3088104157017289,0.008378981145807842,-1.3876584610348837,-0.7784909847801319,-1.2437488312138067,1.2234329997806153,0.24889222034232306,0.7399670872695622,1,30,0.0,0.0,0.0,0.0,0.0,0.0,0.00027918816,1.7404556e-05,0.0,0.0025656223,-3.489852e-05,-0.0017976165
1.3999574250058082,0.7132438186667981,1.159895343910448,-0.7925997828022326,-0.30881331139979756,0.008360779926996046,-1.3878514040477756,-0.7783995219918781,-1.2440926598148194,1.2250271584681605,0.24888957010228435,0.738782345669841,1,31,0.0,0.0,0.0,0.0,0.0,0.0,0.00029671192,5.2392483e-05,5.2571297e-05,0.0019373894,3.489852e-05,-0.0015883446
1.3999647469372394,0.7132595658763862,1.1599008280207848,-0.7925987793092217,-0.30879856259870775,0.008359218918186912,-1.387123051845939,-0.778653238933285,-1.2435119802391528,1.2281328952405388,0.24868296541115603,0.7366585342691147,1,32,0.0,0.0,0.0,0.0,0.0,0.0,0.0013439655,0.0008203387,-5.2571297e-05,0.0031415224,3.491342e-05,-0.0029146671
1.3999246877784521,0.7132570859495719,1.159905151102118,-0.7925789646777447,-0.30883873444088794,0.008358971009501556,-1.3864293479329055,-0.7780063462945007,-1.2424228591289068,1.2318519582384941,0.24820858221417652,0.7328609424843865,1,33,0.0,0.0,0.0,0.0,0.0,0.0,0.0,0.0,0.0,0.0,0.0,0.0
1.3999537704381513,0.7132707649110054,1.1599140511734558,-0.7925929681157406,-0.308800801803582,0.008358551174552479,-1.3859937133324403,-0.7780092554416745,-1.2433896647275018,1.2306651708027496,0.249067711840778,0.7335267112871487,1,34,0.0,0.0,0.0,0.0,0.0,0.0,0.00071561337,0.0009599328,-0.00040125847,0.00064587593,0.00019197166,-0.00041884184
1.3999496984134918,0.7132522118772856,1.159891206280518,-0.7925705368675862,-0.3088432899051501,0.008358397441223563,-1.3857030694522297,-0.7766287904017335,-1.2444724554575142,1.230770842910396,0.24857828729875878,0.7341424891392649,1,35,0.0,0.0,0.0,0.0,0.0,0.0,0.002041936,0.0023038387,-0.0024783611,0.0022164583,0.001727894,-0.0014660954
1.3999388930088639,0.7132725986348438,1.1599274912131314,-0.7925739998813058,-0.308813556819365,0.00835388415492449,-1.3830803800084903,-0.7742322899218617,-1.246259709186904,1.2323500500870062,0.2507010646768001,0.7329613898472235,1,36,0.0,0.0,0.0,0.0,0.0,0.0,0.0032812357,0.0031066537,-0.0024434328,0.007208228,0.0031241179,-0.006876588
1.3999480909609587,0.7132785672170213,1.159926541227765,-0.7925805738486547,-0.3088184274898569,0.008373354031452278,-1.3804987913148061,-0.7731643409905418,-1.246479016099197,1.2388456488114725,0.25340709434631736,0.7276425563040059,1,37,0.0,0.0,0.0,0.0,0.0,0.0,0.0,0.0,0.0,0.0,0.0,0.0
1.3999445757745819,0.7132504603139154,1.1599258998072517,-0.7925955022559158,-0.30879020260069767,0.008350185754553714,-1.380314133557515,-0.7714817972946216,-1.2481196658770295,1.2405147932336569,0.25356333648161683,0.724324810837794,1,38,0.0,0.0,0.0,0.0,0.0,0.0,0.009424806,0.007906318,-0.0025134087,0.030229092,0.006963879,-0.024521887
1.3999295998466106,0.7132743289894379,1.1599246917851938,-0.7925792230612348,-0.30881276276092107,0.008360711363450924,-1.3703663178808172,-0.7637506733642861,-1.2503001310324995,1.2722627906110695,0.260139947752359,0.6992659023071335,1,39,0.0,0.0,0.0,0.0,0.0,0.0,0.0,0.0,0.0,0.0,0.0,0.0
1.399948339537138,0.713263795318409,1.1599331410092244,-0.792576949629591,-0.30881346640751756,0.008364671238665768,-1.3707720294885402,-0.7633197241482584,-1.2506736312263498,1.2711469324324818,0.26067024443524683,0.7002446686426169,1,40,0.0,0.0,0.0,0.0,0.0,0.0,0.0,0.0,0.0,0.0,0.0,0.0
1.3999452725187704,0.713243624498821,1.159930932650767,-0.7925755226099055,-0.3088191775142203,0.008347824004904667,-1.3708281257199104,-0.7641493341700023,-1.2494831338770618,1.2701326418176204,0.2604412522863762,0.7009536426592525,1,41,0.0,0.0,0.0,0.0,0.0,0.0,0.013247013,0.009983301,0.0,0.045710206,0.010506868,-0.043528497
1.3999472028735223,0.713251942741179,1.159919449013017,-0.7925852734169953,-0.3088166421490634,0.00835069660731528,-1.357481766594725,-0.753630702656181,-1.251633251375288,1.3135445233106198,0.2707057446850557,0.65983886722095,1,42,0.0,0.0,0.0,0.0,0.0,0.0,0.010611653,0.007190764,0.003211379,0.04194033,0.009459704,-0.040002942
1.3999522829282394,0.7132534460089784,1.1599130632062011,-0.7925688074862651,-0.3088336221395085,0.008355980070510248,-1.3462257365698023,-0.746697352483298,-1.247255319472236,1.3592700761864691,0.28026237181282704,0.6165845212266543,1,43,0.0,0.0,0.0,0.0,0.0,0.0,0.006771803,0.004066646,0.0030893087,0.025499225,0.0065449774,-0.024347365
1.3999278735063019,0.7132226717643282,1.1598991995391676,-0.7925896316685389,-0.308837383150051,0.008354312014715114,-1.3395809350553478,-0.7421269804894313,-1.2454096908440997,1.3825629138559035,0.28710245899795034,0.5935873725850662,1,44,0.0,0.0,0.0,0.0,0.0,0.0,0.0,0.0,0.0,0.0,0.0,0.0
1.3999584536939131,0.7132328102380141,1.1599025532461178,-0.7925793750186201,-0.30885373491323986,0.008351152880340183,-1.3374745310520817,-0.7414161329430986,-1.2438173345775483,1.3902551022939413,0.28802092418450564,0.5865339209282777,1,45,0.0,0.0,0.0,0.0,0.0,0.0,0.012356997,0.006300628,0.0078190565,0.048328042,0.01047197,-0.04361576
1.399966977984892,0.7132466127510565,1.1598635127723513,-0.7926079742972154,-0.3088140821201975,0.008343609031462411,-1.32679185262796,-0.735938176092374,-1.2371946090621295,1.4318987155137883,0.29751586031623867,0.5492213078416945,1,46,0.0,0.0,0.0,0.0,0.0,0.0,0.0,0.0,0.0,0.0,0.0,0.0
1.3999367127900242,0.7132516339134305,1.1598886957804373,-0.7926007927538987,-0.3088129047133575,0.00834576432043437,-1.3266429136699076,-0.7358665221688967,-1.2359127166611497,1.433732500838185,0.29739386568086545,0.5467967869025978,1,47,0.0,0.0,0.0,0.0,0.0,0.0,0.010506868,0.005148709,0.007365346,0.043929935,0.009861112,-0.043144524
1.3999420165064351,0.7132542166389498,1.1599302526424002,-0.7925902253352787,-0.3088141462797752,0.008366842349850872,-1.3161983965204778,-0.7309544571924719,-1.2291636642055799,1.4771718213548162,0.307436567653454,0.5043264495396201,1,48,0.0,0.0,0.0,0.0,0.0,0.0,0.0,0.0,0.0,0.0,0.0,0.0
1.399957405228974,0.7132483699284597,1.1598806382988167,-0.7925724869600173,-0.3088288326888407,0.008368382798732558,-1.3162335893943993,-0.7314739750484096,-1.2285055967745022,1.4771678251512426,0.30717994867243,0.5036039581714234,1,49,0.0,0.0,0.0,0.0,0.0,0.0,0.006091118,0.0046076775,0.0010297298,0.020053864,0.004625112,-0.018936872
1.3999410827385577,0.7132522502264819,1.15992032143113,-0.7925919356482785,-0.30879735500175753,0.00835175792990003,-1.3103510520251371,-0.7262512930185673,-1.2292639307312105,1.495481597464247,0.3122023615685275,0.4876431072956138,1,50,0.0,0.0,0.0,0.0,0.0,0.0,0.0,0.0,0.0,0.0,0.0,0.0
1.3999487985565828,0.7132558900291017,1.1598872987289854,-0.7925971727747257,-0.3088182339688639,0.008352286390140953,-1.3099206238598697,-0.7264411569806698,-1.2289546309679902,1.4964903927398157,0.3123260803544409,0.4863607498872595,1,51,0.0,0.0,0.0,0.0,0.0,0.0,0.0027052164,0.007312894,-0.014224529,-0.013491273,0.003071785,0.014852762
1.3999444839065538,0.7132700012878543,1.1599322560933156,-0.7926050644755002,-0.30882080906388504,0.008350809365288654,-1.3083441268102196,-0.718714063712749,-1.243628259561047,1.4814784872288624,0.3152536026913136,0.503270439920066,1,52,0.0,0.0,0.0,0.0,0.0,0.0,0.0,0.0,0.0,0.0,0.0,0.0
1.3999395719521304,0.7132431211581612,1.1599397646228222,-0.7925954345388573,-0.3088524434656451,0.00834553291637201,-1.3072324166637437,-0.7195573502399419,-1.242644263927093,1.481657394533082,0.3152197972136716,0.5024366169181508,1,53,0.0,0.0,0.0,0.0,0.0,0.0,1.7642975e-05,0.005410552,-0.012793183,-0.022776604,0.0009599328,0.02515018
1.399938168960357,0.7132723848074964,1.1599061835919542,-0.7925849354358029,-0.30883015645208456,0.00835593242487807,-1.307772617757164,-0.7136098593039352,-1.2554324448543164,1.4600491638943456,0.3165438528212271,0.5267594189861933,1,54,0.0,0.0,0.0,0.0,0.0,0.0,0.0,0.0019721985,-0.005846858,-0.01092577,0.00041890144,0.010978162
1.3999490678437145,0.7132430814553323,1.1598752705113922,-0.7925934598535683,-0.3088301583147279,0.008352002430265138,-1.3072942698405958,-0.7116111899587908,-1.2612882051714132,1.4464447390175441,0.31636083375030405,0.5392330154290201,1,55,0.0,0.0,0.0,0.0,0.0,0.0,0.0,0.0010821223,-0.0028623343,-0.0048345327,0.00019195676,0.005323231
1.399949985118156,0.7132517851585737,1.1599147037432596,-0.792589832386532,-0.30882306298438705,0.008382573164821902,-1.3074102233295792,-0.7099017646395329,-1.2657239002918717,1.442747750931603,0.31701649737456883,0.5446743624037734,1,56,0.0,0.0,0.0,0.0,0.0,0.0,0.0,0.0023212433,-0.006387949,-0.010716438,0.0005236268,0.010838509
1.3999515857831815,0.7132610672377265,1.1598970691562906,-0.7925806314395715,-0.30881587531243326,0.008373213089579085,-1.3074672055502623,-0.7085907967637392,-1.2698472993755652,1.4342084035048266,0.317498289077323,0.5529985104639407,1,57,0.0,0.0,0.0,0.0,0.0,0.0,0.0,0.0013962984,-0.0028272867,-0.0039618015,0.0003490448,0.004363358
1.3999397978614883,0.7132513859842355,1.1599193562351091,-0.7925791390763458,-0.3088162531456152,0.008374247783263514,-1.3077325913944728,-0.7063683523348107,-1.2750561485402985,1.4285086626013441,0.3182554441783431,0.5594146724627584,1,58,0.0,0.0,0.0,0.0,0.0,0.0,0.000104665756,0.00033164024,-0.00055861473,-0.0004887581,8.7291e-05,0.0004886985
1.3999494518018045,0.7132455278144806,1.1599052231336475,-0.7925754659437846,-0.3088109998277823,0.008361907450794542,-1.3075897141054982,-0.7067622782759702,-1.274357135739267,1.4279439596547805,0.31782590074804307,0.5602189627158883,1,59,0.0,0.0,0.0,0.0,0.0,0.0,0.0003489256,0.0007853508,-0.0010994673,-0.0010122061,0.0002617836,0.001116991
1.3999358454666788,0.7132353042670331,1.1598872077354117,-0.792577424085296,-0.3088197723860147,0.008347811628301928,-1.3076903910449793,-0.7049636711360049,-1.2766482002503197,1.4271220940395957,0.31839839009377446,0.5608564706075593,1,60,0.0,0.0,0.0,0.0,0.0,0.0,0.0,0.0,0.0,0.0,0.0,0.0
1.3999516156936156,0.7132628693311225,1.159898029051516,-0.7925868102226287,-0.30883103353333163,0.008359389565864413,-1.3074760492640736,-0.7054129466964364,-1.2755026826257472,1.4284587279217695,0.31819876826058013,0.5590897353431277,1,61,0.0,0.0,0.0,0.0,0.0,0.0,0.0012568235,0.003194034,-0.00647521,-0.0081682205,0.0013264418,0.009407282
1.3999586509607023,0.7132562982518963,1.159886771742638,-0.7925780201926764,-0.30881123584463693,0.008364401690036823,-1.3063525949766486,-0.7020515112433102,-1.2831423347506759,1.4182962666711392,0.31947615462235035,0.5701917830143604,1,62,0.0,0.0,0.0,0.0,0.0,0.0,0.0,0.0,0.0,0.0,0.0,0.0
1.3999568754924776,0.7132515162518016,1.1599144725317077,-0.7925692663770589,-0.30879032192173844,0.008356869379199409,-1.3060222971302728,-0.7022678645632436,-1.2840486274824785,1.4174612592631854,0.319979156648877,0.5717233417321939,1,63,0.0,0.0,0.0,0.0,0.0,0.0,0.0021990538,0.0080807805,-0.013945222,-0.016877294,0.0032288432,0.019617498
1.3999532124133425,0.7132357513760021,1.1598758092348163,-0.7925923317816045,-0.30882622363647133,0.00835252104683716,-1.3039287124840426,-0.6946833641056288,-1.2959134468005777,1.4013943866362644,0.3226875446159004,0.5897863969061872,1,64,0.0,0.0,0.0,0.0,0.0,0.0,0.002775073,0.012391865,-0.022793889,-0.024469495,0.005340755,0.025534153
1.39994499012042,0.7132569209154612,1.1599116424680425,-0.7925675466855849,-0.30881662291456796,0.008348184332222978,-1.3014474209864622,-0.6820167835685889,-1.31925620831313,1.3766088906179867,0.32828821884255327,0.6163473867107214,1,65,0.0,0.0,0.0,0.0,0.0,0.0,0.0011519194,0.0037001371,-0.006876707,-0.006911516,0.002146721,0.009791315
1.3999379626413824,0.7132531628135509,1.1599106754000557,-0.7925826296885099,-0.3088214704859058,0.008335973491684833,-1.3005201029580924,-0.6782223631961412,-1.3262820354341827,1.3697682774339535,0.33032350215473066,0.6259259200854483,1,66,0.0,0.0,0.0,0.0,0.0,0.0,0.0041538477,0.014817774,-0.02696538,-0.02684319,0.006161034,0.028344154
1.3999421691499592,0.7132494212162636,1.1598995260844014,-0.7925972177019056,-0.30881774356415925,0.008377761317686477,-1.296855608824093,-0.6636789809118719,-1.3534475157152712,1.3422875741508093,0.3365579284234844,0.6546105740125385,1,67,0.0,0.0,0.0,0.0,0.0,0.0,0.0014835596,0.0055676103,-0.009791255,-0.00919795,0.0031066835,0.011920631
1.3999473146470354,0.7132395118122763,1.1598997888970297,-0.7925864013938692,-0.30882086003113784,0.008353823360783347,-1.2932225594197118,-0.6574973121554787,-1.3605706883569944,1.3445105798377668,0.3398782732680729,0.6548816337906955,1,68,0.0,0.0,0.0,0.0,0.0,0.0,0.003612876,0.012915492,-0.0233351,-0.022584558,0.0061610043,0.025691211
1.3999305959039645,0.7132406592825792,1.1599113418665024,-0.7925811703084271,-0.30882525041001535,0.008365901317850987,-1.2910766247640875,-0.6446673066671552,-1.3862101134517677,1.3137474835133789,0.3458558839568789,0.6893802857991063,1,69,0.0,0.0,0.0,0.0,0.0,0.0,0.0016057491,0.006492555,-0.012042642,-0.011449337,0.0029670298,0.0121126175
1.3999551792751568,0.71324630440808,1.1599109055176078,-0.7925986685332201,-0.3088346795167948,0.008353332402319946,-1.2874877032042413,-0.6348176810311285,-1.4015389265738702,1.3027496145254494,0.35046218833281556,0.7010539238991857,1,70,0.0,0.0,0.0,0.0,0.0,0.0,0.0021291971,0.00795877,-0.014224529,-0.014032364,0.003769964,0.017051876
1.3999421726067567,0.713247752824857,1.159899473172467,-0.7925927995376668,-0.3088236391471276,0.008356466580258052,-1.2872891164485118,-0.6304233179703007,-1.4123546451373126,1.2862848822053115,0.35253642558709664,0.7199582452258474,1,71,0.0,0.0,0.0,0.0,0.0,0.0,0.000872612,0.0034732223,-0.005899191,-0.006300688,0.0016754866,0.0071558356
1.3999424184532965,0.7132515932186834,1.1598782994229493,-0.7925690153956648,-0.30880845639023896,0.00834788616759453,-1.2853920831259937,-0.6267451628074344,-1.4167662970874904,1.2878801637678547,0.35461732051201644,0.7181652974095972,1,72,0.0,0.0,0.0,0.0,0.0,0.0,0.0006982088,0.0034556985,-0.0063005686,-0.0067893267,0.0014660954,0.0077667236
1.3999492146401422,0.7132634070533058,1.1598925736396832,-0.7925867567615967,-0.30881314298113915,0.008366439289878421,-1.2828211025103835,-0.6130173199277231,-1.4421037289185266,1.25941183468298,0.35976566043585734,0.7511688177869024,1,73,0.0,0.0,0.0,0.0,0.0,0.0,0.0003490448,0.0016056895,-0.0030719042,-0.0046949387,0.0005759299,0.005916655
1.399954984135771,0.7132574317085586,1.1598891460404244,-0.7925976858574386,-0.3088072523386503,0.008344483358831445,-1.2842055033995394,-0.6200140196900932,-1.4298901778532536,1.2701974468894988,0.35772362389938367,0.7394919110206118,1,74,0.0,0.0,0.0,0.0,0.0,0.0,0.0,-6.979704e-05,0.0004364252,-8.72612e-05,-3.489852e-05,1.7464161e-05
1.3999578599973412,0.7132662337813667,1.1598978335280417,-0.7925815183113489,-0.3088103024776286,0.00836886044088129,-1.2860040510763493,-0.621379129163345,-1.4312948923804445,1.2601577915585231,0.35676067708905096,0.7494047178515846,1,75,0.0,0.0,0.0,0.0,0.0,0.0,-0.0003490448,-0.0030892491,0.0069987774,0.0042586327,-0.00027924776,-0.005637467
1.39992306755474,0.7132630792271552,1.1599175374338588,-0.7926093126297231,-0.30881115192687014,0.008370711184879134,-1.2857089217122968,-0.624882099185975,-1.4202236646415394,1.2722130729126175,0.35585444525085236,0.7359662979763814,1,76,0.0,0.0,0.0,0.0,0.0,0.0,0.0,0.0,0.0,0.0,0.0,0.0
1.3999369479836987,0.7132503983898825,1.1599137049082553,-0.7926103305763985,-0.30884364657616864,0.008359973570258656,-1.286233937207702,-0.6247078635239025,-1.4220392124294987,1.2697941391168037,0.3559679527068586,0.7387883219334482,1,77,0.0,0.0,0.0,0.0,0.0,0.0,0.0,0.0,0.0,0.0,0.0,0.0
1.3999285799142343,0.7132603979763827,1.1599092543766272,-0.7925857723536874,-0.30881057487662383,0.008357757908524313,-1.285664101152256,-0.6259176638323912,-1.418348993099338,1.275827609957211,0.35592985530707666,0.732745354119735,1,78,0.0,0.0,0.0,0.0,0.0,0.0,0.0,0.0,0.0,0.0,0.0,0.0
1.3999359059401246,0.7132453762859321,1.1598728126463664,-0.7925819027616691,-0.3088033568970958,0.00834524191518251,-1.2857652408097537,-0.6247939449433714,-1.4204009168906069,1.2729806863386923,0.3561277371718359,0.7354073285062256,1,79,0.0,0.0,0.0,0.0,0.0,0.0,-0.0037699938,-0.01570791,0.026843071,0.025987864,-0.0062482655,-0.029164374
1.3999350369452477,0.7132561785113412,1.1598977534064128,-0.7925948796268443,-0.3088067179371553,0.008367756555312612,-1.2896443863064866,-0.6409858223766223,-1.3934880673916312,1.298682746834035,0.3494094125120135,0.7066674824113538,1,80,0.0,0.0,0.0,0.0,0.0,0.0,-0.0007853508,-0.0026878119,0.004293561,0.003368497,-0.0013090074,-0.0041015744
1.3999486856270746,0.7132720902898452,1.1599050768760626,-0.792575735383806,-0.30880980101639277,0.00834671588317428,-1.2901708595001136,-0.6428880181939519,-1.3901685970289397,1.302170380996275,0.3486772444765521,0.7029089808171064,1,81,0.0,0.0,0.0,0.0,0.0,0.0,-0.001064539,-0.0020769835,0.0030543804,0.0012043715,-0.0013613403,-0.0018675327
1.3999440530262606,0.7132661348701604,1.1599072632762117,-0.7925891553464617,-0.3088211616190026,0.008357834974224978,-1.2912226340178954,-0.6455459525844774,-1.3858604293066419,1.3064299115425961,0.3470328153426047,0.6973626621519334,1,82,0.0,0.0,0.0,0.0,0.0,0.0,-0.00078547,-0.00036650896,-0.00045382977,-0.0030019283,-0.0005759895,0.0024434328
1.399944319969706,0.7132461644562604,1.1599157245841174,-0.7925847007539357,-0.30880156044383594,0.008359485681940403,-1.2927907336293243,-0.6459557101417013,-1.3876758019520394,1.2966688509980717,0.3464554504477145,0.7063893637180836,1,83,0.0,0.0,0.0,0.0,0.0,0.0,-6.9856644e-05,0.0019897223,-0.0070860386,-0.009250402,-1.7434359e-05,0.009128153
1.3999458282250639,0.7132595296434062,1.1599256552509514,-0.7925972917750712,-0.30882515605659844,0.008358925554666037,-1.2922132544305234,-0.6436460079300262,-1.3941260603894767,1.289285060498019,0.3462821757768048,0.7131070615919931,1,84,0.0,0.0,0.0,0.0,0.0,0.0,0.0,0.0,0.0,0.0,0.0,0.0
1.3999546839649322,0.713253010472077,1.1599158171280295,-0.7925851664072994,-0.3088119725191245,0.008340047687330583,-1.2924811571800334,-0.6442997924653074,-1.3930686537834456,1.289956740425652,0.34627320087901287,0.711967273864253,1,85,0.0,0.0,0.0,0.0,0.0,0.0,1.7404556e-05,0.005078912,-0.010524392,-0.012391806,0.0007854104,0.013508797
1.3999433856741728,0.7132662086478017,1.1599092964622972,-0.7925704535427328,-0.3088438665657143,0.008365692754009106,-1.2922682045705307,-0.6385179614018673,-1.4048862877707011,1.2780822391163342,0.3475429883602283,0.7260995326946383,1,86,0.0,0.0,0.0,0.0,0.0,0.0,0.00062835217,0.009529412,-0.017802238,-0.020717025,0.0036477149,0.022811472
1.3999382049528153,0.7132641814952633,1.1599024611440942,-0.7926001817845266,-0.3088091861763025,0.008374625126079956,-1.2914612344776348,-0.6298313616226564,-1.4193112274804833,1.263440046277507,0.3505493560403131,0.7424817445825238,1,87,0.0,0.0,0.0,0.0,0.0,0.0,0.0,0.0,0.0,0.0,0.0,0.0
1.399954115357177,0.7132447279294497,1.15991154637201,-0.7925887566848632,-0.3088028251469309,0.008336799330664167,-1.2911204731973147,-0.6295337259163939,-1.421458827095988,1.2589317357047716,0.3512842501631022,0.7477004571077697,1,88,0.0,0.0,0.0,0.0,0.0,0.0,0.0016756058,0.016912282,-0.03537786,-0.04003775,0.009512037,0.044261575
1.3999459587415417,0.7132722936181493,1.1599469685663355,-0.792578514317074,-0.30881843588200647,0.008333479790819177,-1.2896652696147843,-0.6124263273743615,-1.4575959497709021,1.2181192558094422,0.360400605726092,0.7928149192534653,1,89,0.0,0.0,0.0,0.0,0.0,0.0,0.0,0.0,0.0,0.0,0.0,0.0
1.3999290565439553,0.713259422301828,1.1599174883637426,-0.7925830883984465,-0.30881880406542833,0.008329297420160213,-1.2897581158841354,-0.610751435248625,-1.461055433229433,1.2150532279117887,0.3605068703437941,0.7955249042110328,1,90,0.0,0.0,0.0,0.0,0.0,0.0,0.0020942688,0.018535435,-0.037716627,-0.038990736,0.011449367,0.045046926
1.3999235786312425,0.71324200673253,1.1598969610875545,-0.7925808554117058,-0.3088058737141291,0.008336435106524567,-1.288455725497255,-0.5937686890357303,-1.4954158696558855,1.177895293709763,0.37172103584257965,0.8385384884057573,1,91,0.0,0.0,0.0,0.0,0.0,0.0,0.0023213625,0.014416397,-0.03063047,-0.029269218,0.008517206,0.02981019
1.3999437646502981,0.7132438904298386,1.1599164828328246,-0.7925875118126731,-0.30880601377129335,0.008335939483062663,-1.2860169843553988,-0.5789375406457601,-1.5277159801316789,1.146442602770167,0.3801739847719059,0.8702350412872571,1,92,0.0,0.0,0.0,0.0,0.0,0.0,0.0,0.0,0.0,0.0,0.0,0.0
1.3999316867808622,0.7132758256223863,1.1598884886746403,-0.7925750816668636,-0.3088125520286566,0.0083597543190581,-1.286351455143805,-0.5795814755761546,-1.525553968705915,1.147600837264253,0.38013332047929616,0.868201009909666,1,93,0.0,0.0,0.0,0.0,0.0,0.0,0.0031416416,0.017051816,-0.033004165,-0.030002236,0.010576695,0.036564708
1.3999289666560346,0.7132730367214597,1.1598936525016927,-0.7925905010736074,-0.30881935253929593,0.008367133116112391,-1.2819775987988722,-0.5607361358770466,-1.5616996768131521,1.1185950744322442,0.3914433546821602,0.9046171107873682,1,94,0.0,0.0,0.0,0.0,0.0,0.0,0.0,0.0,0.0,0.0,0.0,0.0
1.3999450592773448,0.7132764340653505,1.1598755547854376,-0.7926014154724667,-0.3088140469043065,0.008336404401810209,-1.2822089453910144,-0.5622850434133472,-1.5586689121670307,1.1200837810892659,0.3913907698482259,0.9027645176575172,1,95,0.0,0.0,0.0,0.0,0.0,0.0,0.0018849373,0.009878635,-0.020507693,-0.020088673,0.0067020953,0.023125589
1.3999614442227126,0.7132643167242846,1.1599190902854464,-0.7925699580758896,-0.3088054454870304,0.00835286126823567,-1.2810237726588583,-0.5523652654244845,-1.5803468719150342,1.0982358276806863,0.3976452955987383,0.928224178885599,1,96,0.0,0.0,0.0,0.0,0.0,0.0,0.0004886389,0.005986452,-0.014887571,-0.01822126,0.004101485,0.018168926
1.3999445796900483,0.713275755196198,1.1598769351029319,-0.7925749647473089,-0.3088102648499968,0.008358823765592018,-1.2800634952627379,-0.5458181077040817,-1.5946720772299319,1.0810970754042244,0.4020004757016336,0.944945915665006,1,97,0.0,0.0,0.0,0.0,0.0,0.0,0.0,0.0,0.0,0.0,0.0,0.0
1.39993635219142,0.7132453172257832,1.159878346512958,-0.7925905423041675,-0.3088291686656872,0.008332171447054783,-1.280313691108426,-0.5447677399269689,-1.598779283229157,1.075238795353963,0.40282618035884177,0.95113215407497,1,98,0.0,0.0,0.0,0.0,0.0,0.0,-0.0002965927,0.0036652088,-0.011484385,-0.018709898,0.0037175715,0.02049017
1.3999512001815277,0.7132471392227999,1.1598911582843585,-0.7925971974309768,-0.3088215562644514,0.008364353716717402,-1.2812183718228232,-0.5435116691533868,-1.6053425412467575,1.063007491901424,0.40564797469211644,0.9651052768327655,1,99,0.0,0.0,0.0,0.0,0.0,0.0,0.0,0.0,0.0,0.0,0.0,0.0
1.399934037613818,0.7132477160716794,1.1599102132556958,-0.792590118730181,-0.3088195141249994,0.008331597857334951,-1.281302224865868,-0.5427418185138623,-1.6058230663329742,1.061342844886397,0.40587030926479284,0.9673728593206926,1,100,0.0,0.0,0.0,0.0,0.0,0.0,-0.0024260283,0.0018151402,-0.010489345,-0.022846341,0.0025132596,0.023073196
1.399937250891635,0.7132456506892733,1.1598934238086247,-0.7925830067330051,-0.30882308030566447,0.008358384965219252,-1.283992616519503,-0.5410766382813684,-1.6181685096906064,1.0333045557691771,0.408773804159407,0.9957398885131699,1,101,0.0,0.0,0.0,0.0,0.0,0.0,0.0,0.0,0.0,0.0,0.0,0.0
1.399932196757305,0.7132418241617913,1.159884566716056,-0.7925727164510946,-0.30881036907971154,0.008359182724361607,-1.2839348169084615,-0.5411716576874235,-1.618342202687437,1.0363995527864653,0.40858050860538664,0.9926604672637781,1,102,0.0,0.0,0.0,0.0,0.0,0.0,-0.0016754866,5.2332878e-05,-0.0035779476,-0.009302616,0.00089013577,0.009616733
1.399940551555203,0.7132650024604192,1.1598892515566497,-0.7925819819510441,-0.30883630087039865,0.00836419722857822,-1.2876316810131079,-0.5406723863807785,-1.6258702832477385,1.0145447190970749,0.4105240000322811,1.015724611311141,1,103,0.0,0.0,0.0,0.0,0.0,0.0,0.0,0.0,0.0,0.0,0.0,0.0
1.399933888626594,0.7132571103718273,1.159924283968862,-0.7925820332697566,-0.30879936859559515,0.008355346007344612,-1.2861381234824965,-0.540992724701249,-1.6229312465196364,1.0224676938852768,0.409857259945833,1.005990909860152,1,104,0.0,0.0,0.0,0.0,0.0,0.0,-0.0005238056,0.00020945072,-0.0020594597,-0.0046076775,0.00033158064,0.004607737
1.399938297432402,0.7132564343758813,1.1599231400224788,-0.7926085217353489,-0.3088209270340899,0.008358511233066508,-1.2863102801481836,-0.5418857464588888,-1.621146788824449,1.0241785115774584,0.40925504552398106,1.0039880358608977,1,105,0.0,0.0,0.0,0.0,0.0,0.0,-1.7404556e-05,0.0004363656,-0.0010995865,-0.001221776,0.00029671192,0.001413703
1.3999491871311942,0.7132628646064597,1.1599333711360988,-0.7925886122824635,-0.3088173792728974,0.008362066818666013,-1.2867626978589506,-0.5394932352092243,-1.6268443946472464,1.0180134718881806,0.4105809944251001,1.0122266310533246,1,106,0.0,0.0,0.0,0.0,0.0,0.0,1.7404556e-05,0.0013264418,-0.003019452,-0.003211379,0.0007330477,0.003368497
1.3999638239462169,0.7132420171961478,1.1599333274917005,-0.7925950343259882,-0.30881771579977374,0.008342278981098274,-1.2876701007965454,-0.5370931374591974,-1.636952472486243,1.003191372086602,0.41413313541609165,1.028479037261356,1,107,0.0,0.0,0.0,0.0,0.0,0.0,0.0,0.0,0.0,0.0,0.0,0.0
1.3999352953296702,0.7132625283275629,1.1599213485884738,-0.7925746576871138,-0.308821776488925,0.008361197658780331,-1.285665809718572,-0.5392594841541061,-1.625987359155744,1.021861342067762,0.4107161731003703,1.0074848025219978,1,108,0.0,0.0,0.0,0.0,0.0,0.0,-0.00076782703,0.0017278194,-0.00647521,-0.011658788,0.0020594895,0.012496591
1.3999420127438584,0.7132547347949884,1.1598857554777486,-0.7925886210680242,-0.3088002592187623,0.008336734333922454,-1.2874096717960413,-0.53671828801294,-1.6353679096106672,1.0035707611691096,0.41331857708500513,1.0264038385153686,1,109,0.0,0.0,0.0,0.0,0.0,0.0,0.0,0.0,0.0,0.0,0.0,0.0
1.3999283619886989,0.7132244879291645,1.1598954678778421,-0.7925892882634934,-0.30881333436447395,0.008359563318879644,-1.286858315912443,-0.5379937493794187,-1.6317462384288637,1.0092316699331305,0.41252150633259005,1.0213189686260435,1,110,0.0,0.0,0.0,0.0,0.0,0.0,-0.00375247,0.0009948611,-0.011885643,-0.025516689,0.0039619207,0.023561835
1.3999482337076754,0.7132535280184216,1.159922609995119,-0.7925993061930213,-0.3088079063408623,0.008365702367411295,-1.290780363649889,-0.5358984071381847,-1.6459335244928477,0.9823877471218645,0.4171677403817646,1.0459052930028394,1,111,0.0,0.0,0.0,0.0,0.0,0.0,-0.0024957657,0.00010472536,-0.005951643,-0.014294267,0.0021118224,0.013735771
1.3999623186060168,0.7132665434835693,1.1598944567925555,-0.7925897211574551,-0.3088033123577336,0.00836689041686181,-1.293835784990384,-0.536089591271801,-1.6520416726642375,0.9667609281954574,0.4187315162281834,1.0605746163417318,1,112,0.0,0.0,0.0,0.0,0.0,0.0,-0.009093165,-6.979704e-05,-0.017348528,-0.043842673,0.0073827505,0.043633223
1.3999622546739092,0.7132445043003849,1.1598946971835455,-0.7925907513390306,-0.30881851382589026,0.00837826744951431,-1.302680199178764,-0.5360264876698555,-1.669275885136574,0.9218419606056103,0.42615834167470557,1.1060281238731213,1,113,0.0,0.0,0.0,0.0,0.0,0.0,0.0,0.0,0.0,0.0,0.0,0.0
1.3999476230664567,0.713263446558497,1.159898079784773,-0.7925762982227739,-0.3088298819890792,0.008354251850777605,-1.3042619548359584,-0.5361112118405422,-1.672412720706202,0.9147432911863407,0.4273367106917852,1.11378321465791,1,114,0.0,0.0,0.0,0.0,0.0,0.0,-0.0076446533,-0.0014835596,-0.011990428,-0.03331834,0.005619973,0.032341003
1.3999328259149508,0.7132579388136594,1.159917563555613,-0.7925873487465505,-0.3088433479640583,0.00834019273484994,-1.3123665724810862,-0.5376841509923059,-1.6868724533019994,0.8785106368774067,0.43426322795739764,1.1495793212157828,1,115,0.0,0.0,0.0,0.0,0.0,0.0,-0.0051312447,-0.0016929507,-0.0075746775,-0.024085581,0.003979355,0.022986054
1.3999463951053523,0.7132341064885809,1.1598838754497913,-0.7925905278628554,-0.308826433462585,0.00836095955181245,-1.3149800726793284,-0.5400430126449096,-1.6885743107970916,0.8657837233824873,0.43623467277660016,1.1597313808663097,1,116,0.0,0.0,0.0,0.0,0.0,0.0,0.0,0.0,0.0,0.0,0.0,0.0
1.3999480345185789,0.7132456390771187,1.1598936610616482,-0.7925856788076024,-0.30883526750051477,0.008343385637325534,-1.3179661070252162,-0.5417705262568667,-1.691790126806116,0.8521021118439916,0.4382311301345105,1.1734807559287215,1,117,0.0,0.0,0.0,0.0,0.0,0.0,-0.0050963163,-0.0015708208,-0.009128094,-0.025883198,0.003368467,0.024539232
1.399940754629934,0.7132364963438205,1.159925809192173,-0.7926010737128493,-0.3088419258592153,0.008362569263429681,-1.3199026632794455,-0.5413315155578984,-1.6965301042791383,0.8433806973989909,0.43889756766343263,1.1817716258075668,1,118,0.0,0.0,0.0,0.0,0.0,0.0,0.0,0.0,0.0,0.0,0.0,0.0
1.3999371636298734,0.7132631517537116,1.159895899339862,-0.7925832025249686,-0.3088210111308495,0.008364574517323935,-1.3198689219336346,-0.5416952286715307,-1.6964673282932383,0.8424948625776117,0.4390481715979847,1.1814690366570482,1,119,0.0,0.0,0.0,0.0,0.0,0.0,-0.0008202791,3.4928322e-05,-0.004136443,-0.0068591833,0.0016057193,0.0071733
1.399948902909355,0.7132484393328978,1.1598955535491786,-0.7925904865826529,-0.30880916542060177,0.008369022377112248,-1.3211637015661757,-0.5418642310766412,-1.6995893778165092,0.8353987049912647,0.44020264760520633,1.189139627416138,1,120,0.0,0.0,0.0,0.0,0.0,0.0,0.0,0.0,0.0,0.0,0.0,0.0
1.3999336134010048,0.7132511657541684,1.1599090467524973,-0.7925903587370824,-0.30880253470882274,0.00836924691605691,-1.3207472067181152,-0.5420080958222641,-1.699932496054745,0.8358153461328242,0.44030222828355603,1.1891487715701368,1,121,0.0,0.0,0.0,0.0,0.0,0.0,0.0021816492,0.0027401447,-0.0019897223,0.0046251416,0.00047123432,-0.0025656223
1.3999446632547239,0.7132440445127628,1.1598953229757545,-0.7925878408386345,-0.30882137735747045,0.008360180653681347,-1.3183475444440185,-0.5386680578315011,-1.702361897290571,0.840720695867915,0.44094834697481355,1.1853410386511671,1,122,0.0,0.0,0.0,0.0,0.0,0.0,0.0,0.0,0.0,0.0,0.0,0.0
1.3999350913292112,0.7132468515367052,1.1599047630905879,-0.7925746981879521,-0.3088082332058592,0.008360372985118368,-1.319142729030916,-0.5391557984415032,-1.7037278523861006,0.8369236961061803,0.44161522239213996,1.1899028276709822,1,123,0.0,0.0,0.0,0.0,0.0,0.0,0.0,0.0,0.0,0.0,0.0,0.0
1.399944056552744,0.7132482896017349,1.159913107508771,-0.7925891771089967,-0.30881340968173243,0.008354220042274632,-1.3185424691781544,-0.5391135031449585,-1.7024364779437644,0.8389001476881665,0.4412467884698602,1.1876572810246568,1,124,0.0,0.0,0.0,0.0,0.0,0.0,0.0,0.0,0.0,0.0,0.0,0.0
1.3999508387830497,0.7132481490924275,1.159917615243498,-0.7925734599496808,-0.3088179881148661,0.008362287946493664,-1.3192266377904824,-0.5380546987852682,-1.7041761917159348,0.8373120975583209,0.44116453541656303,1.1896996330878757,1,125,0.0,0.0,0.0,0.0,0.0,0.0,0.0027052164,0.0031591058,-0.0022687912,0.005078912,0.0006457567,-0.0045553446
1.399931767478624,0.7132272422919489,1.1598904300971102,-0.7925865825587689,-0.3087909950948196,0.008346285495111088,-1.3156022139645707,-0.5348657573701596,-1.7057941097343858,0.844048797707372,0.4415767505659535,1.1827419038518445,1,126,0.0,0.0,0.0,0.0,0.0,0.0,-0.0010994673,-1.7523766e-05,-0.0026704073,-0.0072081685,0.0006457865,0.005899191
1.3999421127299534,0.713242738477259,1.159894444979034,-0.7925858333967404,-0.30879996813926347,0.008381049668045083,-1.3166657762323832,-0.5362992677632794,-1.7050062420673464,0.8399269795619775,0.44147786049479076,1.1856199492557462,1,127,0.0,0.0,0.0,0.0,0.0,0.0,0.0,0.0,0.0,0.0,0.0,0.0
1.3999670874725187,0.7132610253012172,1.159903119512051,-0.7926026032207991,-0.3088228930307726,0.008386364350558558,-1.3173523583684879,-0.5359636394092208,-1.7088738419581757,0.8351367285483169,0.4428215054226815,1.191020751493266,1,128,0.0,0.0,0.0,0.0,0.0,0.0,-0.0059167147,-0.0016580224,-0.0061610937,-0.023247778,0.003961891,0.022410154
1.3999515080443934,0.7132711326003327,1.1599096634198052,-0.7925835950262334,-0.30880277511099974,0.008348739672140518,-1.3234198955283811,-0.5379582474758007,-1.7136152080682365,0.8134919844694528,0.4462003689601842,1.2111776762658861,1,129,0.0,0.0,0.0,0.0,0.0,0.0,-0.0064578056,-0.0036477447,-0.0060038567,-0.022986054,0.0040666163,0.021903753
1.3999417949861286,0.7132441541905693,1.159891745470069,-0.7925881311797883,-0.30880977235984025,0.008348737270654478,-1.330684642385661,-0.5432617148456027,-1.719015946961829,0.7855044723598319,0.4503773205592325,1.238078675811366,1,130,0.0,0.0,0.0,0.0,0.0,0.0,0.0,0.0,0.0,0.0,0.0,0.0
1.3999472675794007,0.7132575069694157,1.1599394644445253,-0.7926031117112293,-0.30881758874475457,0.008362545315691569,-1.3291996581140477,-0.5405240645748394,-1.72054452678391,0.7916766401044469,0.4509864545088987,1.2325964835081,1,131,0.0,0.0,0.0,0.0,0.0,0.0,-0.011379361,-0.0066322684,-0.009128094,-0.039357126,0.0068591535,0.033300996
1.3999564159211384,0.7132731284627012,1.1598915238024665,-0.7926082087478835,-0.30879806847803914,0.00836370024029661,-1.3468199122520133,-0.5542955165780613,-1.7316948960560419,0.7290687671571023,0.46287331194344045,1.2893767965728344,1,132,0.0,0.0,0.0,0.0,0.0,0.0,0.0,0.0,0.0,0.0,0.0,0.0
1.3999418912450725,0.7132560662036465,1.159915600833006,-0.7925856949020337,-0.3088181839553068,0.00833308222182218,-1.3436681387662293,-0.5496330058779744,-1.7313316626498612,0.7400563042699788,0.4595690991429298,1.2776558036369836,1,133,0.0,0.0,0.0,0.0,0.0,0.0,0.0,0.0,0.0,0.0,0.0,0.0
1.3999291026047558,0.713277461504235,1.159900937202632,-0.7926150991445791,-0.3088099468880246,0.008356773648843468,-1.3427954756860747,-0.5462197251390982,-1.734926576213882,0.74215292836122,0.4606823177661488,1.27545922433308,1,134,0.0,0.0,0.0,0.0,0.0,0.0,-0.012549043,-0.007574737,-0.010140419,-0.042725682,0.0087091625,0.040927887
1.3999444123318285,0.7132444021551898,1.1599005335534753,-0.7925749296181176,-0.3088343706275175,0.008350933189115787,-1.3537552721535193,-0.5562033895345405,-1.7392191167368622,0.705467645933313,0.46644339390454276,1.309571206453134,1,135,0.0,0.0,0.0,0.0,0.0,0.0,0.0,0.0,0.0,0.0,0.0,0.0
1.39994550488119,0.7132591322366214,1.1599222718479854,-0.7925713480440761,-0.3088129891606445,0.008362689568930605,-1.3549356989676444,-0.5570921752685426,-1.7394734191725456,0.7015664540015855,0.4673258786529122,1.3145289074554245,1,136,0.0,0.0,0.0,0.0,0.0,0.0,-0.010314941,-0.0061609745,-0.00841248,-0.037053347,0.0065799057,0.032724857
1.3999380862731652,0.7132451552112429,1.1599258357875122,-0.7925828030355285,-0.3088218144689488,0.008349925901831427,-1.3644315962419442,-0.5619053409517795,-1.7469690887979346,0.6704994819588271,0.4724664466938527,1.3407598003683667,1,137,0.0,0.0,0.0,0.0,0.0,0.0,0.0,0.0,0.0,0.0,0.0,0.0
1.3999590788037122,0.7132372603445343,1.1599151448266056,-0.7925935323605474,-0.3088224770217935,0.008369592580885927,-1.3643245106976085,-0.5625667279765404,-1.7451589468335136,0.671860954506102,0.4720857820237547,1.3396420377319884,1,138,0.0,0.0,0.0,0.0,0.0,0.0,-0.0012216568,-0.00071561337,-0.000977397,-0.004502952,0.00059342384,0.0049045086
1.3999379353599044,0.7132631305922473,1.1598909790902434,-0.7926103673594084,-0.30881342918448396,0.008348000469380359,-1.3655294959528281,-0.5630003465639497,-1.7471115765586906,0.6671740291168078,0.47287037557965383,1.3447174584641741,1,139,0.0,0.0,0.0,0.0,0.0,0.0,0.0,0.0,-1.7404556e-05,-1.7464161e-05,-1.7464161e-05,5.2332878e-05
1.3999312776127624,0.7132255496843151,1.1599091325552815,-0.7925909379688028,-0.3088023100729237,0.008351485245635101,-1.3644823783241853,-0.5611781456772915,-1.7497040600777067,0.668088136804803,0.4731460473651008,1.3443786819545058,1,140,0.0,0.0,0.0,0.0,0.0,0.0,0.0006457567,0.00010472536,0.00041890144,0.0031590462,-1.7464161e-05,-0.0024434328
1.3999325222220567,0.7132583757871641,1.1598965341208631,-0.792584410636523,-0.3088343399451772,0.008371524345205465,-1.364280157534038,-0.5611862423323485,-1.7489003913499717,0.6714314604581093,0.47314708846151665,1.3417316638920416,1,141,0.0,0.0,0.0,0.0,0.0,0.0,0.00064587593,0.0001745224,0.0007504225,0.0020071864,-0.00019195676,-0.0018501282
1.39993350030742,0.7132573487379616,1.1599297659312857,-0.7925782460367765,-0.30881846119269973,0.008367709838205317,-1.3631590551913375,-0.5610355749222188,-1.7479111319823166,0.6744778028162217,0.4727580898570623,1.3392878489379743,1,142,0.0,0.0,0.0,0.0,0.0,0.0,0.0,0.0,0.0,0.0,0.0,0.0
1.3999481316296027,0.7132642963936916,1.159913536442518,-0.7925758452667083,-0.3088134815892723,0.008364243472100534,-1.3633110621007505,-0.5612734069063079,-1.7467970525595815,0.6752304204100735,0.47279722245018596,1.3379277651456074,1,143,0.0,0.0,0.0,0.0,0.0,0.0,0.00036644936,0.000174582,0.004188776,0.003944397,-0.002321273,-0.004049182
1.399943978464594,0.7132443669458247,1.1599051245962753,-0.7925934017032992,-0.30882232029499734,0.008358285057084002,-1.363272079696382,-0.5616657273543358,-1.7431207656194878,0.6771514251523212,0.4705311678401903,1.3355110174986078,1,144,0.0,0.0,0.0,0.0,0.0,0.0,-0.0008727312,-0.0010821223,0.003124237,-0.0006980896,-0.0018326342,0.000104784966
1.399961068480576,0.7132586047375342,1.1599049276445879,-0.7925992343162458,-0.3088092619349832,0.008354680739776531,-1.3638428939094382,-0.5624570059957489,-1.7399198424999944,0.6762358856842494,0.4683168036657002,1.335883475283915,1,145,0.0,0.0,0.0,0.0,0.0,0.0,-0.004241109,-0.0051487684,0.0055326223,-0.00705117,-0.0021991134,0.0038223267
1.3999502866053375,0.7132532179433173,1.1598948289557693,-0.7925941382286261,-0.3088290044845889,0.008369666089105719,-1.3680685733050548,-0.5676225519086844,-1.7343822870012064,0.6708101718448781,0.466228445896213,1.3383251630681483,1,146,0.0,0.0,0.0,0.0,0.0,0.0,0.0,0.0,0.0,0.0,0.0,0.0
1.3999505780502797,0.7132612992272443,1.1599092001306375,-0.792603436588661,-0.3088074707843835,0.008343932672725358,-1.3710402202682388,-0.5733757072384829,-1.7282711587666113,0.6624607063696907,0.46608589854277876,1.346244228336075,1,147,0.0,0.0,0.0,0.0,0.0,0.0,-0.0086045265,-0.00989598,0.0070860386,-0.018692434,-0.0018675029,0.013910174
1.399936696424307,0.713263129592172,1.1599111201215226,-0.7925936462148513,-0.30881391365073124,0.008370869981278966,-1.3775146094581454,-0.5790193687773052,-1.7269573122760333,0.6490089564378149,0.46475456192385484,1.3552294202578485,1,148,0.0,0.0,0.0,0.0,0.0,0.0,-0.007208109,-0.007574737,0.003944516,-0.01776743,-0.0001745224,0.014381528
1.3999554341608302,0.7132209690883524,1.159880520655833,-0.7925803551903676,-0.30882973033747324,0.008356333618478217,-1.385938894687578,-0.588052213333223,-1.7223795800260768,0.6266836753359655,0.4656008938317826,1.3750911448270775,1,149,0.0,0.0,0.0,0.0,0.0,0.0,0.0,0.0,0.0,0.0,0.0,0.0
1.399950325252855,0.7132526704082294,1.1598890545080078,-0.7925682304900895,-0.3087991193966704,0.008383750549287835,-1.3841281660264766,-0.5864843029196348,-1.7208169306845433,0.6324463038148007,0.46374208027989844,1.368717435134781,1,150,0.0,0.0,0.0,0.0,0.0,0.0,-0.005951643,-0.005515218,0.0021291971,-0.014974952,1.7464161e-05,0.013159871
1.3999445630064324,0.7132614173997484,1.1598946831139696,-0.7925771827303555,-0.30880759973187805,0.008353100263641515,-1.389700512517727,-0.5909974909696594,-1.7205741301263773,0.6183650592545377,0.46390777277774325,1.3805720863241635,1,151,0.0,0.0,0.0,0.0,0.0,0.0,-0.0063530207,-0.0060388446,0.0018850565,-0.016196668,-1.7464161e-05,0.013054967
1.3999458202514963,0.7132837399508274,1.1598885502108556,-0.7925920173845712,-0.30881688189493367,0.008354383100939283,-1.3971515645678483,-0.5969251354659251,-1.720313754440202,0.5995437449229739,0.4653352085606853,1.397203027062864,1,152,0.0,0.0,0.0,0.0,0.0,0.0,0.0,0.0,0.0,0.0,0.0,0.0
1.399927226734651,0.7132673422088763,1.1599054692412185,-0.7925864454708333,-0.30881542886536445,0.008355267683101186,-1.3965137411514776,-0.5983031381351919,-1.716465059125256,0.601528616277663,0.4638166941687478,1.3939136213788896,1,153,0.0,0.0,0.0,0.0,0.0,0.0,-0.0024085045,-0.0024784207,0.0012216568,-0.005759597,0.0,0.0049393177
1.3999568674722973,0.7132331607729374,1.1599094608634075,-0.7925962743952062,-0.3088006398468415,0.008358795606863053,-1.3987047727503676,-0.600345439112518,-1.7169784096741336,0.5952135955872285,0.46460082500439154,1.4003302184532767,1,154,0.0,0.0,0.0,0.0,0.0,0.0,-0.0010646582,-0.0014835,0.0026704073,-0.0013962984,-0.00012218952,0.0010123253
1.3999422859427275,0.7132384984000838,1.1599125650264992,-0.792603549764284,-0.3088119794215324,0.008368841661558787,-1.3993222430078407,-0.6006187810899474,-1.7159302145737585,0.5943897403823779,0.46436499001848786,1.3996306965362184,1,155,0.0,0.0,0.0,0.0,0.0,0.0,3.4928322e-05,-0.00013959408,0.0014311075,0.00062841177,-0.0007330179,-0.0010646582
1.3999484157582165,0.7132501578599867,1.1599262852830512,-0.7925976102926667,-0.3088184479994426,0.008357552372643092,-1.3984101136873308,-0.6004827485519408,-1.7143537237724251,0.5967069895795272,0.4645574222667584,1.3992660881761725,1,156,0.0,0.0,0.0,0.0,0.0,0.0,0.0,0.0,0.0,0.0,0.0,0.0
1.3999424507018232,0.7132530553023024,1.1599090481322332,-0.7925782362704846,-0.3088175098555653,0.008353873687577734,-1.3992824791832885,-0.6007002630767085,-1.7140098951714127,0.5958981185959534,0.4639739748208089,1.3988373815120743,1,157,0.0,0.0,0.0,0.0,0.0,0.0,1.7404556e-05,-0.0009250641,0.005515337,0.005829394,-0.0035779476,-0.005602479
1.3999675802134515,0.7132445707439846,1.159881205034606,-0.7926020942213583,-0.30880145938751347,0.008344082191334406,-1.399047890971176,-0.6011017279226203,-1.7085000443311458,0.603201492587744,0.4599435167045893,1.3914310700081833,1,158,0.0,0.0,0.0,0.0,0.0,0.0,1.7523766e-05,-0.00089007616,0.0028275251,0.0023910403,-0.0013962388,-0.0024260283
1.3999337515050971,0.7132625985635715,1.1599172434457277,-0.7925919370429303,-0.30882384847914673,0.008367204086737075,-1.4000970840355647,-0.6034660499181709,-1.706683948028924,0.5988530880910508,0.4601398639022625,1.3963687649512804,1,159,0.0,0.0,0.0,0.0,0.0,0.0,-1.7523766e-05,-0.0026005507,0.006230712,0.0043109655,-0.0029496253,-0.0043109655
1.399953263868164,0.7132635503071687,1.1599183547483085,-0.7925834002672072,-0.3088077049199498,0.008341815069184938,-1.3986270650492236,-0.6036504586339531,-1.7014191415437296,0.6082621359348752,0.45581462900286984,1.3864253515308511,1,160,0.0,0.0,0.0,0.0,0.0,0.0,0.0,0.0,0.0,0.0,0.0,0.0
1.3999701900694237,0.7132445888595423,1.1598938845415523,-0.7925914934026449,-0.3088242124832744,0.008346004058846572,-1.3987348488214149,-0.605061241914908,-1.6994812198205809,0.6086908395251833,0.4554049393744668,1.385615860621765,1,161,0.0,0.0,0.0,0.0,0.0,0.0,-0.00031411648,-0.0073827505,0.0155159235,0.008482337,-0.006911516,-0.009808779
1.39995549871009,0.7132148314941368,1.159917559215971,-0.7925912318115022,-0.3088009856906632,0.00834928320226569,-1.39977127185947,-0.6122314454922794,-1.6844798380306027,0.6164725580853619,0.4487767750250501,1.377001610925137,1,162,0.0,0.0,0.0,0.0,0.0,0.0,0.0,0.0,0.0,0.0,0.0,0.0
1.3999422390615435,0.7132530986987213,1.1599290133450886,-0.792575597853982,-0.30881029168026397,0.008340954755456487,-1.3997280780286252,-0.612148765421361,-1.6843680693281757,0.617520223488859,0.448497039948225,1.3763131978171987,1,163,0.0,0.0,0.0,0.0,0.0,0.0,-0.0032289028,-0.010559261,0.022113442,0.0090408325,-0.010908306,-0.012863159
1.399953683332076,0.7132618152484215,1.1598935825024765,-0.7925876188428785,-0.30879644263097145,0.00835938216330234,-1.4021962256105174,-0.6224755400764667,-1.663478101856327,0.6262550408978477,0.43877857765876166,1.3646112677177975,1,164,0.0,0.0,0.0,0.0,0.0,0.0,0.0,0.0,0.0,0.0,0.0,0.0
1.3999478627069823,0.7132382639792478,1.15991348882765,-0.792576880717383,-0.3088165410479928,0.008364791100413839,-1.4022284938501426,-0.6228100758271293,-1.6617736142676063,0.6278684689341498,0.43778623850932785,1.3621919154940105,1,165,0.0,0.0,0.0,0.0,0.0,0.0,-0.0033160448,-0.007522404,0.015062213,0.0038222075,-0.007696897,-0.006911397
1.3999347162685523,0.7132410121816984,1.159911176370926,-0.7925764511208033,-0.3088240939975331,0.008357720305131117,-1.405247203227996,-0.6290295818632212,-1.650228726900771,0.6282083806642005,0.43150936975746534,1.3588451789750349,1,166,0.0,0.0,0.0,0.0,0.0,0.0,0.0,0.0,0.0,0.0,0.0,0.0
1.399957537019843,0.7132339284691057,1.1599031844379415,-0.7926017029543977,-0.30880448546874767,0.00836855036950607,-1.4060914666630813,-0.6299583185929899,-1.64877665054631,0.6280008577678743,0.43138618262857376,1.3586594083806434,1,167,0.0,0.0,0.0,0.0,0.0,0.0,0.0,0.0,0.0,0.0,0.0,0.0
1.3999322821834588,0.7132397003289304,1.159901855278812,-0.7925822948527421,-0.3088328479511241,0.008369954750337938,-1.4064317342241661,-0.6300305179815624,-1.6481879885338515,0.6291958501747861,0.4304789200266705,1.357139115914151,1,168,0.0,0.0,0.0,0.0,0.0,0.0,0.0,0.0,0.0,0.0,0.0,0.0
1.3999483949801417,0.7132520813169918,1.1599074215281753,-0.7925798554426144,-0.30880076546991864,0.00834011569711689,-1.4056553215962182,-0.6298955438150277,-1.6471227047112709,0.6299238170548808,0.43042366460481984,1.3565535955016652,1,169,0.0,0.0,0.0,0.0,0.0,0.0,-0.0038746595,-0.008831263,0.016440988,0.0034732223,-0.00898844,-0.006108761
1.3999470771460325,0.7132379384827996,1.1599158321214689,-0.7925768828056317,-0.3088138283681447,0.00836725858257089,-1.4089505769764008,-0.6381136064605832,-1.631974028932446,0.6349568183777586,0.4211527285263541,1.349568188585587,1,170,0.0,0.0,0.0,0.0,0.0,0.0,0.0,0.0,0.0,0.0,0.0,0.0
1.3999445419337655,0.7132402280293844,1.1599257168020827,-0.7925929924606189,-0.308799120382995,0.008359630672359208,-1.4100978758095446,-0.6410075461456026,-1.6278418858525017,0.6338383467804846,0.4206858888438043,1.3509257310212581,1,171,0.0,0.0,0.0,0.0,0.0,0.0,-0.00076806545,-0.00012218952,-0.00024449825,-0.00054109097,-0.00038394332,0.00055861473
1.3999445034838855,0.7132416341759051,1.159917340388946,-0.7925916149380218,-0.3088185936757672,0.00836712648965169,-1.4102303967109915,-0.6379661016570438,-1.6317126230150165,0.6337669721559812,0.42099330009061314,1.3502536918399377,1,172,0.0,0.0,0.0,0.0,0.0,0.0,-0.0004361868,0.0009948015,-0.003647685,-0.002600491,5.236268e-05,0.0026528835
1.399950496768927,0.7132717000371768,1.1598940794833001,-0.7925888403192248,-0.30879351932140686,0.008364354096144737,-1.4107495008486874,-0.6378094538549446,-1.6357513990969983,0.6294288686100328,0.42162434074171057,1.3546829354738665,1,173,0.0,0.0,0.0,0.0,0.0,0.0,0.0,0.0,0.0,0.0,0.0,0.0
1.3999361681122946,0.7132566221914804,1.159896305019468,-0.7925735362751718,-0.30878924598887064,0.008363282784459481,-1.4103764098151257,-0.6384730110276451,-1.6339717525230855,0.6325689202494696,0.4208224428950459,1.3522700290938812,1,174,0.0,0.0,0.0,0.0,0.0,0.0,-0.0008378029,0.00040143728,-0.0013612509,-0.0031765103,0.00015705824,0.003019333
1.3999362826601953,0.7132468149587913,1.1599302016816733,-0.7925905432711478,-0.3087968596057656,0.00836902783639107,-1.411197394881872,-0.6372027278768216,-1.6362232593686927,0.62768898076553,0.42130119698174023,1.3567986190110257,1,175,0.0,0.0,0.0,0.0,0.0,0.0,-0.0006982088,-0.00036650896,0.0007504225,-0.0016057491,0.0,0.0009599924
1.3999531830585317,0.7132440291044704,1.1599168173795935,-0.7925729461360809,-0.30880909745742813,0.008343376124606767,-1.4128210162074852,-0.6384527917028175,-1.6340971975646204,0.6254710513477579,0.42068842315871124,1.3582993598209439,1,176,0.0,0.0,0.0,0.0,0.0,0.0,0.0,0.0,0.0,0.0,0.0,0.0
1.3999559706841351,0.7132425951077966,1.1599012089397271,-0.7925824399039906,-0.30880761404011087,0.008354135080383459,-1.4123476792351979,-0.6380801534305103,-1.63577507816222,0.6256266616353996,0.42158191979822246,1.357515654437112,1,177,0.0,0.0,0.0,0.0,0.0,0.0,-0.0020245314,-0.0052708983,0.007993579,-0.0017976761,-0.00050613284,0.00080275536
1.399937847504297,0.7132683988515466,1.1599211905677094,-0.792574660496927,-0.30880916832177585,0.00834980001026515,-1.4138633692382307,-0.6425022971253916,-1.628645594211931,0.62447455591423,0.42115672101054613,1.3590699920496812,1,178,0.0,0.0,0.0,0.0,0.0,0.0,-0.0011868477,-0.003682673,0.004886985,-0.0012391806,-0.0009948611,0.00047123432
1.399960352784598,0.7132667677465668,1.1599133117171225,-0.7925703081260409,-0.30882582257525126,0.008375354111337403,-1.4157670768083528,-0.6454721968016304,-1.626059407378621,0.6203943421745155,0.4214304331029457,1.362887019686489,1,179,0.0,0.0,0.0,0.0,0.0,0.0,-0.0031590462,-0.010053098,0.012670994,-0.003804803,-0.0030543208,0.0013962984
1.3999447524031343,0.713255372452925,1.1599285094916894,-0.7925800100326847,-0.30881814699237203,0.008359673541122416,-1.418146314535539,-0.6556744668872905,-1.6139826619914293,0.617110920644584,0.41802830845975564,1.3632027337290975,1,180,0.0,0.0,0.0,0.0,0.0,0.0,0.0,0.0,0.0,0.0,0.0,0.0
1.3999456786384004,0.7132459486227027,1.1599274608925056,-0.7925880676261756,-0.3088250727746288,0.008357304642950484,-1.4185315121573432,-0.6570881760474773,-1.6100803677594384,0.6200930103670645,0.4163987155374457,1.359706411728988,1,181,0.0,0.0,0.0,0.0,0.0,0.0,-0.0067543983,-0.021415174,0.02569127,-0.007941246,-0.007190764,0.004188776
1.3999355599993484,0.7132636933074585,1.1599061003603262,-0.7925980750715762,-0.3087987729972253,0.00835208450216923,-1.4268637169501721,-0.6821732049014102,-1.5781014610171953,0.6091525704356189,0.40778928276968984,1.3652555005036988,1,182,0.0,0.0,0.0,0.0,0.0,0.0,0.0,0.0,0.0,0.0,0.0,0.0
1.3999397377339087,0.7132757118501207,1.1599288214313013,-0.7925687141900241,-0.3088134487618158,0.008355485222683588,-1.4273440461848979,-0.6831037655649491,-1.575491210679372,0.6115607194043193,0.4064022221142548,1.3630629095387718,1,183,0.0,0.0,0.0,0.0,0.0,0.0,-0.0060737133,-0.02057743,0.025132775,-0.007278025,-0.0061610043,0.0045030117
1.3999334503535272,0.7132392693143925,1.159905382571438,-0.792588462413327,-0.3088242077567472,0.008378317190853248,-1.4315742741819504,-0.7007039971234734,-1.5560502505097955,0.6050986808767174,0.4016272349463755,1.3674307678096613,1,184,0.0,0.0,0.0,0.0,0.0,0.0,-0.0028275251,-0.009965777,0.010908365,-0.003892064,-0.0025132895,0.0021642447
1.3999410853115783,0.7132443086314789,1.1599198160749373,-0.7925762539798684,-0.30880867687854047,0.008349551206616053,-1.434608511038015,-0.7092115406490664,-1.548411309606209,0.5993744458575486,0.4004321973303821,1.37176814876543,1,185,0.0,0.0,0.0,0.0,0.0,0.0,-0.003839612,-0.011431992,0.012845516,-0.006370425,-0.0029495656,0.0050963163
1.3999468242889435,0.7132454710402182,1.1599003361748157,-0.7925804831962857,-0.308803760429721,0.008363146768615881,-1.4381333397165545,-0.7198814039532883,-1.5368825089621823,0.591256416991424,0.3987139850824619,1.3786659177797962,1,186,0.0,0.0,0.0,0.0,0.0,0.0,-0.0018849373,-0.005078912,0.004886985,-0.004363358,-0.0007854104,0.0028624535
1.3999499399784223,0.7132550220354656,1.159909562900461,-0.7926146713892008,-0.3088221670436437,0.008347057630672419,-1.4407044336105264,-0.7260621832001863,-1.5298677487943946,0.5868118955552285,0.39712086928494583,1.3814462372297152,1,187,0.0,0.0,0.0,0.0,0.0,0.0,-0.0014835596,-0.0031590462,0.0027576685,-0.0035430193,-0.00059342384,0.0031415224
1.3999481115227508,0.7132704817043907,1.159883476568181,-0.7925915751195933,-0.30882179063681015,0.008357452770636717,-1.4402817160504484,-0.7276169761503924,-1.5274412000766793,0.5869783180157433,0.39598519755252143,1.3807920705856598,1,188,0.0,0.0,0.0,0.0,0.0,0.0,-0.0034383535,-0.005968988,0.0053231716,-0.008395016,-0.0013438761,0.0060563087
1.399949840307429,0.7132383870516783,1.1598883133587015,-0.7925854776011083,-0.30881701903321096,0.008361287749932448,-1.4447687682039108,-0.7349933478057142,-1.521322945749734,0.5777916060078201,0.3943761190256105,1.3873115782409289,1,189,0.0,0.0,0.0,0.0,0.0,0.0,-0.0009075403,-0.0010821223,0.0017453432,-0.0010297298,-0.0009599626,0.00071561337
1.3999557156120108,0.7132561609495423,1.1598912447229397,-0.7925892210218842,-0.30882619015177587,0.00835548853125267,-1.4466272921327648,-0.7367293994742072,-1.5184291107108123,0.5754722092068282,0.3928177678101441,1.3885198896031874,1,190,0.0,0.0,0.0,0.0,0.0,0.0,-0.00071561337,-0.00076794624,0.0031939745,0.0008377433,-0.0020420253,-0.00076794624
1.399960136057941,0.7132470325375284,1.159909837251596,-0.7925663730972569,-0.30880002805335693,0.008352211959922055,-1.4467308009032949,-0.734719380122073,-1.520711474804901,0.5733290689608866,0.39355824240018855,1.3920266682216624,1,191,0.0,0.0,0.0,0.0,0.0,0.0,0.0,-0.00024431944,0.0020594597,0.0020071268,-0.0015358925,-0.002007246
1.399941701551914,0.7132483654480475,1.1598982575115204,-0.7925795334868666,-0.30882817237713434,0.00834850009966951,-1.4466220425750658,-0.7367053108094487,-1.5160768997719969,0.5791877078546582,0.39072231751819214,1.3861867690513536,1,192,0.0,0.0,0.0,0.0,0.0,0.0,1.7523766e-05,-0.00076800585,0.0047996044,0.0069114566,-0.002984494,-0.006981373
1.3999436839357555,0.7132431007902781,1.1599159380031374,-0.7925810655286826,-0.30883281373367705,0.008342697831587234,-1.4469907465719816,-0.7381912741023664,-1.5094690941966937,0.5852727676340911,0.38687893272933116,1.3798966996255158,1,193,0.0,0.0,0.0,0.0,0.0,0.0,0.00019192696,-0.0003489852,0.0025657415,0.0039619207,-0.0016057193,-0.0042409897
1.3999554773018115,0.7132503982724185,1.159905986905027,-0.7925858483957734,-0.3087931341886769,0.008363015514725188,-1.4473247079311478,-0.7387216217410895,-1.5070737101450855,0.5886504406170772,0.3857599339593646,1.37666864821286,1,194,0.0,0.0,0.0,0.0,0.0,0.0,0.0003490448,-0.00029677153,0.0022165775,0.003368497,-0.0012740791,-0.003560543
1.3999441990321368,0.7132558125252417,1.1599209410592761,-0.7925816853488732,-0.308800902869227,0.008337736879763493,-1.4462740873532698,-0.739015520245765,-1.5044501141641273,0.593366254023521,0.38469833687269983,1.3715400689349326,1,195,0.0,0.0,0.0,0.0,0.0,0.0,0.0002617836,-0.00012212992,0.0009948015,0.0014835596,-0.0005236268,-0.001658082
1.3999442263359891,0.7132347109806529,1.1598987990522158,-0.7925884010337304,-0.3088202467889308,0.008365940584385136,-1.4455978671381835,-0.7378903991233784,-1.5048236413428595,0.5945425116905438,0.38397800740190835,1.3695919053750218,1,196,0.0,0.0,0.0,0.0,0.0,0.0,0.00038409233,-1.7464161e-05,0.00022685528,0.0012217164,-0.0004886985,-0.0013438463
1.399959074649589,0.7132439152688115,1.1599023810700102,-0.7925852822715428,-0.3088084410667817,0.008363488339918033,-1.4454687258386771,-0.7379177199385215,-1.5046360004900932,0.5968015449809609,0.3836182200992897,1.3673912759375126,1,197,0.0,0.0,0.0,0.0,0.0,0.0,3.4809113e-05,5.2332878e-05,-0.0004014969,0.0,5.236268e-05,0.0
1.3999431116628445,0.7132546921686111,1.159886499252282,-0.7925827752096143,-0.3088246605244974,0.008355822161616126,-1.4452378696500767,-0.7380111035548809,-1.504970874023634,0.5966897027437688,0.38336575311148313,1.36772352499972,1,198,0.0,0.0,0.0,0.0,0.0,0.0,0.00012218952,1.7464161e-05,-0.0009772778,-8.7320805e-05,-5.236268e-05,0.00020945072
1.3999338613805414,0.7132460754427938,1.159921066331826,-0.792582882560515,-0.30881780762491806,0.008340278065913656,-1.4447624060869468,-0.7379318941176635,-1.5058196784638525,0.5971370612907264,0.3833415071191557,1.3676253659213273,1,199,0.0,0.0,0.0,0.0,0.0,0.0,0.000104784966,0.00013965368,-0.0019897223,-0.0005235672,0.00012218952,0.0009599924
1.3999356785363637,0.7132501880435712,1.1599347471838704,-0.792573648264968,-0.30880538949026787,0.008373756436982491,-1.4453721602164766,-0.7387599755163199,-1.5063613564091252,0.5952363608105463,0.3830594629500248,1.3688729407333176,1,200,0.0,0.0,0.0,0.0,0.0,0.0,0.0,0.0,0.0,0.0,0.0,0.0
1.3999463905596823,0.713261411097712,1.1598913611800967,-0.792585683010203,-0.3088040467575217,0.008360531244539955,-1.4448412046313281,-0.7383280920937132,-1.5057203228079796,0.5978385382165852,0.38257566472663607,1.3674260251038026,1,201,0.0,0.0,0.0,0.0,0.0,0.0,0.00019192696,0.0005759001,-0.0023561716,-0.0016406178,0.0012217164,0.002233982
1.399948692190142,0.7132555665258123,1.1599082011982125,-0.7925954831577625,-0.30881291607566796,0.008354928102161104,-1.4452358432149524,-0.737576404430152,-1.5100258919348502,0.5942901476419524,0.3849428798473492,1.3711263159024707,1,202,0.0,0.0,0.0,0.0,0.0,0.0,5.2332878e-05,0.00024437904,-0.0009250641,-0.0009075403,0.00062835217,0.00094246864
1.3999572853112907,0.7132478765386782,1.1599279951075498,-0.7925852582305792,-0.3088121174389251,0.008341003333342561,-1.4451024212586416,-0.7361140161328484,-1.5123531994465513,0.5928510359896938,0.38578716232779203,1.372590083971981,1,203,0.0,0.0,0.0,0.0,0.0,0.0,0.0,0.0,0.0,0.0,0.0,0.0
1.399949871483864,0.7132437311486668,1.1598807319493143,-0.7925935665407042,-0.308806588212161,0.008382163152099886,-1.444776545307309,-0.7376087527943455,-1.5098662472593622,0.593023960176133,0.3851262247724435,1.3722088654173041,1,204,0.0,0.0,0.0,0.0,0.0,0.0,1.7523766e-05,5.2392483e-05,-0.00029671192,-0.0012217164,0.00022688508,0.001064539
1.399943931587139,0.7132515666084281,1.1599032928665278,-0.7925890723385747,-0.3088107502373109,0.008360852118873337,-1.445012280053937,-0.7371706134983437,-1.5109393369714026,0.5917819763578034,0.38520116220733097,1.3734742913050455,1,205,0.0,0.0,0.0,0.0,0.0,0.0,-0.0006982088,-0.0018500686,0.0050441027,-0.00012218952,-0.000610888,-0.00020945072
1.3999428661029727,0.7132484054380107,1.159905867789082,-0.7925879031430271,-0.30881926733874776,0.008363715838768819,-1.445049327179129,-0.7391587313941658,-1.505672029861312,0.5922611021470556,0.3853320730070022,1.3730368916136744,1,206,0.0,0.0,0.0,0.0,0.0,0.0,0.0,0.0,0.0,0.0,0.0,0.0
1.3999358140926061,0.7132579724829412,1.1599136506398915,-0.7925833961951222,-0.3088012223563666,0.008366426303581634,-1.4451716803386443,-0.7387249734233131,-1.50670103125422,0.5929910402787453,0.38520011221909223,1.372603487094771,1,207,0.0,0.0,0.0,0.0,0.0,0.0,-0.0032287836,-0.01034981,0.020804286,0.005968988,-0.0087091625,-0.009878397
1.399943162321055,0.7132689090218982,1.159897620012067,-0.7925885356437351,-0.30879641684109965,0.008344206337721387,-1.4487752826073461,-0.7497427291186508,-1.4852864434606166,0.597886897605711,0.3760610852867672,1.362972512800672,1,208,0.0,0.0,0.0,0.0,0.0,0.0,0.0,0.0,0.0,0.0,0.0,0.0
1.399944436618907,0.7132490132843322,1.1599154231603293,-0.7925838242180573,-0.30879902035774537,0.008348582035464534,-1.4488641916831866,-0.7497883317853529,-1.4839495258382733,0.5975396530228495,0.37589341296488404,1.3633869581966127,1,209,0.0,0.0,0.0,0.0,0.0,0.0,-0.0033335686,-0.016440988,0.03141594,0.019757152,-0.013002723,-0.021450162
1.399935796012474,0.7132904809743456,1.1599081844903583,-0.7925767753652345,-0.30882352646373457,0.008359035976411144,-1.4522407452068014,-0.766543364206546,-1.4513556170132984,0.620517990947347,0.3618581616770873,1.3385790505439423,1,210,0.0,0.0,0.0,0.0,0.0,0.0,0.0,0.0,0.0,0.0,0.0,0.0
1.3999371093904094,0.7132507918979815,1.1599090424044651,-0.7925865589596938,-0.30879717030734444,0.008358623771027961,-1.4523537051404736,-0.7665138929170885,-1.4529412378505906,0.6174138447271404,0.3630683580561788,1.3416811332988938,1,211,0.0,0.0,0.0,0.0,0.0,0.0,-0.003892064,-0.018744826,0.03916514,0.033126354,-0.017715096,-0.03623295
1.3999497131498622,0.7132592940675077,1.159910687176287,-0.7925812061069768,-0.30880018196847536,0.008359413240918257,-1.4563904418658957,-0.7849233018721586,-1.4126166443713943,0.6525117605014535,0.34435750107711965,1.3045300151290125,1,212,0.0,0.0,0.0,0.0,0.0,0.0,-0.0028972626,-0.013578653,0.027035236,0.025621474,-0.012775809,-0.03001976
1.3999710727796197,0.7132781189427349,1.1599008528299255,-0.7925946820309695,-0.3088266568604509,0.008376892315351703,-1.46158227576063,-0.805135802690213,-1.3774456360155605,0.6723009287437623,0.32977328390699767,1.2778976587101862,1,213,0.0,0.0,0.0,0.0,0.0,0.0,0.0,0.0,0.0,0.0,0.0,0.0
1.399949849926425,0.7132163110780261,1.1598866291655914,-0.7925729914958264,-0.3088345298117349,0.008356477314229423,-1.4605932231211434,-0.8008622794353011,-1.3856554845840265,0.6693032278721592,0.3325539977649387,1.2828325176028876,1,214,0.0,0.0,0.0,0.0,0.0,0.0,-0.0030719042,-0.014521182,0.03138101,0.029443681,-0.013840437,-0.032009363
1.3999507533960507,0.7132717848238043,1.1599155674434003,-0.7925856799934293,-0.30881079128445,0.008365050692105034,-1.4623996641041785,-0.8136950649210823,-1.3544666621359123,0.7054071307254021,0.31776444224886885,1.2433148060380848,1,215,0.0,0.0,0.0,0.0,0.0,0.0,0.0,0.0,0.0,0.0,0.0,0.0
1.3999397382401226,0.7132370772069851,1.1598983222304506,-0.7925952799431935,-0.30883379282401,0.008369368086689451,-1.4629698792252084,-0.8163243511328279,-1.3489323335992414,0.7085686804185539,0.31574610698481653,1.2402977146792225,1,216,0.0,0.0,0.0,0.0,0.0,0.0,-0.0020942688,-0.008918643,0.017872095,0.013124883,-0.0084299445,-0.01467824
1.3999418608163052,0.7132720955048735,1.159910578587353,-0.7926145510687839,-0.3088014574036772,0.008361559690258766,-1.4661490569330125,-0.8253452438829397,-1.3349997660350623,0.7117546273089221,0.30954303676541944,1.2355679107286837,1,217,0.0,0.0,0.0,0.0,0.0,0.0,-0.0016930103,-0.0032462478,0.0057771206,0.001239121,-0.0036477745,-0.0024260283
1.3999429151283407,0.7132549564849652,1.1598931202835363,-0.792584691714802,-0.30881081899849383,0.008366961518002043,-1.465759178348842,-0.8260435771101721,-1.3296541984720105,0.7241753764077149,0.30518637163108286,1.2218039780731593,1,218,0.0,0.0,0.0,0.0,0.0,0.0,0.0,0.0,0.0,0.0,0.0,0.0
1.3999600453123466,0.7132356654967732,1.1598884802713039,-0.7925858045928917,-0.30882129264915237,0.008348834359304348,-1.465929063498432,-0.825281886974266,-1.3314940826936292,0.7199198469674102,0.3065328743253125,1.2260240427693818,1,219,0.0,0.0,0.0,0.0,0.0,0.0,-0.0018849373,-0.0012217164,0.000872612,-0.006806731,-0.0005759299,0.005759716
1.399916815293295,0.7132596180532385,1.1598862353535777,-0.7925718345165338,-0.30883403534799686,0.008355478197218219,-1.4686077186205693,-0.8271271951627794,-1.3306851192376405,0.7108141931884643,0.30546105632009657,1.2329663640846078,1,220,0.0,0.0,0.0,0.0,0.0,0.0,0.0,0.0,0.0,0.0,0.0,0.0
1.3999432453811482,0.7132615189110106,1.159872660905264,-0.7925914930066701,-0.30881303651168446,0.008371518035711088,-1.469081589891755,-0.8318580554837305,-1.3208925340535225,0.7153398266100613,0.30321151000803287,1.22902209894125,1,221,0.0,0.0,0.0,0.0,0.0,0.0,-0.0020945072,-0.00029677153,-0.0029146671,-0.014957488,0.00033161044,0.013334274
1.3999535853969396,0.7132501855600468,1.1599093373323082,-0.7925877111406756,-0.30881755123272225,0.008354083940663675,-1.4702211654660904,-0.8267794250850476,-1.3338672561570428,0.696798807666897,0.3065999444999614,1.2467618594322492,1,222,0.0,0.0,0.0,0.0,0.0,0.0,-0.0013263226,-0.0007330179,-0.0016406775,-0.008342683,0.00041887164,0.007592082
1.3999410876608582,0.7132601442243299,1.1598815585490128,-0.7925940269175108,-0.3088089074995095,0.008362406402402857,-1.4717836229309937,-0.8279846018878229,-1.335048942097859,0.688899122850347,0.3067594895122535,1.2534261221657828,1,223,0.0,0.0,0.0,0.0,0.0,0.0,-0.004677534,-0.0035081506,-0.0026179552,-0.022985995,0.0028972626,0.022218108
1.3999439367853865,0.7132493573904327,1.1599063723509944,-0.7925948117708799,-0.3088241890575985,0.00835144340235118,-1.4762083043033365,-0.8310325909485581,-1.3380037976424661,0.6662596088901489,0.3092852641993392,1.2756173930473806,1,224,0.0,0.0,0.0,0.0,0.0,0.0,-0.0017104149,-0.0015009642,-0.0005236864,-0.0086568,0.0011693537,0.008307695
1.3999558800914305,0.7132640078350073,1.1598976811530066,-0.7925689829681452,-0.3088241185941199,0.008345309777672703,-1.4782171698200135,-0.8334904460574548,-1.336301540191497,0.657648167838103,0.31048283407617533,1.2841637949854903,1,225,0.0,0.0,0.0,0.0,0.0,0.0,-0.005602598,-0.005323231,-0.0013263226,-0.025010586,0.0038571954,0.02309072
1.3999417786176147,0.7132360059969156,1.159894017363494,-0.7925773950754191,-0.30881266707764393,0.00837390330799047,-1.4842463988498011,-0.8405619784941051,-1.334990577047287,0.6330416496709604,0.312600967815926,1.30560677367359,1,226,0.0,0.0,0.0,0.0,0.0,0.0,0.0,0.0,0.0,0.0,0.0,0.0
1.399944667441243,0.7132467977158232,1.1598883263953401,-0.7925816168766889,-0.3088254729054595,0.008344469760043846,-1.4845439147695456,-0.8419598850619897,-1.3310824195330062,0.6354196055987752,0.31165653052477454,1.303238949499352,1,227,0.0,0.0,0.0,0.0,0.0,0.0,0.0,0.0,0.0,0.0,0.0,0.0
1.3999513762460665,0.7132667458572454,1.1599240548693313,-0.7925656102003317,-0.30882350961417765,0.008351643094864974,-1.486096772875645,-0.8424726222513698,-1.3337255269386317,0.6266066879098207,0.31310237311384315,1.311400518677344,1,228,0.0,0.0,0.0,0.0,0.0,0.0,-0.017714977,-0.017750025,-0.0032987595,-0.07140142,0.011990398,0.06316352
1.3999493470276536,0.7132512938272088,1.1599147466721533,-0.7926018235544908,-0.3088111358921031,0.008353954834685961,-1.5025648603404176,-0.8609000274680655,-1.333916053618779,0.560459830420285,0.32442718308728397,1.3707840401049523,1,229,0.0,0.0,0.0,0.0,0.0,0.0,-0.008848786,-0.009005904,-0.0016056299,-0.034784377,0.007208228,0.032009363
1.3999608783520552,0.7132623869773626,1.1598960388516577,-0.7925704223084982,-0.3088068890206615,0.008366789987013975,-1.510519896365855,-0.8676108421995123,-1.33658956783266,0.5300057394398408,0.3302916796872966,1.3986736947279366,1,230,0.0,0.0,0.0,0.0,0.0,0.0,0.0,0.0,0.0,0.0,0.0,0.0
1.3999634478227885,0.7132515138670962,1.1599231007559445,-0.7925826910755646,-0.30881389738849424,0.008361041687109808,-1.5113447347026503,-0.8692176825350196,-1.3361635249679877,0.5266893178393268,0.33165976062643776,1.401295673922167,1,231,0.0,0.0,0.0,0.0,0.0,0.0,-0.01806426,-0.017488182,-0.0019198656,-0.06272718,0.014154583,0.055134892
1.3999507387932257,0.7132510765971347,1.1599176651656942,-0.792578872884297,-0.30880897917305367,0.008344546379194894,-1.5298016416645699,-0.8867357523756817,-1.3351348124294637,0.46543891493768585,0.3436195377926626,1.4537547866541163,1,232,0.0,0.0,0.0,0.0,0.0,0.0,0.0,0.0,0.0,0.0,0.0,0.0
1.3999503178843202,0.713260626967772,1.1599035916795388,-0.7925764107495483,-0.30882404081431275,0.008358901607860179,-1.5316455425900153,-0.8861368328167487,-1.3415121928149323,0.45541914153199475,0.34661155499915564,1.4638973111256153,1,233,0.0,0.0,0.0,0.0,0.0,0.0,-0.013264537,-0.013386667,-0.0017802715,-0.04572761,0.010943234,0.040020466
1.3999535344287546,0.713257727494075,1.1599187374459912,-0.792576524070603,-0.30880667308082677,0.00837511299505394,-1.544924825186847,-0.8991042026102439,-1.3459575468181164,0.40854079760834355,0.35899136733994735,1.5060940693696803,1,234,0.0,0.0,0.0,0.0,0.0,0.0,0.0,0.0,0.0,0.0,0.0,0.0
1.3999473527352007,0.7132723930262468,1.159896621299654,-0.7925758181269329,-0.3088147611515621,0.008363358819087336,-1.54327784585313,-0.8963740527634058,-1.3477566409677308,0.4142194767244257,0.3589411420086637,1.5007918554315856,1,235,0.0,0.0,0.0,0.0,0.0,0.0,0.0,0.0,0.0,0.0,0.0,0.0
1.3999567584386783,0.7132570912932512,1.159943690060578,-0.792593972190478,-0.30883150789208214,0.008362217744046191,-1.5428227687630904,-0.8985656696068427,-1.3440431730631368,0.4161627392316039,0.357060485701515,1.498524739504067,1,236,0.0,0.0,0.0,0.0,0.0,0.0,0.0,0.0,0.0,0.0,0.0,0.0
1.3999649845240094,0.7132601256277292,1.1599210320472566,-0.7925929378696952,-0.30883295328835647,0.00837125885700837,-1.5419967062731226,-0.8952417860236217,-1.3486742232608346,0.4186619237762252,0.35875818344893756,1.4970513223833255,1,237,0.0,0.0,0.0,0.0,0.0,0.0,-0.021257997,-0.017750025,-0.010070562,-0.07288495,0.021240652,0.06401873
1.3999412489631564,0.7132419785187981,1.1598886264207473,-0.7925740515934295,-0.3088162413843001,0.008338024330930153,-1.5631610725399319,-0.9126153872561997,-1.3590150803218894,0.3456003078941308,0.3801290566778581,1.5611722178733214,1,238,0.0,0.0,0.0,0.0,0.0,0.0,-0.004695058,-0.0017278194,-0.008185625,-0.019320816,0.0076619983,0.016755104
1.3999470222027168,0.7132505517680227,1.1598943608524424,-0.7925663491942669,-0.3088276809376279,0.008369076253929474,-1.5684008554902162,-0.9134101695128375,-1.3710888574226339,0.32245374468759214,0.39000268261262705,1.5818514260258465,1,239,0.0,0.0,0.0,0.0,0.0,0.0,0.0,0.0,0.0,0.0,0.0,0.0
1.3999407207052146,0.7132609821877374,1.1598864759608505,-0.7925830420952599,-0.3088050517048488,0.008354499030440414,-1.567683694323481,-0.9140209398308096,-1.368300518020954,0.32625044909721496,0.38792424286317606,1.577569196992788,1,240,0.0,0.0,0.0,0.0,0.0,0.0,-0.0010122061,0.00031411648,-0.0072431564,-0.008587003,0.0052011013,0.008447409
1.3999613614087345,0.7132292907446242,1.15987772454299,-0.7925965988493945,-0.30882353695718445,0.008377272995637099,-1.5688644890231038,-0.9142538382179407,-1.3744730496872624,0.31812796662768994,0.3928998684920954,1.5863228226118347,1,241,0.0,0.0,0.0,0.0,0.0,0.0,3.4809113e-05,0.002583146,-0.007260561,-0.0029496253,0.0036302805,0.003892064
1.3999349607390852,0.7132410331089339,1.1599081817476673,-0.7925849115868836,-0.30882437413143893,0.008358049362789208,-1.568788821322175,-0.911893906737012,-1.3810045462392442,0.3150609247480813,0.3966381660192975,1.5894247300590163,1,242,0.0,0.0,0.0,0.0,0.0,0.0,6.997585e-05,0.001675427,-0.0028272867,-0.00033158064,0.001413703,0.0006108284
1.3999474258164482,0.7132390956615946,1.1599112704689054,-0.792567602203169,-0.30881065492367243,0.008358968955280092,-1.568517882332923,-0.9097926537610783,-1.3838047862714011,0.3158218196307274,0.3981973558287214,1.58967735996378,1,243,0.0,0.0,0.0,0.0,0.0,0.0,0.0,0.0,0.0,0.0,0.0,0.0
1.39993890648506,0.7132563306514482,1.159904649985816,-0.7925837701743665,-0.30881959096323014,0.008368089761500547,-1.5691208330038264,-0.9100220354980758,-1.3832696394945085,0.31483906680386703,0.39796024119083767,1.5896435762600927,1,244,0.0,0.0,0.0,0.0,0.0,0.0,0.0010471344,0.0035779476,-0.0060737133,-5.236268e-05,0.0030194223,0.00085532665
1.3999471203466782,0.7132516760475776,1.1599002955993971,-0.7925681344865833,-0.3088157063936206,0.00835304798284296,-1.5671996265987727,-0.9063531956325466,-1.3900325928242134,0.3151824488483328,0.4015669055283014,1.5916179155611687,1,245,0.0,0.0,0.0,0.0,0.0,0.0,0.0,0.0,0.0,0.0,0.0,0.0
1.3999567489222304,0.713251769668243,1.1599130582316943,-0.7925626496490884,-0.308812578804853,0.008356773985387126,-1.567648285338753,-0.9069310935913785,-1.390108447295475,0.31456427464077547,0.40134894108846736,1.5917925037560898,1,246,0.0,0.0,0.0,0.0,0.0,0.0,0.0008727312,0.0025132895,-0.0050441027,-0.00022691488,0.0028099716,0.0012739897
1.3999467044831306,0.7132746981992713,1.159920540794201,-0.792568218161964,-0.30882019100658653,0.008343896814511456,-1.5665966331560186,-0.9042299494858174,-1.3947303843685868,0.31490637996784776,0.40374910841546685,1.5923955731567707,1,247,0.0,0.0,0.0,0.0,0.0,0.0,0.0007853508,0.0028972626,-0.0068416595,-0.0015184283,0.0035081208,0.0017453432
1.399963621609831,0.7132521636387399,1.15993425651627,-0.7925866628575261,-0.3087978900931204,0.008340182685152927,-1.56567894487647,-0.9013770596132342,-1.4023258563503935,0.3126238902866705,0.4077390638889683,1.595367082990029,1,248,0.0,0.0,0.0,0.0,0.0,0.0,0.0005759001,0.0037000775,-0.008429885,-0.0024609268,0.0049741864,0.0030891895
1.3999517925962506,0.7132630136123291,1.159887217132531,-0.7925801020573314,-0.3088185060788604,0.008357350013883153,-1.5651143279312911,-0.8976875458569372,-1.4100391556112317,0.310987109281618,0.41243621956228893,1.5974611756764288,1,249,0.0,0.0,0.0,0.0,0.0,0.0,0.0,0.0,0.0,0.0,0.0,0.0
1.3999314927396715,0.7132458077703259,1.1598905454728528,-0.7925952849978741,-0.3088399410533781,0.008355422407415995,-1.5648995909817605,-0.8975948053571997,-1.4098099446021064,0.3112816603627115,0.4121403010214732,1.5966037429978008,1,250,0.0,0.0,0.0,0.0,0.0,0.0,0.00062835217,0.0066148043,-0.015393972,-0.0046774745,0.0084299445,0.0053756237
1.3999403815792144,0.7132363399489067,1.1599115905974355,-0.792575280762735,-0.3088127080152432,0.008344751195376107,-1.5646988878200199,-0.8910201173388449,-1.4259342018554961,0.3056492646846871,0.4207691488146922,1.6026315997912652,1,251,0.0,0.0,0.0,0.0,0.0,0.0,0.00012218952,0.0022514462,-0.005584955,-0.0018675029,0.0029495955,0.0021293163
1.3999410475068184,0.71325322240322,1.1598861985071747,-0.7925762096791632,-0.30879451423022397,0.00834677731497709,-1.564306765283804,-0.8891667134228797,-1.4301211988479918,0.30495313418904124,0.423655534040499,1.6038701198735026,1,252,0.0,0.0,0.0,0.0,0.0,0.0,6.9856644e-05,0.005934119,-0.015219331,-0.005916655,0.009494603,0.006195903
1.3999412973061145,0.7132466447627909,1.159907859970912,-0.792597283351225,-0.30880861682833793,0.008366793984518686,-1.5647057126441495,-0.8822136659258416,-1.4470284123176582,0.29813977493896515,0.43353763863560985,1.611284769179198,1,253,0.0,0.0,0.0,0.0,0.0,0.0,-3.504753e-05,0.002024591,-0.005445361,-0.0023736656,0.0035430193,0.0024085045
1.3999411797675432,0.7132552972796998,1.1598938622756,-0.7925749245988626,-0.30882411451457686,0.008349601805628578,-1.5644856592850243,-0.880641737660583,-1.4521400806357538,0.29523833463380095,0.4369575402394176,1.6136899808629377,1,254,0.0,0.0,0.0,0.0,0.0,0.0,3.504753e-05,0.0025656223,-0.007068634,-0.0027226806,0.004869461,0.0033860207
1.399947116748178,0.7132427305120818,1.1598822862253857,-0.7925889087578479,-0.3088147474175977,0.008367806634127463,-1.5628207557275753,-0.8785452298042602,-1.4559224541197164,0.29935957713167055,0.44080303241939234,1.611130718332228,1,255,0.0,0.0,0.0,0.0,0.0,0.0,-0.0001745224,0.0056025386,-0.017610312,-0.0066497326,0.010733783,0.007313013
1.3999563074067847,0.7132658798828713,1.1599045493359563,-0.7925984280956175,-0.30880415363110847,0.00836997452157859,-1.5652945598711039,-0.8729505119946274,-1.4770003635355329,0.28391809805537793,0.4527911138434445,1.6260030481446932,1,256,0.0,0.0,0.0,0.0,0.0,0.0,-0.00012230873,0.0026354194,-0.0074350834,-0.002914697,0.0046949387,0.0031415224
1.3999299506723972,0.7132495996869496,1.1599072012701406,-0.7925978661628004,-0.3088264150710801,0.008370750313439706,-1.5656434728841213,-0.8698577088347609,-1.4846906836560856,0.2820995059433696,0.45721180966916836,1.628087682379184,1,257,0.0,0.0,0.0,0.0,0.0,0.0,-0.00027918816,0.0034208298,-0.009302616,-0.003438294,0.006213367,0.0038222075
1.3999422635164278,0.7132587627359248,1.1599162308427318,-0.7925975209976595,-0.30881738038973755,0.008345703865633646,-1.5650562871713272,-0.8663069757249287,-1.4938012575074329,0.2789814158101302,0.4637055815908781,1.632094125824916,1,258,0.0,0.0,0.0,0.0,0.0,0.0,-0.0004887581,0.008325279,-0.022933602,-0.0077317953,0.012322038,0.007557273
1.3999391868697422,0.7132746550321869,1.1599190539088993,-0.792590494033226,-0.3088268589954699,0.008381847393975893,-1.5665993522248454,-0.8576178005940515,-1.517935743720125,0.270034281155071,0.476643064994133,1.6408904246472746,1,259,0.0,0.0,0.0,0.0,0.0,0.0,-0.00019192696,0.0036477447,-0.00919795,-0.0029845238,0.006056279,0.0033335686
1.3999536084315352,0.7132560873122054,1.1598999036910458,-0.7925857784245248,-0.30883204560121397,0.008335202077688017,-1.565591243689107,-0.8549347023644813,-1.5249546310230506,0.269728589275461,0.48169065289785074,1.642346092308488,1,260,0.0,0.0,0.0,0.0,0.0,0.0,-0.00020933151,0.0038571358,-0.00898838,-0.0030194223,0.0057246685,0.0029671192
1.399949457648901,0.7132579931938938,1.1598874075211507,-0.7925848733737964,-0.30880830065069964,0.008349673275941352,-1.566346267046857,-0.8497136159577474,-1.536624201171624,0.26601405694808156,0.488374877331357,1.645608967548276,1,261,0.0,0.0,0.0,0.0,0.0,0.0,-0.00020945072,0.0060039163,-0.01443398,-0.00466004,0.008203059,0.0045552254
1.3999562930202425,0.713247555375346,1.1599061270526199,-0.7925839732565555,-0.3088188086399982,0.008363461370745041,-1.5668024699051117,-0.8452260177261106,-1.549286676472139,0.2604220066876592,0.4955675245620249,1.6504186507162086,1,262,0.0,0.0,0.0,0.0,0.0,0.0,-5.2452087e-05,0.0014660954,-0.0037174225,-0.0011868179,0.002181679,0.0014138222
1.3999626662453597,0.7132135033679448,1.1598953651061725,-0.792594153502674,-0.3088082034986565,0.008370479430289308,-1.5671991488001376,-0.8428440851202073,-1.552656776007214,0.2597852120672918,0.49805358513357306,1.6511107010701513,1,263,0.0,0.0,0.0,0.0,0.0,0.0,-0.000104665756,0.0015184283,-0.0031416416,-0.0013788044,0.0020419955,0.0015883446
1.399942875206898,0.7132450086087241,1.159900040135726,-0.7925863167023316,-0.30882899774998673,0.008362248747081795,-1.5662077581587606,-0.8417432840001929,-1.555381423395468,0.258985692519425,0.5000169436090096,1.652823088086096,1,264,0.0,0.0,0.0,0.0,0.0,0.0,0.0,0.0,0.0,0.0,0.0,0.0
1.3999317860491218,0.7132644970818526,1.1599088241451827,-0.7925809070660297,-0.30882325600942095,0.008345362973944583,-1.5674563576798115,-0.8420298344390758,-1.5563874421350863,0.2577158686274546,0.5000677032336309,1.653462439249502,1,265,0.0,0.0,0.0,0.0,0.0,0.0,-3.4928322e-05,-0.0005759597,0.0033859015,8.72612e-05,-0.0008202791,0.00015687943
1.3999450906071353,0.7132558259702074,1.1598917371580935,-0.7925915392800245,-0.3088046449251833,0.008329566386596599,-1.566709731492818,-0.8426205770767875,-1.5519290863175284,0.2592499569888945,0.4988833439332481,1.6521910490505458,1,266,0.0,0.0,0.0,0.0,0.0,0.0,0.0,0.0,0.0,0.0,0.0,0.0
1.3999471322925796,0.7132423791642329,1.159914378506444,-0.7925882469284322,-0.3088157630299094,0.00834939332382504,-1.5654348936768536,-0.8425734969693525,-1.550708675628908,0.2629555765972446,0.49783914581549993,1.6491059473744285,1,267,0.0,0.0,0.0,0.0,0.0,0.0,-3.4928322e-05,-0.005043924,0.012252212,0.0022864044,-0.005462885,-0.0015707016
1.399941222300695,0.7132591534398041,1.159903755775336,-0.7925977058598782,-0.3088176578210393,0.00835410410251871,-1.5667245408174515,-0.8473753993305282,-1.5407720909064875,0.26087781173276087,0.49380308761820635,1.651218441272866,1,268,0.0,0.0,0.0,0.0,0.0,0.0,-0.00013959408,-0.003944516,0.007120967,0.0009948015,-0.0036652088,-0.0011519194
1.3999490469248692,0.7132565531799874,1.1599170388756617,-0.7925997502330105,-0.3088308765967783,0.008385054533833007,-1.5668366398019262,-0.8517752894423822,-1.5332893612463154,0.2625744512172239,0.4898651461902403,1.6497839726955468,1,269,0.0,0.0,0.0,0.0,0.0,0.0,0.0,0.0,0.0,0.0,0.0,0.0
1.3999387410621995,0.7132481414777777,1.1598984445272458,-0.7925934996384356,-0.30880899293591796,0.008335646307857075,-1.5670981709001954,-0.8513682112959553,-1.5333647582588257,0.26100838691958106,0.4904009000468565,1.6514341646099906,1,270,0.0,0.0,0.0,0.0,0.0,0.0,-0.0010995865,-0.0048868656,0.0069463253,-0.00015705824,-0.0028797686,-0.00029671192
1.3999405832145453,0.7132469466116866,1.1599076077179236,-0.7925829499289107,-0.3088197742163787,0.008368719797329345,-1.567181386644981,-0.8568354800389549,-1.5254137871427143,0.26242498063024533,0.48713913229401545,1.6499238903340983,1,271,0.0,0.0,0.0,0.0,0.0,0.0,-0.0010646582,-0.0021119118,0.0017977953,-0.0016231537,-0.00047123432,0.00029671192
1.3999347995747604,0.7132529732826045,1.1598886281472816,-0.7925972444575924,-0.30881255490932114,0.00835322822854046,-1.5691468841874021,-0.8584020408573967,-1.5241379937216741,0.26042346808654954,0.4867473153617812,1.6501159508517103,1,272,0.0,0.0,0.0,0.0,0.0,0.0,-0.0014486313,-0.0006980896,-0.0016406775,-0.0038746297,0.0010646284,0.0024260283
1.399941160078341,0.7132465950214519,1.1599325313543303,-0.7925993470965933,-0.3088046754919241,0.008344772976556161,-1.5702506437635677,-0.8596717386803541,-1.5240859780413836,0.25681067113821826,0.4870097097332785,1.6522250089940806,1,273,0.0,0.0,0.0,0.0,0.0,0.0,0.0,0.0,0.0,0.0,0.0,0.0
1.399953633435983,0.713236707480683,1.1599017936120812,-0.7925800727547269,-0.3088221016516263,0.008338395800547042,-1.5702948050651122,-0.8585379627089267,-1.5272305699543134,0.2566035196695478,0.4878300345486888,1.6523845834040565,1,274,0.0,0.0,0.0,0.0,0.0,0.0,-0.00214684,0.0013089776,-0.012932777,-0.007347852,0.009215325,0.0071733
1.3999396038557232,0.7132455339375241,1.1599013433670102,-0.7925822588751997,-0.30881859340494744,0.008342750272733459,-1.572533851910512,-0.8581393313079086,-1.5390015299890403,0.24932638851148328,0.49699343848030014,1.6596386116527966,1,275,0.0,0.0,0.0,0.0,0.0,0.0,-0.0011168718,0.0025481582,-0.009686589,-0.0042411536,0.0055327117,0.003839612
1.3999468599159586,0.7132655213081903,1.1598875871403735,-0.7925907948454555,-0.30882204464989405,0.008350935133797416,-1.5736115735389131,-0.8533011303014467,-1.5533247615403498,0.2433295449679394,0.5048471017087721,1.6652025687421577,1,276,0.0,0.0,0.0,0.0,0.0,0.0,-0.002059579,0.009197891,-0.02593565,-0.009459674,0.017156601,0.009634256
1.3999331487209143,0.7132432172828607,1.159895491365047,-0.7925864897417064,-0.3088406161618183,0.0083696131948841,-1.5758790664454547,-0.8460362291895266,-1.5745868375037504,0.23658850858600056,0.5194718423915898,1.6729705322659463,1,277,0.0,0.0,0.0,0.0,0.0,0.0,0.0,0.0,0.0,0.0,0.0,0.0
1.3999408696365037,0.7132715992381564,1.1598815297498253,-0.7925651152630087,-0.3088164585174198,0.00834792593381677,-1.575716457938006,-0.8447109570437258,-1.5802996921075567,0.23339125485005838,0.5239573817161338,1.6755113643498503,1,278,0.0,0.0,0.0,0.0,0.0,0.0,-0.000872612,0.008203089,-0.02218318,-0.006230831,0.013386667,0.0067195892
1.399957418260019,0.7132560082388959,1.1598840867581888,-0.7925835744495253,-0.3088281620775933,0.008358810844553003,-1.576437916131605,-0.8378056506409812,-1.5960029938687603,0.22975366514423798,0.5324471157257525,1.6788459092416543,1,279,0.0,0.0,0.0,0.0,0.0,0.0,0.0,0.0,0.0,0.0,0.0,0.0
1.3999509740866514,0.7132253963173619,1.1598989648498426,-0.7925954771512507,-0.30882089358854914,0.008369084543531129,-1.575747197124282,-0.8350374056624907,-1.6026999872948293,0.22887380896560727,0.5369598038305162,1.681425270185106,1,280,0.0,0.0,0.0,0.0,0.0,0.0,-0.00027918816,0.015027285,-0.039601445,-0.008726642,0.023649216,0.0095642805
1.399938390651266,0.7132795657578996,1.1599032894731236,-0.7925746355964254,-0.3088076404844249,0.00833662907499943,-1.5770668658872589,-0.8211390199704154,-1.6406798699989522,0.21954138596817693,0.5587340500559561,1.690807073862632,1,281,0.0,0.0,0.0,0.0,0.0,0.0,5.2332878e-05,0.014590919,-0.033423066,-0.004415676,0.019303322,0.0065801144
1.3999359335460269,0.7132244787259541,1.159914933689743,-0.7925937167678263,-0.3088244308730724,0.008370912084661723,-1.5765469132292405,-0.8074468769289418,-1.669874731517828,0.21457766092675531,0.5761962812253376,1.697218893406685,1,282,0.0,0.0,0.0,0.0,0.0,0.0,0.0,0.0,0.0,0.0,0.0,0.0
1.3999503564647153,0.7132514836490182,1.1599007574417066,-0.7925900971615549,-0.30881929341202474,0.008358013047770898,-1.5769365317799051,-0.8071237044766914,-1.6708086075246724,0.2149254559385525,0.5764296241740681,1.6961962596425548,1,283,0.0,0.0,0.0,0.0,0.0,0.0,0.0013612509,0.010053098,-0.021467566,-0.0010297447,0.011815906,0.0032461882
1.3999566367012353,0.7132521553454093,1.1598576133727354,-0.7925794964428257,-0.3088238316445059,0.00834756935043011,-1.5752598213051425,-0.7959257895025631,-1.6991352475655932,0.21338029699145278,0.5928534654403896,1.7023585130073888,1,284,0.0,0.0,0.0,0.0,0.0,0.0,0.0011171103,0.0047472715,-0.009843588,-6.982684e-05,0.0051661134,0.0011519194
1.3999433840536823,0.7132788365712753,1.1598879665304196,-0.7925733415385198,-0.3088474115320096,0.008347696521980988,-1.5740364505552071,-0.7923931657488198,-1.7019642726787638,0.21562139561490715,0.593557447547849,1.7003433306757927,1,285,0.0,0.0,0.0,0.0,0.0,0.0,0.0,0.0,0.0,0.0,0.0,0.0
1.3999546637834996,0.7132480891140085,1.1599141450924424,-0.7925994329963318,-0.30883910773026446,0.008357306161592084,-1.5743707036304995,-0.7893129033023676,-1.7158641447542033,0.212206337596625,0.6033978996680074,1.7058720564671832,1,286,0.0,0.0,0.0,0.0,0.0,0.0,0.0017278194,0.0062482953,-0.011484385,1.7464161e-05,0.005497873,0.00089001656
1.3999634045512916,0.7132619404240168,1.1598874039114637,-0.7925674182564236,-0.3088271750407281,0.008356443825804928,-1.57153038954124,-0.7840965632827357,-1.7172528199832309,0.2153207100315759,0.6005942715293341,1.7014096811513235,1,287,0.0,0.0,0.0,0.0,0.0,0.0,0.0008202791,0.0012043118,-0.0013438463,0.00024434924,0.00076788664,1.7523766e-05
1.3999588877438696,0.7132352546002745,1.1599064896620956,-0.7925911756152373,-0.30882947258791577,0.008360685603411237,-1.571534705345541,-0.785963114757587,-1.713023874644251,0.21520459011196513,0.5992988972907354,1.7007574132090935,1,288,0.0,0.0,0.0,0.0,0.0,0.0,0.0003142357,-5.2332878e-05,0.00020945072,0.0005235821,-3.4868717e-05,-1.7523766e-05
1.3999566421474625,0.7132516395013603,1.1599153107789864,-0.7925757908491838,-0.3088075619886468,0.00837710041679565,-1.5712777817199786,-0.7860498192542896,-1.7130972943632226,0.21598179491439945,0.5987950830870754,1.7011841196192286,1,289,0.0,0.0,0.0,0.0,0.0,0.0,0.0,0.0,0.0,0.0,0.0,0.0
1.3999438438956082,0.7132598116725842,1.1598897079359514,-0.792590531830528,-0.3088252852688531,0.008387375107691922,-1.5707437688114767,-0.7845616722350199,-1.7168030059245147,0.21523438178276044,0.6019920756054026,1.7022785800357534,1,290,0.0,0.0,0.0,0.0,0.0,0.0,0.0011168718,-0.00024437904,0.0055850744,0.0024434775,-0.0019897223,-0.0015881062
1.399951747156331,0.7132295714872918,1.1598975112609209,-0.7925823700091869,-0.3088225141926209,0.008356570466903338,-1.5703926527833243,-0.7862944307921257,-1.707355525612968,0.2174018717283528,0.5972652081683977,1.7003102555914418,1,291,0.0,0.0,0.0,0.0,0.0,0.0,0.0,0.0,0.0,0.0,0.0,0.0
1.3999565664540397,0.7132527481917655,1.1599285662696805,-0.792590108716842,-0.30881928001367176,0.00834953002580751,-1.5701215732258968,-0.7861344162639943,-1.7083256803303084,0.21811372849325733,0.5977168046729293,1.7000284165538415,1,292,0.0,0.0,0.0,0.0,0.0,0.0,0.0008727312,-6.979704e-05,0.00094246864,0.0022340268,-0.0015708208,-0.0014486313
1.3999482426051066,0.7132433069656855,1.1599303098007512,-0.7925818632807166,-0.308816084929722,0.008344909458526709,-1.5692196542829722,-0.7864258331829438,-1.707327455024792,0.21995332050440247,0.5961132070642132,1.6985327264778227,1,293,0.0,0.0,0.0,0.0,0.0,0.0,0.0012915134,0.0011343956,-0.0009949207,0.002321273,-0.00038391352,-0.0014312267
1.3999556240348459,0.7132252567328504,1.1599056999106647,-0.792572383315758,-0.30882254264500986,0.008354986354978123,-1.5675882005962547,-0.7816887841178548,-1.7166126378761546,0.22207064011878108,0.6001685653549437,1.698847561239908,1,294,0.0,0.0,0.0,0.0,0.0,0.0,0.0,0.0,0.0,0.0,0.0,0.0
1.3999484387289525,0.7132530934147062,1.159886448336303,-0.7925956460113313,-0.30879636203948657,0.008355239348176235,-1.5674938245380141,-0.7847713481983368,-1.7089576570197806,0.22385294915011286,0.5952900137358158,1.6964535043304392,1,295,0.0,0.0,0.0,0.0,0.0,0.0,0.0027577877,0.0051662326,-0.005550027,0.0050614476,-3.4928322e-05,-0.0029495955
1.3999397573121728,0.7132554606926209,1.1599037355528845,-0.7925926145304825,-0.3088331491959194,0.008368678696119526,-1.5653977815784126,-0.7798749219591216,-1.7148109270967573,0.22783412606209813,0.5963085739824204,1.6940716504611,1,296,0.0,0.0,0.0,0.0,0.0,0.0,0.001413703,0.002600491,-0.0023213625,0.0023911148,0.0,-0.0015009642
1.3999463741818459,0.7132179364626958,1.1598947634220493,-0.7925635321094404,-0.30881375680833556,0.008352378807266542,-1.563791830314953,-0.7777390324719782,-1.7144817224708073,0.23059368952874815,0.5951607378962896,1.6920315770374659,1,297,0.0,0.0,0.0,0.0,0.0,0.0,0.001204133,0.0023388267,-0.002059579,0.0022165626,5.2332878e-05,-0.0017802715
1.3999432848667621,0.713239579199317,1.15988413205827,-0.7925717578032251,-0.3088169658611777,0.008352453227230647,-1.5624749780035103,-0.7750242251118649,-1.717433259321788,0.23264614909530978,0.5952451528523538,1.6901143326054375,1,298,0.0,0.0,0.0,0.0,0.0,0.0,0.0031591654,0.005061388,-0.0042585135,0.005096376,-5.2332878e-05,-0.0032986403
1.3999498032111821,0.7132459942024603,1.1599098254865516,-0.7926029731391455,-0.30880575851737957,0.008368521409971007,-1.5597152611299183,-0.768621175633225,-1.730361262985454,0.23503274714832384,0.6005301644892145,1.6896280465764442,1,299,0.0,0.0,0.0,0.0,0.0,0.0,0.0071383715,0.010855973,-0.007103443,0.012897953,-0.0016929507,-0.009739041
1.399953349156344,0.7132445676861918,1.1599118727869613,-0.7925868631056633,-0.3088188682110222,0.008356610233125577,-1.55265877203891,-0.7591980497004768,-1.7286630398910585,0.24995884394644977,0.5934926006246597,1.6773665619750637,1,300,0.0,0.0,0.0,0.0,0.0,0.0,0.0,0.0,0.0,0.0,0.0,0.0
1.399954844200732,0.7132444647355295,1.1598954191023183,-0.7925661621170129,-0.30881066308275856,0.008346530319900552,-1.5523065154417819,-0.7589494411554806,-1.7303788895650283,0.25075378639293194,0.5942905273009413,1.6781594029127023,1,301,0.0,0.0,0.0,0.0,0.0,0.0,0.010838509,0.013805568,-0.006038904,0.022357672,-0.004729867,-0.016458273
1.3999260496074872,0.7132347991793296,1.1598701304400338,-0.7925884829639319,-0.3088094946180979,0.008348734947477766,-1.5414648630358982,-0.7457145765455945,-1.7350646367613747,0.2723626321373427,0.5884048288413399,1.6606927122367863,1,302,0.0,0.0,0.0,0.0,0.0,0.0,0.0,0.0,0.0,0.0,0.0,0.0
1.399953904839331,0.7132697988806173,1.1599181782409491,-0.7925794449227463,-0.30883124308722715,0.008341796043747404,-1.5415094307781962,-0.7421186885382274,-1.7441925752905834,0.26954415405971494,0.5948316034952773,1.6651965295132987,1,303,0.0,0.0,0.0,0.0,0.0,0.0,0.0125314,0.014608383,-0.0045553446,0.028361619,-0.007417619,-0.021101117
1.3999730292523966,0.7132583767604372,1.1598891315215023,-0.7925721407321069,-0.3088291722902904,0.008345537445261442,-1.5293498367581595,-0.7312927890874746,-1.7400364130043264,0.29813735490678395,0.5822773143678169,1.6431151026282027,1,304,0.0,0.0,0.0,0.0,0.0,0.0,0.0,0.0,0.0,0.0,0.0,0.0
1.39994016923788,0.7132644116799376,1.1599240469041538,-0.7925892571635034,-0.3088056241273867,0.00836067447602872,-1.5295871843095397,-0.7321510301704902,-1.7386976450915048,0.30016655592843805,0.5808333092908684,1.6403357979741688,1,305,0.0,0.0,0.0,0.0,0.0,0.0,0.017994404,0.018849552,-0.0023561716,0.04139921,-0.010070562,-0.03244567
1.3999338139828887,0.7132365546507082,1.1599136606858593,-0.7926087062619563,-0.3088259926407362,0.008349968459221833,-1.5110639212287411,-0.7126480939767847,-1.7412301939364132,0.3418123583294151,0.5701975784778719,1.6083044413334933,1,306,0.0,0.0,0.0,0.0,0.0,0.0,0.0,0.0,0.0,0.0,0.0,0.0
