ias30/Pi0/openpi-main/test_predictions.csv
joint_0_right_waist,joint_1_right_shoulder,joint_2_right_elbow,joint_3_right_forearm_roll,joint_4_right_wrist_angle,joint_5_right_wrist_rotate,joint_6_left_waist,joint_7_left_shoulder,joint_8_left_elbow,joint_9_left_forearm_roll,joint_10_left_wrist_angle,joint_11_left_wrist_rotate,episode_index,frame_index,gt_joint_0_right_waist,gt_joint_1_right_shoulder,gt_joint_2_right_elbow,gt_joint_3_right_forearm_roll,gt_joint_4_right_wrist_angle,gt_joint_5_right_wrist_rotate,gt_joint_6_left_waist,gt_joint_7_left_shoulder,gt_joint_8_left_elbow,gt_joint_9_left_forearm_roll,gt_joint_10_left_wrist_angle,gt_joint_11_left_wrist_rotate
80.21100264557724,40.86698235066853,66.45800027288843,-45.412014763715135,-17.693986476184328,0.4789893490235941,-79.5702947142275,-44.626102306534534,-71.25472508281534,70.08142054720199,14.242076397128773,42.440696605394386,0,0,0.0,0.0,0.0,0.0,0.0,0.0,0.0,0.0,0.0,0.0,0.0010004044,0.0
80.21100274847943,40.866992952237474,66.4580143676873,-45.41199276509991,-17.694004228595606,0.4790069752188796,-79.5707702408913,-44.62572691751187,-71.25518592043895,70.08135409968938,14.242749843549552,42.43992153460319,0,1,0.0,0.0,0.0,0.0,0.0,0.0,0.0019989014,-0.0009994507,-0.0010070801,0.0,-0.0010004044,0.0009994507
80.21099809149923,40.86696448077834,66.45802574979514,-45.41201309645362,-17.69398276527684,0.4789984395432161,-79.5682807565495,-44.626861044967065,-71.2554026780187,70.08298734987991,14.242028457483297,42.43975556198156,0,2,0.0,0.0,0.0,0.0,0.0,0.0,-0.0019989014,0.0,0.0030059814,0.0,0.0,-0.0009994507
80.21098747762734,40.86699298999003,66.45799940413966,-45.41200562320806,-17.69399686862635,0.4790043101939862,-79.57108495679114,-44.62739657707584,-71.25256374406972,70.08113396839039,14.241955719772532,42.44085429851239,0,3,0.0,0.0,0.0,0.0,0.0,0.0,0.0,0.0,-0.0030059814,0.0019989014,0.0,0.0
80.21098955285622,40.86698838871667,66.45799010814382,-45.41201898559098,-17.69398325110791,0.4790030764622302,-79.5709602841496,-44.62684915432995,-71.25623772619893,70.08253233986072,14.241852599400822,42.44084454589482,0,4,0.0,0.0,0.0,0.0,0.0,0.0,0.0019989014,0.0,0.0,-0.002998352,0.0,0.0009994507
80.21101458069064,40.867006843872126,66.45797497171156,-45.411990072288255,-17.693994155100015,0.4789921017306955,-79.56878135886865,-44.627018699996135,-71.25574978507409,70.08023480453343,14.241995839226542,42.44108505919157,0,5,0.0,0.0,0.0,0.0,0.0,0.0,-0.0019989014,0.0,0.0010070801,0.0,-0.0009994507,-0.0009994507
80.21098827835513,40.86699476514315,66.45798945572643,-45.41199410856727,-17.693987029014618,0.4789827109656544,-79.57616711838085,-44.632496290319814,-71.25849164010975,70.05579786417364,14.246569460172335,42.46557144719444,0,6,0.0,0.0,0.0,0.0,0.0,0.0,0.0,-0.002002716,0.0019989014,0.0,0.0,0.0009994507
80.21097103847094,40.86697120835317,66.4580002150141,-45.41200445488883,-17.69400187810106,0.47901786371133526,-79.57057258475936,-44.62885952361985,-71.25338465751837,70.08091343418576,14.241214807493215,42.44047381345517,0,7,0.0,0.0,0.0,0.0,0.0,0.0,0.0,0.002002716,-0.0030059814,0.0,0.0009994507,-0.002002716
80.21101571528838,40.86699681276799,66.45798675098939,-45.412007553674684,-17.6939780564102,0.47899894777261515,-79.57034391481469,-44.62689277592098,-71.25660442401833,70.08066080967944,14.24206086571356,42.43914581831324,0,8,0.0,0.0,0.0,0.0,0.0,0.0,0.0,-0.002002716,0.0010070801,0.0009994507,-0.0009994507,0.0010032654
80.21097899896087,40.8669892212511,66.45799329940553,-45.411988651126855,-17.69401666657794,0.4789947877033339,-79.5711352952192,-44.62948065331275,-71.25413357191341,70.08240332016649,14.240300665864588,42.439052156258064,0,9,0.0,0.0,0.0,0.0,0.0,0.0,0.0,0.002002716,0.0,-0.0009994507,0.0009994507,0.0009994507
80.21100518656948,40.86700175522762,66.45802548871184,-45.41199241758549,-17.693995736784352,0.4790009440246658,-79.57094841427606,-44.62689545918536,-71.25517145470062,70.08034958015409,14.242068015402038,42.441182557416674,0,10,0.0,0.0,0.0,0.0,0.0,0.0,0.0,0.0,-0.0010070801,0.0009994507,-0.0009994507,0.0
80.21099337065966,40.86698822265988,66.45802807470025,-45.41199182158439,-17.693994372345006,0.47898736001888526,-79.57221435000893,-44.62766919472992,-71.25794769213513,70.07476907668027,14.24165774018522,42.448970841716985,0,11,0.0,0.0,0.0,0.0,0.0,0.0,0.0,0.0009994507,0.0010070801,0.0,0.0,-0.0009994507
80.21099673244366,40.866988526796526,66.4580139629847,-45.41199549872564,-17.693991713021777,0.4790122001999231,-79.57038521492791,-44.625819827005394,-71.25539778892646,70.08169507251489,14.24115782616328,42.44010559160935,0,12,0.0,0.0,0.0,0.0,0.0,0.0,0.0,-0.0009994507,0.0,-0.0009994507,0.0,0.0
80.21101246575334,40.86698459076837,66.45797943580749,-45.41198104388658,-17.694002620755953,0.47900893859406424,-79.57059999599977,-44.62706234780071,-71.25518421333678,70.07979627153534,14.24102921437522,42.4403677727584,0,13,0.0,0.0,0.0,0.0,0.0,0.0,0.0,0.0,-0.0010070801,0.0,0.0,0.0
80.2110040436113,40.86699238930528,66.45800673239177,-45.412000460423265,-17.693994683281513,0.47902739537909494,-79.57049128662479,-44.62660791067921,-71.25665285141999,70.07986005192888,14.24112034654017,42.44107955688773,0,14,0.0,0.0,0.0,0.0,0.0,0.0,0.0019989014,0.0,0.0010070801,0.0009994507,0.0,0.0
80.21100305557877,40.86699366985296,66.45799236747419,-45.41198932157776,-17.693990409715912,0.4790124177805246,-79.56842648423913,-44.62721339784983,-71.25449305267017,70.08119857442735,14.241248409974538,42.4406120354077,0,15,0.0,0.0,0.0,0.0,0.0,0.0,0.0,-0.002002716,0.0019989014,0.0,0.0009994507,0.0
80.21099909583408,40.866972561197144,66.45796488983687,-45.41200336835437,-17.69399681856618,0.4789873526764536,-79.56824697301371,-44.62909749754757,-71.25339649937743,70.08146130131838,14.242176823185726,42.44049594356778,0,16,0.0,0.0,0.0,0.0,0.0,0.0,-0.0019989014,0.002002716,-0.0019989014,0.0,0.0,0.0
80.2109938336561,40.86699660929052,66.4580168386076,-45.411984725394504,-17.69398879783774,0.4789845015662243,-79.5707126506198,-44.62627570877179,-71.25579660927625,70.07997209345778,14.242250836873342,42.44148295103712,0,17,0.0,0.0,0.0,0.0,0.0,0.0,0.0,0.0,0.0,-0.0009994507,0.0,0.0
80.21099163670284,40.8669816879255,66.45797409821203,-45.41197265355675,-17.69398232188943,0.47899060245760394,-79.57083851456429,-44.627427416211056,-71.25444632121315,70.08095569862546,14.24191669175327,42.43916427265929,0,18,0.0,0.0,0.0,0.0,0.0,0.0,0.0,-0.002002716,0.0,0.0009994507,0.0,0.0
80.21100133654734,40.86699104220586,66.45798780717712,-45.41200146179447,-17.693983123072158,0.47901082566613196,-79.57051899158468,-44.627285614484556,-71.2596077241688,70.07735839284435,14.243023390767489,42.444621520106054,0,19,0.0,0.0,0.0,0.0,0.0,0.0,0.0,0.002002716,0.0,0.0,0.0,0.0
80.21099394851724,40.86699149607926,66.45798864983769,-45.41200158491724,-17.69397845025764,0.47901170981945707,-79.57085556092137,-44.62736722067985,-71.2550096760868,70.08103234041374,14.241987047113312,42.44104969057143,0,20,0.0,0.0,0.0,0.0,0.0,0.0,0.0,-0.002002716,0.0,-0.0009994507,-0.0009994507,0.0009994507
80.21100363996027,40.867006240935055,66.45800176791417,-45.41198454626751,-17.693981143498128,0.4789893979296336,-79.57072529955845,-44.62862579851943,-71.25549446334968,70.08070767892707,14.24114491436721,42.441587725355646,0,21,0.0,0.0,0.0,0.0,0.0,0.0,0.0019989014,0.002002716,0.0,0.0,0.0009994507,-0.0009994507
80.21100684076826,40.86698143708954,66.45801318826679,-45.41199990138416,-17.69396981230813,0.47896863247189725,-79.56845958532803,-44.62693972356628,-71.2552625317627,70.08082113665081,14.242395089923106,42.440127259792746,0,22,0.0,0.0,0.0,0.0,0.0,0.0,-0.002998352,0.0,0.0,0.0009994507,-0.0009994507,0.0009994507
80.21100031088532,40.86700866824825,66.4580334875286,-45.41198167566385,-17.693989638139705,0.4789770812969232,-79.57150910136106,-44.62745789923229,-71.2549795005455,70.08095238054202,14.24102351993307,42.441691551171914,0,23,0.0,0.0,0.0,0.0,0.0,0.0,0.0009994507,0.0,0.0019989014,0.0,0.0,-0.0009994507
80.21101840436356,40.86699726603729,66.45801396335386,-45.41198031622885,-17.693979588345737,0.4789970736621395,-79.57084412647406,-44.62721666673625,-71.2533420469093,70.08177977815805,14.24089803833065,42.440280882869956,0,24,0.0,0.0,0.0,0.0,0.0,0.0,0.0,0.0,-0.0030059814,0.0,0.0,0.0
80.21100563380524,40.867002158147756,66.45797212722407,-45.411990241442,-17.693978708391285,0.47900193851583317,-79.57082117964072,-44.62690344957973,-71.25591717406617,70.0807630687884,14.240886717111787,42.440114443356826,0,25,0.0,0.0,0.0,0.0,0.0,0.0,0.0019989014,0.0,0.0010070801,-0.0009994507,0.0009994507,0.0
80.21099127688827,40.86699237249861,66.45801663190454,-45.411992255962495,-17.693981647929526,0.4789982774876566,-79.56906884967923,-44.62726922993914,-71.25597902002359,70.07911840040094,14.24242019907366,42.44140624807594,0,26,0.0,0.0,0.0,0.0,0.0,0.0,-0.0019989014,-0.002002716,0.0,0.0009994507,0.0,0.0009994507
80.21099424511569,40.86699162804912,66.4580232140086,-45.41202183078513,-17.693993888691686,0.47900066799547386,-79.57138903502212,-44.63073366945984,-71.2530936528769,70.08014650559235,14.241553558583314,42.44192977433648,0,27,0.0,0.0,0.0,0.0,0.0,0.0,0.0019989014,0.002002716,0.0,0.0,0.0,-0.0009994507
80.21101630442436,40.866999774475225,66.45798467114214,-45.41200486533785,-17.693979974824643,0.47901049005845797,-79.56917999125751,-44.626954567690525,-71.25486019865038,70.08164105440365,14.241603370013015,42.43958189367607,0,28,0.0,0.0,0.0,0.0,0.0,0.0,0.0,0.0,0.0,0.0,0.0,0.0009994507
80.21101371326381,40.86698578924601,66.45798519802874,-45.41200462251927,-17.69398791412444,0.47901653044842424,-79.5685399340273,-44.626609518072264,-71.2550898764162,70.08269414130841,14.241983087366965,42.44001830429313,0,29,0.0,0.0,0.0,0.0,0.0,0.0,0.0,0.0009994507,0.0,0.0,-0.0009994507,-0.0009994507
80.21100854598743,40.86698532106438,66.45799295340602,-45.41199742552291,-17.69398829649583,0.47901114605942235,-79.56887943669395,-44.62595711382123,-71.25480408556979,70.08248354630263,14.241062836189528,42.43992471882422,0,30,0.0,0.0,0.0,0.0,0.0,0.0,-0.0019989014,-0.0009994507,0.0,-0.0009994507,0.0,0.0
80.2109888490586,40.86698305842823,66.45800524717521,-45.41200119785847,-17.693983841112754,0.4790081648680778,-79.57088227200157,-44.6272625973513,-71.25473286333329,70.08109561497588,14.240704341177855,42.43993659998928,0,31,0.0,0.0,0.0,0.0,0.0,0.0,0.0,0.0,0.0,0.0009994507,0.001999855,0.0
80.21101936770253,40.866993706766486,66.4579991681489,-45.41201275864955,-17.694000473215876,0.479025574985555,-79.57097114468453,-44.62707624126518,-71.25614956101805,70.07955011584056,14.243549380136022,42.44229870933603,0,32,0.0,0.0,0.0,0.0,0.0,0.0,-0.0009994507,0.0,0.0,0.0,-0.0010004044,0.0009994507
80.21100729744587,40.86700752055421,66.4580050315225,-45.41199544305144,-17.6939791184413,0.47898513862938297,-79.57229429916403,-44.627261267989276,-71.25565530845012,70.07974962171707,14.242226493133145,42.442811485356735,0,33,0.0,0.0,0.0,0.0,0.0,0.0,0.0009994507,0.0,0.0,0.0,0.0,-0.0009994507
80.21100057448571,40.86699121747705,66.45801131234074,-45.41198712667172,-17.693992582872465,0.47900256213775516,-79.57036362461474,-44.62724319178914,-71.2549456634746,70.08094268314767,14.241987690374371,42.44056712735584,0,34,0.0,0.0,0.0,0.0,0.0,0.0,0.0,0.0,0.0,0.0,0.0,0.0
80.21098796619178,40.866981001286945,66.45801813705829,-45.411999021463274,-17.694000762964116,0.4789899699419798,-79.57116866136414,-44.627030096200926,-71.25541378510606,70.08034864278767,14.242156007714856,42.44137374150075,0,35,0.0,0.0,0.0,0.0,0.0,0.0,0.0,0.0,0.0,0.0,0.0,0.0
80.21099976479337,40.86698217294178,66.45799745492354,-45.412004875510604,-17.694003256409545,0.4789993579475494,-79.57078890173926,-44.626453873121115,-71.25648210563652,70.0806267928765,14.242385680911978,42.440709595984195,0,36,0.0,0.0,0.0,0.0,0.0,0.0,0.0,0.0,0.0,0.0,-0.0009994507,0.0
80.21102779488994,40.8670003099283,66.45799378135096,-45.41201370062873,-17.69398661180117,0.47898758455037194,-79.57065681461356,-44.62679721830038,-71.2556555204432,70.0806017863977,14.241217007938145,42.44080581278072,0,37,0.0,0.0,0.0,0.0,0.0,0.0,0.0,0.0,0.0019989014,0.002998352,0.0,0.0
80.21099430257236,40.86701689977422,66.45797749992447,-45.41200263776564,-17.693993688296253,0.47899572956317527,-79.57097798654458,-44.626802986677426,-71.2533796589447,70.08432567776119,14.24155441242333,42.44091311522455,0,38,0.0,0.0,0.0,0.0,0.0,0.0,0.0,0.0,0.0,0.0,0.0,0.0
80.21097967236516,40.86700293839206,66.45799221407275,-45.41200342663143,-17.6939942638754,0.47900117868602327,-79.57092832412218,-44.62733625967949,-71.25249389049029,70.08329393228402,14.240975497683031,42.440916108091315,0,39,0.0,0.0,0.0,0.0,0.0,0.0,0.005996704,-0.002002716,0.0009994507,0.011001587,0.0009994507,-0.0040016174
80.21100912484344,40.86701380704056,66.45800804996672,-45.41199824394115,-17.69398445566944,0.47897898799852895,-79.56476829953411,-44.62834321385719,-71.25288830707808,70.09465210983339,14.241870241626227,42.43648908889722,0,40,0.0,0.0,0.0,0.0,0.0,0.0,0.004005432,0.002002716,0.0019989014,0.006996155,-0.0009994507,-0.0009994507
80.21103345126215,40.86699243810318,66.45798001678251,-45.412006040442016,-17.693997470918305,0.47899682428282364,-79.56018738964907,-44.62668588374331,-71.25076458036784,70.10188907395575,14.241075276963839,42.43529873816037,0,41,0.0,0.0,0.0,0.0,0.0,0.0,0.0,0.0,0.0,0.0,0.0,0.0
80.21097659363954,40.86695704624742,66.45798484008519,-45.411999002001544,-17.694024853750996,0.479017145892615,-79.5612875448975,-44.62725474611189,-71.25066417932943,70.10163990417414,14.241244125082574,42.43616212002172,0,42,0.0,0.0,0.0,0.0,0.0,0.0,0.12199402,0.11100006,-0.01599884,0.32700348,0.012999535,-0.25300217
80.21099780847348,40.86698766890852,66.4579921396966,-45.41199212315733,-17.693982861664434,0.4789765813888223,-79.43856640362806,-44.51579196419337,-71.26605083069879,70.42891528983444,14.254206763924891,42.181983531619885,0,43,0.0,0.0,0.0,0.0,0.0,0.0,0.0,0.0,0.0,0.0,0.0,0.0
80.21100823131817,40.86698005245385,66.45799993472824,-45.4119894243718,-17.693992650759192,0.4789788240337135,-79.43891628502665,-44.515944274166465,-71.26546174841934,70.42929700782629,14.25393793265026,42.18260107054668,0,44,0.0,0.0,0.0,0.0,0.0,0.0,0.35300446,0.25,0.006996155,1.6520004,0.25400066,-1.6119995
80.21101484520463,40.86698188425817,66.4579873806952,-45.41199527546575,-17.69398548256389,0.47898194026017055,-79.08575774993243,-44.26585881549173,-71.25950960952396,72.0810777501474,14.508373337596241,40.57022057822635,0,45,0.0,0.0,0.0,0.0,0.0,0.0,0.0,0.0,0.0,0.0,0.0,0.0
80.21098664187664,40.86697436780451,66.4579850491394,-45.41199342195109,-17.694003830408057,0.47901918648639,-79.08536412397899,-44.26597144092709,-71.25929476383538,72.08162159854851,14.508213694613547,40.56984904993785,0,46,0.0,0.0,0.0,0.0,0.0,0.0,0.0,0.0,0.0,0.0,0.0,0.0
80.21099031817141,40.86699188657432,66.4580059229213,-45.41198343852055,-17.693984095577047,0.47899560112469136,-79.08606714023456,-44.266083928880704,-71.25916003479473,72.08110847347957,14.507901650607689,40.570320721010454,0,47,0.0,0.0,0.0,0.0,0.0,0.0,0.6019974,0.30999756,0.41000366,3.165001,0.44299984,-2.986
80.21098918567776,40.866986413522376,66.45797204436533,-45.4119955769492,-17.694002027924515,0.47898775844555586,-78.48393764834684,-43.95599219728363,-70.84972789855719,75.246651687754,14.951076818100322,37.58389467032823,0,48,0.0,0.0,0.0,0.0,0.0,0.0,0.0,0.0,0.0,0.0,0.0,0.0
80.21099648539638,40.86698226766064,66.45800599023656,-45.411993774124916,-17.694025918534106,0.47898269018757955,-78.48435906557246,-43.95608768518731,-70.85002888967935,75.24283381644302,14.95077802861159,37.58727421677317,0,49,0.0,0.0,0.0,0.0,0.0,0.0,0.7030029,0.32300186,0.673996,3.6169968,0.5789995,-3.3519974
80.21098790727892,40.86699124206618,66.45803555107632,-45.41198404951789,-17.693991138356235,0.4790211599280523,-77.78051470435517,-43.63254631635903,-70.1753793557128,78.86215798390432,15.52972666025065,34.232734529511426,0,50,0.0,0.0,0.0,0.0,0.0,0.0,0.50499725,0.22700119,0.5110016,2.6259995,0.4680004,-2.710001
80.2110003955228,40.86699062701726,66.45798230791208,-45.41200806782948,-17.693996587872498,0.4790196563703218,-77.27575396917464,-43.40587648379149,-69.6634351104873,81.48877776313444,15.997073299622931,31.522072972683024,0,51,0.0,0.0,0.0,0.0,0.0,0.0,0.1760025,0.08099747,0.18900299,0.9790039,0.17299938,-0.9730015
80.21099683349253,40.86702000353085,66.45796727033229,-45.41200083296684,-17.69398004962124,0.47898332577591257,-77.09911132041937,-43.32458999215041,-69.47634595850397,82.46708865291767,16.171007495915564,30.54950810707158,0,52,0.0,0.0,0.0,0.0,0.0,0.0,0.0,0.0,0.0,0.0,0.0,0.0
80.21099120987412,40.86697641495576,66.45800440574148,-45.41200286397611,-17.693987160302072,0.4789943099763501,-77.09947787394037,-43.324670330012054,-69.4753632013559,82.46710970346818,16.17071680782532,30.549754865926573,0,53,0.0,0.0,0.0,0.0,0.0,0.0,0.39099884,0.1780014,0.30099487,1.947998,0.30800056,-1.7609997
80.2109969838166,40.86696974811728,66.45797769467603,-45.41201422630432,-17.69401909075131,0.47901350513909624,-76.70855520352042,-43.14683677925947,-69.17464961930145,84.41590502851709,16.47901044221544,28.78810688213033,0,54,0.0,0.0,0.0,0.0,0.0,0.0,0.10900116,0.077999115,0.007003784,0.34700012,0.070999146,-0.39099884
80.210993413094,40.86700067713193,66.45799706109102,-45.41202464689295,-17.693982218058718,0.4790077298485772,-76.59992392786953,-43.06894289149035,-69.16808810262329,84.76068083329336,16.54996787083218,28.39952073286902,0,55,0.0,0.0,0.0,0.0,0.0,0.0,0.0,0.0,0.0,0.0,0.0,0.0
80.21099577817365,40.86698834071306,66.45799514764457,-45.41200788499771,-17.694000994271224,0.47899019358596073,-76.59997215164624,-43.06849071347557,-69.16823389249586,84.76208364171119,16.549652012077345,28.39753083982612,0,56,0.0,0.0,0.0,0.0,0.0,0.0,0.03299713,0.1780014,-0.36800385,-0.58599854,0.049001694,0.60699844
80.2110058507519,40.86700133660087,66.45798283539997,-45.41198235330803,-17.6940041600563,0.4789865514508416,-76.56701187847122,-42.890525125883386,-69.53525569258656,84.17653657338695,16.599102302080095,29.00498876028164,0,57,0.0,0.0,0.0,0.0,0.0,0.0,0.0,0.0,0.0,0.0,0.0,0.0
80.21100134940126,40.86698237435524,66.45800120730561,-45.4119844727015,-17.693997477201695,0.4789900832891376,-76.56666716453847,-42.8905370742461,-69.53475966597127,84.17581857240312,16.598665610426387,29.0047215007193,0,58,0.0,0.0,0.0,0.0,0.0,0.0,0.0,0.0,0.0,0.0,0.0,0.0
80.21099710348071,40.866990059028524,66.45798796814381,-45.41199312607608,-17.69400407141014,0.4789995264128205,-76.56748775553719,-42.89009660058485,-69.53605440626865,84.17523849414296,16.598580102401836,29.00596185694064,0,59,0.0,0.0,0.0,0.0,0.0,0.0,-0.0019989014,0.25499725,-0.8319931,-1.7580032,0.078998566,1.8660011
80.21099070161489,40.86699217930577,66.45797552106268,-45.412003434618974,-17.6939833265086,0.47899875178114937,-76.56843707773241,-42.635720985614185,-70.36826339139692,82.41869464125385,16.677577505525655,30.869881465011026,0,60,0.0,0.0,0.0,0.0,0.0,0.0,0.024002075,0.34900284,-0.94400024,-1.6549988,0.15299988,1.7580013
80.2110204832823,40.8669520222193,66.45796197372059,-45.41201742013532,-17.694000959770374,0.4790210767784627,-76.54471527037136,-42.28632273928347,-71.3121002054712,80.7631251061802,16.8306787647171,32.629406183994035,0,61,0.0,0.0,0.0,0.0,0.0,0.0,0.0,0.0,0.0,0.0,0.0,0.0
80.21101815255432,40.86698268044962,66.45800600789066,-45.41200865785857,-17.693974655570358,0.4789836094216188,-76.54494243951261,-42.28622059648253,-71.31326209305263,80.76017906507796,16.831126877769673,32.631570955488336,0,62,0.0,0.0,0.0,0.0,0.0,0.0,0.09299469,0.45699692,-0.9730072,-1.5780029,0.17100143,1.7029991
80.21100582039027,40.866998782143156,66.45797050930861,-45.41200727210417,-17.69399691525023,0.47900015830616516,-76.45157792422566,-41.82978306993004,-72.28498360440565,79.18595065568165,17.001959086683012,34.33149108637257,0,63,0.0,0.0,0.0,0.0,0.0,0.0,0.0,0.0,0.0,0.0,0.0,0.0
80.2110045857132,40.86699360677667,66.45799712204924,-45.412005952517426,-17.69397871637138,0.47901757569522274,-76.45222306615207,-41.82986738918491,-72.28480136288086,79.18478754116518,17.002090518450217,34.33159810716012,0,64,0.0,0.0,0.0,0.0,0.0,0.0,0.055999756,0.269001,-0.56599426,-0.8389969,0.12799835,0.9049988
80.21097774155919,40.86697299577662,66.45800370582018,-45.41201011567993,-17.69400942963264,0.47901338487088546,-76.39620500951287,-41.560719133872645,-72.85116542612032,78.34553450462167,17.130032698799464,35.237272119753264,0,65,0.0,0.0,0.0,0.0,0.0,0.0,0.022003174,0.054000854,-0.103004456,-0.15499878,0.022001266,0.1819992
80.21098115722933,40.8669695002608,66.45799358155031,-45.41199389474925,-17.693998317389926,0.4790039647435756,-76.3734796331492,-41.506712837653865,-72.95374275878106,78.19179387771615,17.152301767982717,35.41839653409318,0,66,0.0,0.0,0.0,0.0,0.0,0.0,0.041000366,0.02999878,-0.055000305,-0.07299805,0.027000427,0.10200119
80.21098583822157,40.86699420412021,66.45800220009961,-45.41198624756002,-17.693998977887617,0.478992266657597,-76.33368719934349,-41.477650088461594,-73.00829060943546,78.11763029674567,17.178659142747655,35.521269333130896,0,67,0.0,0.0,0.0,0.0,0.0,0.0,0.0,0.0,0.0,0.0,0.0,0.0
80.21099098215993,40.86697866191885,66.45798067062812,-45.411995989408155,-17.69398659039662,0.478992676923892,-76.33291774000863,-41.477291564516925,-73.00821957129821,78.11890223956529,17.179027628517478,35.52001141101767,0,68,0.0,0.0,0.0,0.0,0.0,0.0,0.10800171,0.0,0.07700348,0.27799988,0.060998917,-0.27700043
80.21098989610651,40.86698104194814,66.45801451936873,-45.412000251822136,-17.693982225166224,0.47899379553161425,-76.22473732097404,-41.477288609077725,-72.93071415896031,78.39692819527403,17.239596838000853,35.24319993262375,0,69,0.0,0.0,0.0,0.0,0.0,0.0,0.0,0.0,0.0,0.0,0.0,0.0
80.21099796609897,40.86696474757449,66.45798673663082,-45.41201001193871,-17.693992676034462,0.4790114373552041,-76.22463632688803,-41.47647530695644,-72.93154541172058,78.3970382743486,17.240092675399776,35.24338661483848,0,70,0.0,0.0,0.0,0.0,0.0,0.0,0.099998474,-0.0009994507,0.07699585,0.22499847,0.083999634,-0.18399811
80.21098747090765,40.867010927830336,66.45799377251319,-45.41198384463086,-17.693978745785852,0.47898541924153504,-76.12472007101353,-41.47746242039968,-72.85529716293215,78.62179517661768,17.324145498985036,35.05943474155643,0,71,0.0,0.0,0.0,0.0,0.0,0.0,0.12799835,0.11000061,-0.28899384,-0.17900085,0.11100006,0.25499725
80.21100438236252,40.86696379045552,66.45799446933943,-45.41200125556126,-17.694007686914496,0.47900293396908655,-75.9967230100909,-41.36776993774952,-73.14391156798821,78.44236177668843,17.43500848374665,35.31461843504353,0,72,0.0,0.0,0.0,0.0,0.0,0.0,0.05000305,0.12400055,-0.23600006,-0.2480011,0.058000565,0.23200226
80.21100054229684,40.866984571877175,66.45800424353676,-45.41198573551771,-17.693990549768415,0.47901544979835164,-75.94729926733672,-41.243865975945944,-73.37979666830292,78.19385621457057,17.49272754393643,35.547301886232155,0,73,0.0,0.0,0.0,0.0,0.0,0.0,0.0,0.0,0.0,0.0,0.0,0.0
80.2109790293598,40.8669867339399,66.45798746068445,-45.41199911268991,-17.694011830193883,0.4790126646115245,-75.94724781876502,-41.24371746916966,-73.3810583916079,78.19359972363662,17.493436718162165,35.54799375661722,0,74,0.0,0.0,0.0,0.0,0.0,0.0,0.13399506,0.41500092,-0.7030029,-0.7900009,0.23200035,0.9129982
80.21099161958293,40.86694428291967,66.45798851539176,-45.411975543059064,-17.69398977464778,0.4789916947477987,-75.81284761764914,-40.829136129372834,-74.08225610132318,77.40406639144473,17.72497066327592,36.46018879899776,0,75,0.0,0.0,0.0,0.0,0.0,0.0,0.0,0.0,0.0,0.0,0.0,0.0
80.21102122352731,40.866995316373696,66.45797215254781,-45.411987508333674,-17.694006393281697,0.478985677459084,-75.81277855653744,-40.828488527611896,-74.08344273444773,77.40324992633185,17.725090346741098,36.46072336112341,0,76,0.0,0.0,0.0,0.0,0.0,0.0,0.2250061,0.8120003,-1.5179977,-1.6819992,0.39699936,1.901001
80.21099459229076,40.86699437500608,66.4580077807728,-45.41199607712206,-17.69398673532854,0.47899548912370815,-75.58825650121607,-40.01714727028532,-75.60129528079477,75.72098609692395,18.121888173995444,38.36205478029505,0,77,0.0,0.0,0.0,0.0,0.0,0.0,0.04499817,0.15999985,-0.28900146,-0.34500122,0.07600021,0.37099838
80.21099618049715,40.86699837475939,66.45799370140087,-45.4120066733436,-17.6939739570698,0.4789924328001575,-75.54281955134893,-39.85762195546791,-75.88839962192833,75.38055979059409,18.197640129795587,38.72849719085285,0,78,0.0,0.0,0.0,0.0,0.0,0.0,0.03199768,0.11999893,-0.19100189,-0.24299622,0.042999268,0.23600006
80.21097112118424,40.86699578704165,66.45799528054202,-45.411986267834685,-17.693998830233983,0.47899287964902776,-75.510641922812,-39.73708047410011,-76.08082934128647,75.1342435617927,18.24087439509793,38.9678017119298,0,79,0.0,0.0,0.0,0.0,0.0,0.0,0.041000366,0.144001,-0.23400116,-0.3010025,0.07100105,0.37900162
80.21099328936899,40.866993794154105,66.45799142309541,-45.411985000178205,-17.693986529550273,0.4790017641582513,-75.46988696896986,-39.59262196109744,-76.3151856083842,74.83270846061752,18.31186015893638,39.34703570811764,0,80,0.0,0.0,0.0,0.0,0.0,0.0,0.008003235,0.0099983215,-0.022994995,-0.040000916,0.0049991608,0.03699875
80.21099327306574,40.866983576530195,66.45798082557243,-45.4119872898609,-17.694001138119866,0.4790173405658738,-75.4616039156545,-39.58346911760501,-76.33713975875001,74.79236475638314,18.317381730952253,39.38459375009501,0,81,0.0,0.0,0.0,0.0,0.0,0.0,0.0019989014,0.0,0.0009994507,0.0019989014,0.001001358,0.0
80.21098035167992,40.86701594252846,66.45798232571066,-45.41198092117959,-17.6939938031779,0.47898298416825247,-75.459902882252,-39.58249523206562,-76.33730703593251,74.79522727329736,18.317867911023583,39.3840106764371,0,82,0.0,0.0,0.0,0.0,0.0,0.0,0.0,-0.013000488,0.06299591,0.07400513,0.0,-0.062000275
80.21100828837211,40.86698775585798,66.45798630008802,-45.41198727176772,-17.694005527076122,0.47900892979358745,-75.4599563865379,-39.59592197953419,-76.27306168628013,74.87110323660197,18.317844826563572,39.32019348598442,0,83,0.0,0.0,0.0,0.0,0.0,0.0,-0.0019989014,-0.01599884,0.0490036,0.04399872,0.0,-0.055000305
80.21100392798198,40.866992397091465,66.45799385455527,-45.41198195088758,-17.693989639661144,0.47899884779327906,-75.46210550895479,-39.611979953070566,-76.22458333103015,74.91252318612513,18.31793761784994,39.26887985910027,0,84,0.0,0.0,0.0,0.0,0.0,0.0,-0.004005432,-0.02999878,0.058998108,0.0779953,0.0,-0.06799698
80.21100525168929,40.86698558723778,66.45799484148772,-45.411978406443346,-17.69399915104865,0.4789927474358478,-75.46608695356657,-39.64225952222744,-76.165545296716,74.99200276998603,18.31784838734746,39.19883833239624,0,85,0.0,0.0,0.0,0.0,0.0,0.0,-0.0109939575,-0.058002472,0.09799957,0.10600281,-0.001001358,-0.13600159
80.21098821298922,40.866976864078396,66.45801599343369,-45.41199480004609,-17.693995781274772,0.47902225656441466,-75.47759370784308,-39.69931188673897,-76.06876313083735,75.09658766937613,18.31730268717407,39.06440047272463,0,86,0.0,0.0,0.0,0.0,0.0,0.0,-0.007003784,-0.03199768,0.056999207,0.051002502,0.0,-0.05199814
80.21100324025454,40.86696714172929,66.45796691946175,-45.41200385825007,-17.693993198971096,0.47900587323883786,-75.48386202068387,-39.73160052928784,-76.0110531927713,75.14739217523099,18.31726690445957,39.011565874107,0,87,0.0,0.0,0.0,0.0,0.0,0.0,-0.017997742,-0.061000824,0.07299805,0.10399628,-0.0030002594,-0.13199997
80.2110119154215,40.86696932849861,66.45796969428191,-45.411985929777046,-17.69401009432221,0.47899153424910323,-75.50169984817049,-39.79280066146796,-75.93845627286255,75.2517075526061,18.31394529030797,38.8789676669058,0,88,0.0,0.0,0.0,0.0,0.0,0.0,-0.007003784,-0.032001495,0.0490036,0.06500244,-0.0059986115,-0.061000824
80.21101917269739,40.86698237828562,66.45799902318716,-45.4119851624053,-17.694000555157267,0.47899917375282436,-75.50859221445074,-39.82370881245391,-75.89062287866444,75.31696518623924,18.308631493973472,38.81867708866007,0,89,0.0,0.0,0.0,0.0,0.0,0.0,-0.01599884,-0.04499817,0.09600067,0.10900116,-0.01099968,-0.11000061
80.21098883519132,40.86697780379033,66.45796781492145,-45.4120040240943,-17.693994153312886,0.47898004828444735,-75.52517057291911,-39.86989660257272,-75.79347418656172,75.42529543253376,18.297110746585126,38.70876858035451,0,90,0.0,0.0,0.0,0.0,0.0,0.0,-0.012001038,-0.035999298,0.039001465,0.04899597,-0.009000778,-0.055999756
80.21099359300781,40.86698784828536,66.45798315519289,-45.41198040016153,-17.694012768682693,0.47898531140213324,-75.53697294153498,-39.9058050043619,-75.75395064459101,75.47553067873044,18.28826582358831,38.65167443192888,0,91,0.0,0.0,0.0,0.0,0.0,0.0,-0.0049972534,-0.027000427,0.02999878,0.038002014,-0.013999939,-0.04399872
80.21098873770646,40.866985566086804,66.45799461969334,-45.411995501854285,-17.693992983704348,0.47899544519590453,-75.54209369247441,-39.93316312740699,-75.72454066800303,75.51241759720513,18.274351976970163,38.608670389929884,0,92,0.0,0.0,0.0,0.0,0.0,0.0,0.0,0.0,0.0,0.0,0.0,0.0
80.21101196876134,40.86700001063751,66.45800427482787,-45.411999331292265,-17.694001061414248,0.4789894416672574,-75.54273481508181,-39.932726363243034,-75.72449669617524,75.51208996668751,18.274341067016564,38.60925044707049,0,93,0.0,0.0,0.0,0.0,0.0,0.0,-0.01499939,-0.053001404,0.08899689,0.09700012,-0.035999298,-0.11200333
80.21099825387456,40.86700759721531,66.45801219657984,-45.41199184128104,-17.694008686872397,0.47899727701514827,-75.55716308282972,-39.98551095949602,-75.63593197378466,75.60937416876169,18.238081084673837,38.49681299563081,0,94,0.0,0.0,0.0,0.0,0.0,0.0,-0.0039978027,-0.01599884,0.02999878,0.040000916,-0.015001297,-0.041999817
80.21101905854476,40.867007584357665,66.45799852839666,-45.41200198588896,-17.693989723411104,0.47898408414954186,-75.561256072129,-40.00129923984909,-75.60675180699326,75.64851770943083,18.22366160285245,38.45630740363402,0,95,0.0,0.0,0.0,0.0,0.0,0.0,0.0,0.0,0.0,0.0,0.0,0.0
80.21097165308356,40.86699934223384,66.45796162161201,-45.411986201115134,-17.69402271472799,0.4790013958489751,-75.56124597777675,-40.00070542914524,-75.60616193624833,75.64980997784579,18.22327934233251,38.4542096663352,0,96,0.0,0.0,0.0,0.0,0.0,0.0,-0.0020065308,0.017997742,-0.04799652,-0.03300476,-0.0069999695,0.029003143
80.21100059583806,40.8669938824777,66.45799234847672,-45.41200176738543,-17.694006949836343,0.47900172162137045,-75.56326379122234,-39.98376237358782,-75.6529377097758,75.61629990309984,18.215783179468247,38.48331893822372,0,97,0.0,0.0,0.0,0.0,0.0,0.0,0.0010070801,0.048000336,-0.11199951,-0.102996826,0.0030002594,0.12099838
80.21099559979247,40.86697819422758,66.45800105270389,-45.412000163261744,-17.694006269702122,0.47899805100962384,-75.56173170198556,-39.93600058028841,-75.76486343367392,75.51380410770922,18.21949317380818,38.60431965343923,0,98,0.0,0.0,0.0,0.0,0.0,0.0,0.01499939,0.19900131,-0.38500214,-0.40499878,0.01099968,0.40000153
80.21098844972578,40.86700112940185,66.45796275535953,-45.411982037169544,-17.69400243989497,0.4789802042617114,-75.54682593334105,-39.73653438043738,-76.15029064637109,75.10955571298912,18.23026270124869,39.003277153766575,0,99,0.0,0.0,0.0,0.0,0.0,0.0,0.0,0.0,0.0,0.0,0.0,0.0
80.21099809517885,40.86697224900023,66.45799453248657,-45.41199248106079,-17.69398984555874,0.4789950386362509,-75.54689033616506,-39.736825110265514,-76.15032319474722,75.10876179532497,18.230316098946666,39.004141999810585,0,100,0.0,0.0,0.0,0.0,0.0,0.0,0.13699341,0.7649994,-1.3699951,-1.4820023,0.28300095,1.6549988
80.21099382377422,40.86696989178879,66.45799773912302,-45.41198351908034,-17.693995899705044,0.47899119118339806,-75.40979974581465,-38.97205618417957,-77.5199575127355,73.62622182660184,18.513194310618864,40.65988569501142,0,101,0.0,0.0,0.0,0.0,0.0,0.0,0.15100098,0.7200012,-1.364006,-1.3509979,0.32699966,1.4759979
80.2109992465236,40.867006710172,66.45797775478404,-45.41198762881817,-17.69399469219386,0.4789935433830382,-75.25901385538387,-38.25160987800616,-78.88450449737681,72.27672946337582,18.840088008312392,42.13456336686989,0,102,0.0,0.0,0.0,0.0,0.0,0.0,0.09799957,0.4679985,-0.8460007,-0.81700134,0.2519989,0.97800064
80.2109969448288,40.86699771451853,66.4580042714065,-45.41200981868621,-17.693992091850607,0.4789854850474732,-75.16141462769004,-37.783540116604186,-79.73161277798441,71.45771569311576,19.092293652523885,43.11468290098183,0,103,0.0,0.0,0.0,0.0,0.0,0.0,0.059005737,0.26800156,-0.48299408,-0.45999908,0.15400124,0.545002
80.21098413365125,40.86700749256422,66.45798924027324,-45.41198189089518,-17.694000099771745,0.47898254304062443,-75.1017641824736,-37.514820266941484,-80.21547337998017,70.99847396559652,19.246725625160447,43.65843862100163,0,104,0.0,0.0,0.0,0.0,0.0,0.0,0.20700073,0.79999924,-1.491005,-1.2919998,0.4470005,1.5039978
80.21099416444542,40.866994224189774,66.45795683338446,-45.41199447043095,-17.694010315877943,0.4790126172287879,-74.89478510833666,-36.7157585112764,-81.70417614965494,69.70681947842341,19.69296436712606,45.16211770610966,0,105,0.0,0.0,0.0,0.0,0.0,0.0,0.0,0.0,0.0,0.0,0.0,0.0
80.21099939738465,40.86698421885313,66.45801297515355,-45.411992838596944,-17.69401656646133,0.4789973713172912,-74.89494751072519,-36.71651451725329,-81.7024649675479,69.70705882550979,19.692531435737468,45.16237394452613,0,106,0.0,0.0,0.0,0.0,0.0,0.0,0.3149948,1.2919998,-2.276001,-1.9039993,0.69199944,2.2040024
80.21099046393117,40.86699785210616,66.45799723531437,-45.41200300059885,-17.69400868765363,0.4789869613516932,-74.58004677157695,-35.42361756930525,-83.98065415077198,67.80427355097544,20.38513627079396,47.36488627934018,0,107,0.0,0.0,0.0,0.0,0.0,0.0,0.2519989,0.89699936,-1.635994,-1.4100037,0.52400017,1.6520004
80.21098673661601,40.86699264371364,66.45798407814662,-45.41200457223722,-17.69401411558821,0.47900320198089497,-74.3277622082903,-34.52586753062898,-85.61598651103533,66.39399819047222,20.909559184691524,49.01799143998253,0,108,0.0,0.0,0.0,0.0,0.0,0.0,0.070999146,0.26800156,-0.4830017,-0.40100098,0.16399956,0.48999786
80.21099509331012,40.86699897564084,66.45795811674009,-45.411996628526005,-17.694004945789715,0.4789991952767023,-74.2573786960688,-34.258338155608186,-86.10170125841397,65.98727883111155,21.073767230860987,49.512527639984384,0,109,0.0,0.0,0.0,0.0,0.0,0.0,0.08200073,0.33099747,-0.6170044,-0.5339966,0.17399979,0.5229988
80.21099028907017,40.8669907224726,66.45799402683951,-45.41199849047383,-17.6940129750315,0.47899747914270924,-74.1748637077997,-33.92797071523891,-86.71518328618733,65.46249295517819,21.246758452514964,50.02751973675097,0,110,0.0,0.0,0.0,0.0,0.0,0.0,0.103004456,0.3959999,-0.7579956,-0.74700165,0.22900009,0.94400024
80.210985438844,40.86700083558525,66.45798689110715,-45.41200331534781,-17.694017330685785,0.47902087117545916,-74.07248699441419,-33.531178214367436,-87.4746920714913,64.71146714571617,21.476260234639035,50.97456961956282,0,111,0.0,0.0,0.0,0.0,0.0,0.0,0.01499939,0.07800293,-0.16899872,-0.1969986,0.045999527,0.20800018
80.21100195196915,40.86700099201746,66.45800759567567,-45.412002981573416,-17.693993598037295,0.4789919200083078,-74.05715213061413,-33.45332856529516,-87.64311074254998,64.51466668714623,21.521584251492406,51.18318462798008,0,112,0.0,0.0,0.0,0.0,0.0,0.0,0.005996704,0.0379982,-0.083999634,-0.11899567,0.029001236,0.15600204
80.21099674451821,40.866989664528504,66.45800908027135,-45.411993811834584,-17.693985734885864,0.47899986919558657,-74.05129991892977,-33.41553110471921,-87.7288075692483,64.3920871777245,21.55159236116417,51.34173365569696,0,113,0.0,0.0,0.0,0.0,0.0,0.0,0.0,0.00799942,-0.0009994507,-0.08200073,0.01199913,0.078998566
80.21098966289387,40.866974447952245,66.45799544535704,-45.41199820209693,-17.693990001401758,0.4789875752874972,-74.05187363936075,-33.4082363587202,-87.72780835685892,64.30933053678864,21.562990431387973,51.42076454464979,0,114,0.0,0.0,0.0,0.0,0.0,0.0,-0.0019989014,-0.025997162,0.069000244,0.005996704,-0.0009994507,-0.01599884
80.21099787702771,40.86699897609299,66.45797560360072,-45.41200711052593,-17.69401109279783,0.47901612283718825,-74.05342613342721,-33.43385147079643,-87.6591621242557,64.31842894178037,21.562311192251645,51.402651964759045,0,115,0.0,0.0,0.0,0.0,0.0,0.0,-0.038002014,-0.17100143,0.33599854,0.15000153,-0.017999649,-0.18999863
80.21098633115642,40.866996145654554,66.45798869360888,-45.41199668946371,-17.693999208192086,0.4789761942386949,-74.09105657679817,-33.60439247034884,-87.32349434842895,64.46933342491441,21.54466471980451,51.21231489078689,0,116,0.0,0.0,0.0,0.0,0.0,0.0,-0.01499939,-0.069000244,0.11299896,0.08100128,-0.026000977,-0.10700226
80.21098639132781,40.86699626779473,66.4580062110437,-45.41201197628717,-17.694013618801293,0.47901938126965476,-74.10633346997288,-33.67389025106732,-87.2099950108217,64.54866215091229,21.517975865660464,51.10584945208833,0,117,0.0,0.0,0.0,0.0,0.0,0.0,-0.03199768,-0.11000061,0.17900085,0.13999939,-0.062000275,-0.17300034
80.21099152228545,40.86700463930794,66.45798156078516,-45.41199049238657,-17.69399676528414,0.4789769205875383,-74.13854696545704,-33.784029752123274,-87.0308232467892,64.6897445919334,21.456304318032625,50.93195949033279,0,118,0.0,0.0,0.0,0.0,0.0,0.0,-0.011001587,-0.041000366,0.05999756,0.040000916,-0.031999588,-0.0739975
80.21098029817227,40.86697246312403,66.45800758762098,-45.41202887161032,-17.693974426433535,0.47899607159034957,-74.14883961298165,-33.82468672428947,-86.97151770300813,64.7294416294315,21.42445459574104,50.857720433442196,0,119,0.0,0.0,0.0,0.0,0.0,0.0,-0.0049972534,-0.02199936,0.020004272,0.020996094,-0.02199936,-0.026000977
80.21099161235983,40.86699583790636,66.45803474660833,-45.41199282383191,-17.6940182878868,0.47898393244200066,-74.15434196122497,-33.8475107510026,-86.95154338281995,64.75045404933671,21.40260727557348,50.83318143266088,0,120,0.0,0.0,0.0,0.0,0.0,0.0,-0.0049972534,-0.0040016174,0.0019989014,0.008003235,-0.0069999695,-0.0030021667
80.21099066571566,40.86701567659744,66.457944189732,-45.411994425602586,-17.694012557493625,0.4789965838881047,-74.15840003803203,-33.851337407161324,-86.94761393436463,64.7594830888828,21.39499299179991,50.82792443623339,0,121,0.0,0.0,0.0,0.0,0.0,0.0,0.0,0.0,-0.0019989014,0.0,0.0,-0.0009994507
80.2109900515356,40.866983413587135,66.45798714721222,-45.411974152717974,-17.693983557099738,0.4789813646866144,-74.15896530629887,-33.850219914271136,-86.95211360701322,64.7579697292745,21.395339742024646,50.82842316102845,0,122,0.0,0.0,0.0,0.0,0.0,0.0,0.0,0.0,0.0,0.0,0.0,0.0
80.21100054237144,40.866997370404974,66.45799910367423,-45.411980018161174,-17.693996493476195,0.4790095355628473,-74.15907004015511,-33.850548260554625,-86.95166324817035,64.75874113305268,21.395197708752796,50.82806192071947,0,123,0.0,0.0,0.0,0.0,0.0,0.0,-0.0010070801,0.0040016174,-0.027000427,0.0,0.0,0.0009994507
80.21100276031532,40.86700887988853,66.45796559727961,-45.41199012451685,-17.694001936175816,0.4789829543473148,-74.16021785093166,-33.846781121721015,-86.97777345874219,64.76020443271554,21.394914447164187,50.82811492618307,0,124,0.0,0.0,0.0,0.0,0.0,0.0,0.0,0.02299881,-0.073005676,-0.018005371,-0.001001358,0.022003174
80.21097471005224,40.86700539018998,66.4579855225286,-45.411982446540875,-17.694003599585255,0.47900674408517085,-74.15986835439575,-33.82377551776589,-87.05118383324574,64.7414464314632,21.39432404815685,50.85114838995107,0,125,0.0,0.0,0.0,0.0,0.0,0.0,0.0,0.0,0.0,0.0,0.0,0.0
80.21098069328944,40.866992648345075,66.45798197463317,-45.41197723439883,-17.693994210466574,0.4789954691436426,-74.16023637683615,-33.82379360177432,-87.05236774765203,64.73974424116723,21.394542498557566,50.85287920006404,0,126,0.0,0.0,0.0,0.0,0.0,0.0,0.0030059814,0.10300064,-0.29100037,-0.32099915,0.011001587,0.37099838
80.21099871981693,40.86698649904921,66.4579881387612,-45.41201391615091,-17.694007887341623,0.47900934505676346,-74.15616273729529,-33.72043066173818,-87.34207247080086,64.42085161759783,21.40527017106887,51.221252278443465,0,127,0.0,0.0,0.0,0.0,0.0,0.0,0.0,0.0,0.0,0.0,0.0,0.0
80.21101942633757,40.866989125253184,66.45799689904665,-45.41201017338271,-17.694002959760763,0.4789814029761465,-74.15647545577393,-33.720576443698796,-87.34231214571403,64.42027281024676,21.405268851153423,51.22191219911576,0,128,0.0,0.0,0.0,0.0,0.0,0.0,0.0,0.27899933,-0.7029953,-0.89699936,0.1439991,0.91199875
80.2109929705512,40.86699739692946,66.45797709927903,-45.41197680420841,-17.69401189525775,0.47899037628535046,-74.1571347467983,-33.44112106127563,-88.04591460822955,63.52359937999185,21.54901872027409,52.133378246900314,0,129,0.0,0.0,0.0,0.0,0.0,0.0,0.0,0.0,0.0,0.0,0.0,0.0
80.2109702848257,40.86700780392211,66.45797963974547,-45.412005218990224,-17.694002914893247,0.47901050581354887,-74.15726962619131,-33.44124462891927,-88.04612286167718,63.52217236836346,21.549769454261043,52.135009496892174,0,130,0.0,0.0,0.0,0.0,0.0,0.0,-0.011001587,0.5660019,-1.4049988,-1.7360001,0.41399956,1.8759995
80.21099903894422,40.867007740573584,66.45799515649259,-45.41198864784905,-17.69400055532134,0.4789908069717349,-74.16908980238274,-32.87627906425267,-89.45036156068122,61.78450374725468,21.962675056439522,54.01274792711998,0,131,0.0,0.0,0.0,0.0,0.0,0.0,-0.057998657,0.5699997,-1.4200058,-1.7219963,0.46700096,1.7630005
80.21099320468025,40.867004954693165,66.4580032529536,-45.41200596990955,-17.693986087868886,0.47897974431374163,-74.22576898090664,-32.30582710636328,-90.86982255849148,60.06496896524562,22.430088517204208,55.77262343253748,0,132,0.0,0.0,0.0,0.0,0.0,0.0,0.0,0.0,0.0,0.0,0.0,0.0
80.21100798750021,40.867001595017925,66.45798110355564,-45.41199714258385,-17.694012664672993,0.4789872590818913,-74.2258748545361,-32.30531549719348,-90.86970544719152,60.065290932610246,22.430209261347116,55.77252948404156,0,133,0.0,0.0,0.0,0.0,0.0,0.0,-0.06700134,0.39500046,-1.1689987,-1.4500008,0.46500015,1.6480026
80.21099214099627,40.86698529237892,66.45799657983545,-45.41200144647753,-17.694005646248005,0.47899595199149714,-74.2932274528796,-31.9099860637699,-92.03978404472986,58.61311196319767,22.895418599647943,57.42292824138024,0,134,0.0,0.0,0.0,0.0,0.0,0.0,0.0,0.0,0.0,0.0,0.0,0.0
80.21098848658336,40.8669954915181,66.45800267620913,-45.4120154337633,-17.69399630863262,0.4790127651010366,-74.29307069782753,-31.91025029559531,-92.03988515799064,58.613134720972894,22.89571323518173,57.422915885054586,0,135,0.0,0.0,0.0,0.0,0.0,0.0,0.0,0.0,0.0,0.0,0.0,0.0
80.21100138187725,40.86702874645401,66.45798297970542,-45.41199513717451,-17.694008935910976,0.47898149112261695,-74.29481612447081,-31.9117238271618,-92.04202480228687,58.602891268686605,22.897694094337762,57.43313960823756,0,136,0.0,0.0,0.0,0.0,0.0,0.0,-0.31700134,0.7199993,-2.7770004,-3.9700012,1.1219997,4.1139984
80.21097023620867,40.867019390846124,66.45800262449515,-45.412006305491126,-17.694001342538908,0.4790085778276544,-74.61040422192174,-31.19007957479948,-94.8178293630826,54.64302768702671,24.017609785573686,61.53677418089294,0,137,0.0,0.0,0.0,0.0,0.0,0.0,0.0,0.0,0.0,0.0,0.0,0.0
80.21100293176055,40.86699148456499,66.45799692542384,-45.41196647869476,-17.69400200882636,0.479004234907026,-74.61188430523283,-31.190003137180582,-94.82202232586143,54.633402756881715,24.0208729329222,61.547500828245745,0,138,0.0,0.0,0.0,0.0,0.0,0.0,-0.13199615,0.15500069,-0.7519989,-1.269001,0.2989998,1.3849983
80.2109955073744,40.86700252847909,66.45798924390716,-45.4120039500808,-17.6939917064121,0.4789920321696387,-74.74241206327656,-31.035741927501455,-95.56987194775486,53.37268375762474,24.317492127858046,62.92374530066543,0,139,0.0,0.0,0.0,0.0,0.0,0.0,-0.022003174,0.024999619,-0.116996765,-0.27899933,0.048000336,0.23600006
80.21100342953937,40.86700594048827,66.45803172007962,-45.41200462118428,-17.6939758180313,0.47900035481782866,-74.76436213586767,-31.010105639164145,-95.68745352553128,53.09400938963503,24.365362150860395,63.160465103877804,0,140,0.0,0.0,0.0,0.0,0.0,0.0,-0.013999939,0.0030002594,-0.07700348,-0.19900131,0.024999619,0.22900009
80.21099304343295,40.8670008946193,66.45794583326952,-45.411982679127036,-17.69399690889599,0.4789661121477248,-74.78017078803599,-31.00752421521664,-95.76728274836424,52.885589543010845,24.391995635845017,63.39795200295591,0,141,0.0,0.0,0.0,0.0,0.0,0.0,0.010002136,-0.0020008087,0.052001953,0.07400131,-0.0009994507,-0.03099823
80.21098493219758,40.86697199613009,66.45797705933381,-45.41197856995695,-17.694007878462838,0.4790032799061337,-74.76858726382241,-31.00913777677626,-95.71088181859628,52.971660149427734,24.38865360164251,63.355419465019644,0,142,0.0,0.0,0.0,0.0,0.0,0.0,0.037994385,0.0030002594,0.0759964,0.15100098,0.0009994507,-0.10499954
80.21098771466595,40.86699649448159,66.45798305160643,-45.412007542439156,-17.694025827389506,0.47899135901333817,-74.72997685841156,-31.00660333339457,-95.63562957492044,53.12142412158469,24.39018499041931,63.251547278388244,0,143,0.0,0.0,0.0,0.0,0.0,0.0,0.0,0.0,0.0,0.0,0.0,0.0
80.21100373221611,40.86697603034882,66.45797439414672,-45.412005799627785,-17.6940169374238,0.47897455052591353,-74.73100205174995,-31.006677905388987,-95.636326013099,53.1170305418823,24.390703660949473,63.25648771020528,0,144,0.0,0.0,0.0,0.0,0.0,0.0,0.07400513,0.0,-0.017997742,0.05999756,0.019001007,-0.031002045
80.21099491389225,40.86699097678028,66.45798993273092,-45.412001878124144,-17.693998683400263,0.47901279249718187,-74.65657865448246,-31.006436427768296,-95.65438039329318,53.17869659316014,24.40941814924616,63.22201233173946,0,145,0.0,0.0,0.0,0.0,0.0,0.0,0.028999329,0.042999268,-0.1989975,-0.14699936,0.09399986,0.1400032
80.21100770787625,40.866967694317196,66.4579664555573,-45.41199380229576,-17.693980415226978,0.47899814145316794,-74.62687812363949,-30.963476423108872,-95.85368226269657,53.03322345630185,24.50363459455437,63.36156559361242,0,146,0.0,0.0,0.0,0.0,0.0,0.0,0.0,0.22300148,-0.71700287,-0.7969971,0.29500008,0.8349991
80.21098563513566,40.86699232204503,66.45798461471468,-45.411982539609646,-17.694003652895262,0.47899249091313645,-74.62718946079927,-30.740287797171476,-96.56909218346472,52.237124656697766,24.797358797746856,64.19523096770467,0,147,0.0,0.0,0.0,0.0,0.0,0.0,0.0,0.0,0.0,0.0,0.0,0.0
80.21098851002768,40.86696370356946,66.45799138809485,-45.4120055750963,-17.693988016014195,0.4789957986991243,-74.62721451004565,-30.73989748343183,-96.57034830382977,52.235299729699214,24.79825381026796,64.19721519322114,0,148,0.0,0.0,0.0,0.0,0.0,0.0,-0.055000305,0.24300003,-0.89499664,-1.0920029,0.38499832,1.2269974
80.21100198078699,40.86701315312038,66.457987590402,-45.41198065520383,-17.693980835459065,0.47899009501875617,-74.68268799300219,-30.496832024673687,-97.46657962370524,51.14067190508351,25.18400905407509,65.42732254365805,0,149,0.0,0.0,0.0,0.0,0.0,0.0,-0.06300354,0.10899925,-0.45800018,-0.60699844,0.20700073,0.6500015
80.21099955814998,40.86700721950425,66.45796100611561,-45.41197413637743,-17.69400036350078,0.4789694921815251,-74.745174806106,-30.38850787952996,-97.92157549653064,50.538426437200116,25.389490436159,66.07127049916252,0,150,0.0,0.0,0.0,0.0,0.0,0.0,-0.125,0.13999939,-0.67100525,-1.0159988,0.29199982,0.9449997
80.21099342732765,40.86696892475809,66.45799502380675,-45.41198796699793,-17.693991973590936,0.47898306628117576,-74.87036087149247,-30.247967547336977,-98.59481468995308,49.518564067657884,25.682417303740138,67.02131845434003,0,151,0.0,0.0,0.0,0.0,0.0,0.0,0.0,0.0,0.0,0.0,0.0,0.0
80.21098805504676,40.86700373855397,66.45798003845928,-45.411963057889764,-17.693998398607885,0.47902500701919065,-74.87178243731896,-30.248806398753295,-98.59393588937648,49.51727643313856,25.681789797305587,67.02294882926238,0,152,0.0,0.0,0.0,0.0,0.0,0.0,-0.34899902,0.059000015,-0.9659958,-1.8600006,0.51799965,1.9069977
80.21100788607099,40.866966979878825,66.45801168752446,-45.41198493546487,-17.694018849014146,0.47900671242023496,-75.22046705741236,-30.19098033596905,-99.55937320821401,47.656195046799525,26.20037134403694,68.92989581680261,0,153,0.0,0.0,0.0,0.0,0.0,0.0,-0.40499878,-0.048000336,-0.6990051,-1.8100014,0.38199997,1.6720047
80.21099830940334,40.867015742243034,66.45796683953402,-45.41200575233641,-17.69400918976371,0.4790024896680662,-75.62418664322875,-30.237159004115544,-100.25822153522978,45.85277731870308,26.581524908112968,70.59549776583123,0,154,0.0,0.0,0.0,0.0,0.0,0.0,0.0,0.0,0.0,0.0,0.0,0.0
80.21100189543169,40.86697930596459,66.45796181380547,-45.41197364977632,-17.694014633995025,0.4790097165673995,-75.62461130811568,-30.238262727079626,-100.25615233958126,45.851493436498096,26.581198662273835,70.5963084220663,0,155,0.0,0.0,0.0,0.0,0.0,0.0,-0.45199585,-0.1989994,-0.57099915,-1.7469978,0.4050007,1.6520004
80.21101285727481,40.86697619102465,66.45796658816855,-45.41198328199699,-17.694001744086762,0.4789967127852575,-76.07762348495845,-30.436411444115652,-100.83284877197404,44.09712622613371,26.989344091353818,72.25738089820138,0,156,0.0,0.0,0.0,0.0,0.0,0.0,0.0,0.0,0.0,0.0,0.0,0.0
80.21099410762687,40.86698760854322,66.45802309447875,-45.41198069114407,-17.693998930753327,0.4790006220227713,-76.07631688888617,-30.43723175194968,-100.82798855539734,44.10624434547991,26.98590227209509,72.24654673770004,0,157,0.0,0.0,0.0,0.0,0.0,0.0,-0.54800415,-0.2819996,-0.6009979,-1.9000015,0.40799904,1.8079987
80.21100225185658,40.86697648560569,66.45793651761058,-45.411982117371345,-17.693997374053396,0.4789998288028897,-76.6265323773002,-30.72205573407472,-101.42996001515688,42.19454974575705,27.396241953648524,74.06611240050621,0,158,0.0,0.0,0.0,0.0,0.0,0.0,0.0,0.0,0.0,0.0,0.0,0.0
80.21100646910567,40.86698733836858,66.45796966663872,-45.411987539995806,-17.69399289577043,0.47900965797710654,-76.62500998775788,-30.721591266084374,-101.42806937718849,42.20207259003425,27.394894487820252,74.05950647918347,0,159,0.0,0.0,0.0,0.0,0.0,0.0,-0.28399658,-0.15500069,-0.29199982,-1.0979996,0.21300125,0.9720001
80.21100433023089,40.866983433537364,66.457981097716,-45.41200265491165,-17.69398168044654,0.47899244755214315,-76.90876103064609,-30.873439432425982,-101.72414791798566,41.10440534789968,27.608193823637244,75.03123801267122,0,160,0.0,0.0,0.0,0.0,0.0,0.0,-0.16900635,-0.12100029,-0.13700104,-0.62200165,0.084999084,0.58599854
80.21100662697634,40.866976640686126,66.45795942182097,-45.411963629995334,-17.69400513904595,0.4790073342662133,-77.07752589209487,-30.996395929114904,-101.8572889038551,40.4852299719177,27.692010986449393,75.61367593302508,0,161,0.0,0.0,0.0,0.0,0.0,0.0,0.0,0.0,0.0,0.0,0.0,0.0
80.2109834805552,40.86696260173485,66.45798277091784,-45.411996473425056,-17.69400218783962,0.4789989411790164,-77.07735756378727,-30.994750017192718,-101.85845957613225,40.485580897214376,27.692980235866184,75.61432646228786,0,162,0.0,0.0,0.0,0.0,0.0,0.0,-0.06299591,-0.056999207,0.011001587,-0.1819992,0.0030002594,0.15100098
80.21097509312283,40.86697765496531,66.4579805032848,-45.41198907932226,-17.69401091398967,0.47901080642814053,-77.14003184457356,-31.052065354596476,-101.84637001348494,40.30409057337021,27.695080715564394,75.76343749459035,0,163,0.0,0.0,0.0,0.0,0.0,0.0,0.0,0.0,0.0,0.0,0.0,0.0
80.21099445099463,40.86697904526165,66.45800554724536,-45.41200143544152,-17.694012999225354,0.47899268929676575,-77.14019981668189,-31.051697131356573,-101.84802048374922,40.305160696721785,27.69588838518514,75.76376048554602,0,164,0.0,0.0,0.0,0.0,0.0,0.0,-0.038002014,-0.063999176,0.10600281,-0.011001587,-0.0030002594,0.0009994507
80.2109893639014,40.866979287770725,66.45801394273614,-45.41198098124284,-17.69399188857451,0.4790024006117159,-77.17869471992188,-31.116989443389897,-101.74004116313345,40.293620669405236,27.69204103429823,75.76502443772324,0,165,0.0,0.0,0.0,0.0,0.0,0.0,-0.06600189,-0.09300041,0.13999939,-0.11399841,-0.02299881,0.04799652
80.21096766455646,40.8669784970889,66.45798662201393,-45.41198324326743,-17.694013367540222,0.47898451195339725,-77.244828632264,-31.209376352970988,-101.60156572212206,40.17600996502008,27.669765151719535,75.81643550415377,0,166,0.0,0.0,0.0,0.0,0.0,0.0,-0.085998535,-0.08800125,0.0779953,-0.17900085,-0.027999878,0.11400604
80.21098928393639,40.866968007800615,66.4579933885663,-45.41199240633132,-17.69399557701841,0.47900632267284815,-77.32935502125936,-31.296479067217486,-101.52476428459562,40.001460975382194,27.64205584663858,75.92664455109662,0,167,0.0,0.0,0.0,0.0,0.0,0.0,0.0,0.0,0.0,0.0,0.0,0.0
80.2109749646806,40.866986783993546,66.45798384427022,-45.41199100294614,-17.69400227668155,0.4789756245569834,-77.33037819334406,-31.298296159806796,-101.52249370667869,39.99777859013997,27.64122008795164,75.92981743923117,0,168,0.0,0.0,0.0,0.0,0.0,0.0,-0.22499847,-0.20299911,0.15900421,-0.5019989,-0.072999954,0.36299896
80.21100135295873,40.866985898845506,66.45799427811923,-45.41199062029693,-17.69398599567084,0.4789983678044142,-77.5551194087428,-31.500474570670743,-101.3640867590399,39.49721124668937,27.56834501730188,76.29025230751031,0,169,0.0,0.0,0.0,0.0,0.0,0.0,-0.2519989,-0.23900032,0.20199585,-0.4980011,-0.09300041,0.3619995
80.21099479250535,40.86697357886787,66.45800892120646,-45.41200265880288,-17.693996339721426,0.4789913132974715,-77.80706122814274,-31.738786534374093,-101.1626907096701,39.00109023049557,27.475521328346023,76.65188030902456,0,170,0.0,0.0,0.0,0.0,0.0,0.0,-0.21700287,-0.24200058,0.27899933,-0.34199905,-0.125,0.23999786
80.21101528361754,40.86698279826973,66.45800670280204,-45.411983163436666,-17.69400254769708,0.47900410567799073,-78.02420292566688,-31.981087538470906,-100.88383801752832,38.65793817316674,27.349942222126433,76.89183537044056,0,171,0.0,0.0,0.0,0.0,0.0,0.0,0.0,0.0,0.0,0.0,0.0,0.0
80.21100102756111,40.86696750489812,66.45800557785405,-45.41198917735435,-17.694004746913855,0.478984438693157,-78.02430698448364,-31.980673044397445,-100.88471944384375,38.6559070993442,27.35101675808776,76.89475490122292,0,172,0.0,0.0,0.0,0.0,0.0,0.0,-0.18299866,-0.26999855,0.34900665,-0.19900131,-0.16600037,0.1269989
80.2109881638408,40.86696542465931,66.45797424098113,-45.41199970194895,-17.694017191489092,0.4790180384809734,-78.20666702046938,-32.251674595270764,-100.53362021807283,38.46002654857198,27.184373911920368,77.0181509613697,0,173,0.0,0.0,0.0,0.0,0.0,0.0,-0.06700134,-0.10900116,0.16899872,-0.069999695,-0.069000244,0.023002625
80.2109916433815,40.86695148432745,66.45797844936912,-45.4119868630154,-17.69399218344269,0.4789917803715901,-78.27351122326606,-32.359651151706416,-100.36539175129658,38.38991595716368,27.115082562610596,77.04156411864108,0,174,0.0,0.0,0.0,0.0,0.0,0.0,-0.17199707,-0.28099823,0.37599945,-0.22900009,-0.15600014,0.08899689
80.21099975684685,40.8669818866261,66.45800203165764,-45.41200607701434,-17.694004500235746,0.4789857650294216,-78.4459257690799,-32.64130351604969,-99.98914068729658,38.161962709626174,26.95911493799794,77.12919035801828,0,175,0.0,0.0,0.0,0.0,0.0,0.0,0.0,0.0,0.0,0.0,0.0,0.0
80.21099783061638,40.86698093821065,66.45798145254675,-45.41200341669733,-17.693998471793545,0.4790064593878822,-78.44573641406556,-32.641152547708785,-99.98981543151662,38.16121776447468,26.959122443589052,77.13025649585295,0,176,0.0,0.0,0.0,0.0,0.0,0.0,-0.101997375,-0.12400055,0.083999634,-0.23500061,-0.053998947,0.1930008
80.21100036839793,40.86697872676643,66.45797080583061,-45.411982169759355,-17.69399518987201,0.4790074369530478,-78.54785620061212,-32.765092211262534,-99.90526812055796,37.92601342765852,26.905061366339943,77.322752757793,0,177,0.0,0.0,0.0,0.0,0.0,0.0,-0.055000305,-0.026000977,-0.002998352,-0.14799881,-0.0030002594,0.12599945
80.21099356042367,40.86698651135496,66.45800018871708,-45.411987351852055,-17.69399634455423,0.47898497177737726,-78.602669120082,-32.79071040037838,-99.90840422047806,37.77818701241301,26.902221417731614,77.44918024878908,0,178,0.0,0.0,0.0,0.0,0.0,0.0,0.0,0.0,0.0,0.0,0.0,0.0
80.21098067764436,40.86699178512178,66.457996906803,-45.412003754518175,-17.693994993807827,0.47902171822135015,-78.60322027016873,-32.79144878861353,-99.90827074851917,37.776387879498884,26.901985261833914,77.45060608749839,0,179,0.0,0.0,0.0,0.0,0.0,0.0,-0.0490036,-0.002998352,-0.051002502,-0.18299866,0.0,0.19800568
80.21099515439884,40.86697386823202,66.45799238181412,-45.41199059255305,-17.69400963467256,0.47900656598925084,-78.65232408047069,-32.79468453278692,-99.95768469111057,37.594695792101206,26.90180927720828,77.64732129492327,0,180,0.0,0.0,0.0,0.0,0.0,0.0,-0.037002563,-0.009002686,-0.019996643,-0.09500122,0.0,0.0819931
80.21100308591991,40.86696902221964,66.45796887568841,-45.411992435620874,-17.694005610568784,0.47900352702426774,-78.68861968950449,-32.80263132580752,-99.97905766913858,37.50072299529281,26.90189634065916,77.72865479593881,0,181,0.0,0.0,0.0,0.0,0.0,0.0,0.0,0.0,0.0,0.0,0.0,0.0
80.21099700886813,40.866987530127616,66.45798083458173,-45.41198846902038,-17.693993238806307,0.4790010861551627,-78.68875542332485,-32.80336877565307,-99.97861701548769,37.500726870670526,26.901805248917718,77.72831335542153,0,182,0.0,0.0,0.0,0.0,0.0,0.0,-0.1289978,-0.24599838,0.29799652,-0.12599945,-0.062999725,0.055000305
80.21100215308242,40.86699318075155,66.45801337703328,-45.4119880643849,-17.694003509626484,0.4789829032933624,-78.8176918771189,-33.0486912928966,-99.68120762712944,37.3744121546735,26.8392170811484,77.78449045430744,0,183,0.0,0.0,0.0,0.0,0.0,0.0,0.0,0.0,0.0,0.0,0.0,0.0
80.21098064073642,40.866980310128824,66.45797809534943,-45.411998399105485,-17.693991944039887,0.4790032250896045,-78.81791701792113,-33.04920167895294,-99.68079767900254,37.374692466202774,26.838873145630178,77.78369990962103,0,184,0.0,0.0,0.0,0.0,0.0,0.0,-0.15899658,-0.31900024,0.5130005,-0.10599899,-0.17399979,0.004005432
80.21098431779751,40.86698892235372,66.45799371037288,-45.41199616360539,-17.693992318910368,0.47899412035124617,-78.97668006282647,-33.36818969043697,-99.1680099927834,37.268116172969414,26.6649243174088,77.78787142571505,0,185,0.0,0.0,0.0,0.0,0.0,0.0,-0.20800018,-0.35300064,0.5550003,-0.14100266,-0.24100113,0.02999878
80.21098706349406,40.86697754217751,66.45797390619757,-45.41201782756384,-17.69398161480095,0.47900044147269294,-79.18479842209051,-33.72096689547792,-98.61273455758868,37.12777750935195,26.423570494894026,77.81704521212068,0,186,0.0,0.0,0.0,0.0,0.0,0.0,-0.10800171,-0.1969986,0.2539978,-0.115997314,-0.11599922,0.04399872
80.21099857697139,40.86697347606637,66.45798729665998,-45.41198297878327,-17.693988404724916,0.4789979129707893,-79.29266606789612,-33.91873325407498,-98.35735395553837,37.01246772975518,26.307120191036535,77.86052969308788,0,187,0.0,0.0,0.0,0.0,0.0,0.0,0.0,0.0,0.0,0.0,0.0,0.0
80.21100206339773,40.86697631389198,66.45799532567803,-45.41198556232731,-17.693988337171934,0.4789929054827155,-79.29298178443892,-33.918531457366754,-98.35896108065616,37.01025878459832,26.307430031082376,77.8625313081923,0,188,0.0,0.0,0.0,0.0,0.0,0.0,-0.39700317,-0.73200226,0.93299866,-0.51200104,-0.31599998,0.29399872
80.2110125111131,40.866961827688165,66.45798971575816,-45.41199538696331,-17.69399707945184,0.47900235383121537,-79.69034241573465,-34.650820383773855,-97.426326582402,36.497371514357525,25.992221729244847,78.1575471728578,0,189,0.0,0.0,0.0,0.0,0.0,0.0,0.0,0.0,0.0,0.0,0.0,0.0
80.21099162437099,40.86697888215451,66.45802712067076,-45.41198626763332,-17.69399288540004,0.47898712349488454,-79.69053792404299,-34.651060692381414,-97.42439190380105,36.49737154120772,25.99134959115726,78.15714101159668,0,190,0.0,0.0,0.0,0.0,0.0,0.0,-0.4509964,-0.75299835,0.852005,-0.7480011,-0.2709999,0.5
80.21099816236452,40.8669826153149,66.4579930656671,-45.4120104959351,-17.693984046167593,0.47897715303199606,-80.14095323145536,-35.402827243511055,-96.57549568140492,35.74915017609962,25.721660451166063,78.65778270243102,0,191,0.0,0.0,0.0,0.0,0.0,0.0,-0.39099884,-0.545002,0.51799774,-0.8260002,-0.14800072,0.5740051
80.21101221416039,40.86697603120277,66.45800711829455,-45.411998446277536,-17.694029227077085,0.4790123163214685,-80.53444332767278,-35.95302240638341,-96.05071865836626,34.92022049298243,25.571984153044614,79.23517189721902,0,192,0.0,0.0,0.0,0.0,0.0,0.0,0.0,0.0,0.0,0.0,0.0,0.0
80.21099806522366,40.86697769540649,66.45799037708042,-45.41197719766989,-17.693992486056032,0.47898604733081773,-80.53319536856966,-35.9549089565347,-96.0445632812252,34.925527648229554,25.56900499842296,79.22936864255311,0,193,0.0,0.0,0.0,0.0,0.0,0.0,0.0,0.0,0.0,0.0,0.0,0.0
80.21098990407168,40.866974698661416,66.4579899594717,-45.41198151062508,-17.693980363619268,0.47899595390821115,-80.53154007451127,-35.948561401253734,-96.05547939068164,34.92453510403268,25.572227535083954,79.23010402560891,0,194,0.0,0.0,0.0,0.0,0.0,0.0,-0.3580017,-0.45899963,0.38199615,-0.73399734,-0.12400055,0.60899353
80.21098534618542,40.86698892706347,66.45800998213377,-45.411991340742745,-17.69398941340685,0.4789771410096498,-80.88879201976044,-36.40576649224525,-95.67684890927868,34.190123426464666,25.450398635934917,79.84164437295388,0,195,0.0,0.0,0.0,0.0,0.0,0.0,-0.070999146,-0.099998474,0.14000702,-0.10700226,-0.052999496,0.06800079
80.21100047001268,40.866976926231764,66.45801143911237,-45.41198632507507,-17.693989044502796,0.47899077901903403,-80.95959452086896,-36.50607727531735,-95.5358834384836,34.084277008818624,25.39713857110635,79.90749595183519,0,196,0.0,0.0,0.0,0.0,0.0,0.0,-0.016998291,-0.047000885,0.069999695,-0.013999939,-0.028999329,0.0030059814
80.21099824017416,40.86697484317569,66.45800238154979,-45.4120114261455,-17.693991040603823,0.47899912786728754,-80.97731051905569,-36.55257447459737,-95.46697698042134,34.067647657188,25.368192267605007,79.91369865116054,0,197,0.0,0.0,0.0,0.0,0.0,0.0,-0.01499939,-0.033000946,0.050994873,-0.006000519,-0.034000397,-0.0010070801
80.21099798150354,40.86696147085121,66.45798479103745,-45.411976740871076,-17.6939945669586,0.479014081823899,-80.9910700745341,-36.58442703312568,-95.41908951815435,34.064820125851085,25.336405268566605,79.9107522646431,0,198,0.0,0.0,0.0,0.0,0.0,0.0,-0.018005371,-0.026996613,0.04800415,-0.006000519,-0.027999878,0.0010070801
80.21100135968216,40.866994968702656,66.45800881146153,-45.41197563263375,-17.693995832198674,0.478985978273178,-81.01013713833458,-36.613753271326615,-95.36575813198924,34.05894446226947,25.305287959371054,79.90943323765262,0,199,0.0,0.0,0.0,0.0,0.0,0.0,-0.002998352,0.0009994507,-0.0009994507,-0.0019989014,-0.00399971,0.0
80.21100222863228,40.86699188044008,66.45798855602312,-45.411999212910935,-17.69399044490104,0.4790004502880858,-81.0132996783914,-36.61237013654571,-95.36705688181587,34.056479274366794,25.30152737814858,79.91008835511776,0,200,0.0,0.0,0.0,0.0,0.0,0.0,0.0,-0.0009994507,0.0009994507,0.0,0.0,0.0
80.21097905314346,40.86698087937797,66.4580074367301,-45.41199204378151,-17.693993220485652,0.4790064772461379,-81.0130835923291,-36.61361286565515,-95.36616233026874,34.055961495264576,25.301089890327496,79.91027561784544,0,201,0.0,0.0,0.0,0.0,0.0,0.0,0.002998352,0.0009994507,-0.007003784,-0.0009994507,0.0009994507,0.0
80.21100214899542,40.86698364795576,66.45799936389612,-45.41200284741089,-17.693977505537642,0.4790165214092904,-81.01007832519815,-36.61274224998912,-95.3722093639389,34.05560830110333,25.302493301789582,79.91005951222431,0,202,0.0,0.0,0.0,0.0,0.0,0.0,0.005004883,0.002998352,-0.019996643,0.0009994507,0.0020008087,0.0
80.21097973358067,40.8669991547669,66.4579906424092,-45.411996256666704,-17.69400481652712,0.47900695990754155,-81.00446879060544,-36.60916804807064,-95.39316096666917,34.05683921685294,25.30524972538563,79.9101642131101,0,203,0.0,0.0,0.0,0.0,0.0,0.0,0.006996155,0.0069999695,-0.013999939,0.0,0.0,-0.0010070801
80.21099870297203,40.866995615410914,66.4580254668188,-45.41199924404076,-17.693991970575563,0.4790082083446705,-80.99834023831143,-36.60240449651902,-95.40597366077469,34.05726467380754,25.304348990301673,79.90860869477179,0,204,0.0,0.0,0.0,0.0,0.0,0.0,0.01499939,0.013999939,-0.027999878,0.0030021667,0.002998352,0.0
80.21100026118874,40.86699577862247,66.45798464031064,-45.41199517760892,-17.694005437833322,0.4789991185326293,-80.98279414738063,-36.58794038615497,-95.43534405367271,34.06174701360215,25.30822156887397,79.90811493840648,0,205,0.0,0.0,0.0,0.0,0.0,0.0,0.008003235,0.006000519,-0.018005371,0.0049972534,0.005001068,-0.0049972534
80.2110031948053,40.86697062694184,66.4580073818278,-45.411977718673036,-17.69399786541832,0.4789903845283394,-80.97548677404,-36.5831656525847,-95.4517551769461,34.06491280600127,25.312362088497515,79.90323421476113,0,206,0.0,0.0,0.0,0.0,0.0,0.0,0.013999939,0.013999939,-0.033996582,0.017002106,0.010000229,-0.0079956055
80.2109979739038,40.86696381823669,66.45803016338714,-45.412003125304594,-17.693995249530666,0.47898468263044075,-80.96134571446656,-36.56842921654098,-95.48811340997285,34.080552043447454,25.323509312619304,79.89778664617828,0,207,0.0,0.0,0.0,0.0,0.0,0.0,0.006996155,0.010002136,-0.01499939,0.00799942,0.0069999695,-0.007003784
80.21099009444539,40.86697896308907,66.4580063629526,-45.41198218506976,-17.694005233945667,0.4790161113108011,-80.95376562735407,-36.55695614829371,-95.50518363574294,34.08914752872742,25.330816752080565,79.89002167951912,0,208,0.0,0.0,0.0,0.0,0.0,0.0,0.0,0.0,0.0,0.0,0.0,0.0
80.21100130235646,40.8669826876,66.457993421514,-45.412010520807634,-17.69398555519206,0.47899931708499655,-80.95366360557199,-36.55806479996438,-95.50275858925427,34.09057818750689,25.33004908591593,79.88886187054473,0,209,0.0,0.0,0.0,0.0,0.0,0.0,0.008003235,0.025997162,-0.028999329,0.02199936,0.020000458,-0.008003235
80.21099630264479,40.86699783482403,66.4579872132941,-45.41199300517393,-17.693976475501497,0.4789783540882529,-80.94570217759382,-36.532489691171605,-95.53087559006003,34.11324318292222,25.349844567766127,79.88057794977867,0,210,0.0,0.0,0.0,0.0,0.0,0.0,0.005996704,0.009002686,-0.008003235,0.027999878,0.0099983215,-0.018997192
80.21099304661753,40.86696589672285,66.4580090205698,-45.41199157526985,-17.69401817086656,0.4790027118017958,-80.94022127433638,-36.523409119934506,-95.53912041942785,34.14026454618093,25.359294154676387,79.86151822431295,0,211,0.0,0.0,0.0,0.0,0.0,0.0,0.0,0.0,0.0,0.0,0.0,0.0
80.2109864254222,40.86699045685482,66.45798894559339,-45.41200803506076,-17.69400358121799,0.4790060694111609,-80.940330389508,-36.521310844411126,-95.5423160124128,34.139539087556265,25.360231491490286,79.86287058083293,0,212,0.0,0.0,0.0,0.0,0.0,0.0,0.0,-0.020999908,0.09300232,0.034999847,-0.002998352,-0.04799652
80.21099215795397,40.86698677816975,66.45802651910225,-45.411995752235306,-17.694011959771583,0.4789965711348714,-80.94126004704715,-36.54468870841238,-95.44644005126638,34.17135535852177,25.356572237441995,79.81702118752881,0,213,0.0,0.0,0.0,0.0,0.0,0.0,0.0,0.0,0.0,0.0,0.0,0.0
80.21100661100124,40.86698044385878,66.45799964071679,-45.41198060802432,-17.693994999238672,0.478998118974662,-80.94009827608905,-36.54505487639781,-95.4441226526322,34.17563473540759,25.356087339874914,79.81347953176734,0,214,0.0,0.0,0.0,0.0,0.0,0.0,-0.086997986,-0.32700348,0.68099976,0.058002472,-0.1590004,-0.15000153
80.2109991403436,40.86700002553866,66.45797928149895,-45.41199363437074,-17.693981107061916,0.47899686877743763,-81.02730171719175,-36.87251809062126,-94.76423949130805,34.23228023231949,25.1976430307609,79.66432220396476,0,215,0.0,0.0,0.0,0.0,0.0,0.0,-0.13899994,-0.40399933,0.711998,0.116996765,-0.3240013,-0.20300293
80.21099615918769,40.866969364021216,66.45802506581538,-45.411973848422846,-17.693988230492256,0.4790048284693533,-81.1658266988521,-37.27382261760976,-94.05576261017855,34.34947688469802,24.87465355875407,79.46113478819305,0,216,0.0,0.0,0.0,0.0,0.0,0.0,-0.11100006,-0.31599808,0.54800415,0.10800171,-0.25899887,-0.1969986
80.21098235431045,40.86700216661262,66.45801067173316,-45.411993668603095,-17.694026286505906,0.4790083306153627,-81.27684390405321,-37.58822880156601,-93.51262455508052,34.45102764307768,24.617933133207423,79.27181677942961,0,217,0.0,0.0,0.0,0.0,0.0,0.0,0.0,0.0,0.0,0.0,0.0,0.0
80.21099850673538,40.86698594674471,66.45800365622426,-45.411996705584244,-17.69400073230042,0.4789894147502906,-81.27757512897179,-37.592213562961696,-93.50430474254019,34.457006514052686,24.614827809783698,79.26498069117203,0,218,0.0,0.0,0.0,0.0,0.0,0.0,-0.375,-1.25,2.1380005,0.57099915,-0.9279995,-0.81700134
80.21100552920262,40.86697981328784,66.45801047484859,-45.41197465224945,-17.69400146188978,0.47899582917263966,-81.6526467414754,-38.84244897335742,-91.36582971445408,35.026019378982696,23.686333813299502,78.44927001976384,0,219,0.0,0.0,0.0,0.0,0.0,0.0,-0.2539978,-0.8290024,1.5389938,0.5629997,-0.644001,-0.7819977
80.21098926831927,40.866980039249405,66.45800612269959,-45.411997920859235,-17.694006270037733,0.47899573151717945,-81.90656353792214,-39.66996995907019,-89.83022121389274,35.587648181119626,23.04296436843739,77.66917153176031,0,220,0.0,0.0,0.0,0.0,0.0,0.0,-0.15100098,-0.6590004,1.1380005,0.5040016,-0.49699974,-0.6569977
80.21099556250977,40.86698487978386,66.4579961425133,-45.41200339989625,-17.694006246723927,0.4789865576456688,-82.0572453305668,-40.33086038127548,-88.68623210467698,36.097330520261394,22.543383319384386,77.00612585343184,0,221,0.0,0.0,0.0,0.0,0.0,0.0,0.0,0.0,0.0,0.0,0.0,0.0
80.21101065804218,40.866985612408634,66.45799597879272,-45.411989958300644,-17.693995503959535,0.4790100549475966,-82.05688406947124,-40.331150823312214,-88.68531434200379,36.09828966953198,22.54298840982119,77.0047779582614,0,222,0.0,0.0,0.0,0.0,0.0,0.0,-0.3160019,-1.2679977,2.3590012,1.2449989,-0.9810009,-1.4400024
80.21100131638082,40.86697972801085,66.45797846353193,-45.41198856948006,-17.693996919810818,0.47901032120863213,-82.37237511542685,-41.59779210738978,-86.32787253703334,37.34634876191511,21.56192707641799,75.56187216611136,0,223,0.0,0.0,0.0,0.0,0.0,0.0,0.0,0.0,0.0,0.0,0.0,0.0
80.21099504423627,40.86698007319463,66.45799925435256,-45.41198632312107,-17.69400132926734,0.4789912266388783,-82.37322315180442,-41.5975582785506,-86.33155858344709,37.34014974845354,21.564667978392098,75.56804703506766,0,224,0.0,0.0,0.0,0.0,0.0,0.0,-0.23300171,-1.0019989,1.7990036,0.96500015,-0.80999947,-1.2030029
80.21099080063517,40.866991041048934,66.45800888950983,-45.41199139031534,-17.69399549510685,0.47900566863521055,-82.60700403993266,-42.60119854283854,-84.52906998914737,38.304872037673846,20.753730683234057,74.36486469687172,0,225,0.0,0.0,0.0,0.0,0.0,0.0,-0.069000244,-0.2590027,0.522995,0.2179985,-0.22599983,-0.28900146
80.21100207714476,40.86702152608791,66.457986726404,-45.41196810462759,-17.694001851318337,0.47898781946343794,-82.67610235053195,-42.86067658630006,-84.0064846106972,38.51952280470988,20.527915289977525,74.07909741484497,0,226,0.0,0.0,0.0,0.0,0.0,0.0,-0.083999634,-0.27799988,0.5050049,0.15800095,-0.20000076,-0.22399902
80.21099548692263,40.86698426101152,66.45798493540255,-45.41199295909822,-17.69400358935284,0.4789904807537222,-82.75878814364542,-43.13513484449729,-83.50557993263875,38.68114664120993,20.328303339116996,73.85253819034301,0,227,0.0,0.0,0.0,0.0,0.0,0.0,-0.02999878,-0.086997986,0.125,0.006000519,-0.081998825,-0.027000427
80.21099165421244,40.86696588624432,66.45802539832424,-45.41199306706441,-17.694013293101616,0.4790250671682121,-82.78656639343271,-43.21675404584401,-83.3889938603149,38.6865080050267,20.24984560447988,73.82830609352737,0,228,0.0,0.0,0.0,0.0,0.0,0.0,-0.019996643,-0.030002594,0.027000427,-0.01499939,-0.023000717,0.012001038
80.21097853662633,40.86699084711495,66.45800004350922,-45.4120032181086,-17.694003252943425,0.47901568482328816,-82.80950297985788,-43.255028864754216,-83.3496139307946,38.67117647530239,20.222447505178774,73.8377628690865,0,229,0.0,0.0,0.0,0.0,0.0,0.0,-0.03100586,0.016002655,-0.09700012,-0.18400192,0.00399971,0.17500305
80.21100919040606,40.86696486005652,66.45797035100445,-45.41199097379269,-17.693998692424483,0.47899314615897515,-82.83974251458588,-43.23859816202056,-83.44748453211507,38.48938145543288,20.22726099666398,74.0108352145655,0,230,0.0,0.0,0.0,0.0,0.0,0.0,0.0020065308,0.034999847,-0.15599823,-0.13299942,0.011001587,0.14499664
80.21099142620643,40.866966135674446,66.45797211880021,-45.411987594640806,-17.69401415096911,0.47899519342023,-82.83806647143716,-43.19984453407797,-83.61070040167054,38.350834744727536,20.24115099501947,74.16324357733247,0,231,0.0,0.0,0.0,0.0,0.0,0.0,0.0,0.048000336,-0.1530075,-0.12999725,0.02399826,0.13200378
80.21099749196955,40.8669871650141,66.45795782134985,-45.41200123337828,-17.694003965765265,0.47901428942938384,-82.83806531845943,-43.15378883709136,-83.75992111397755,38.22255993303819,20.263298576392597,74.29209312330569,0,232,0.0,0.0,0.0,0.0,0.0,0.0,-0.0020065308,0.1289978,-0.2219925,-0.17900085,0.08300018,0.2009964
80.21101014944921,40.86697810909975,66.45799080115712,-45.411988907149876,-17.69398820668622,0.4789869010740207,-82.83982813413252,-43.02520880911578,-83.98032473932572,38.04729168716999,20.345818808261644,74.48959546313253,0,233,0.0,0.0,0.0,0.0,0.0,0.0,0.0,0.041000366,-0.069000244,-0.042999268,0.029001236,0.0450058
80.21099477604547,40.866968170624354,66.45798067816072,-45.41198683306395,-17.693990278161838,0.4789794448849769,-82.8411800981072,-42.98594835810306,-84.04730911912391,38.00115461315439,20.372895108808024,74.5377364422184,0,234,0.0,0.0,0.0,0.0,0.0,0.0,0.007003784,0.07300186,-0.10500336,-0.034000397,0.055999756,0.039993286
80.21101576017081,40.86700129508947,66.45799063089214,-45.41200346389175,-17.693992144213443,0.4789929093208048,-82.83284628395332,-42.91105293070512,-84.15355495533211,37.97102299933285,20.430009106525308,74.57308568186409,0,235,0.0,0.0,0.0,0.0,0.0,0.0,0.010002136,0.03199768,-0.027000427,-0.002002716,0.03299904,0.0
80.21098641531657,40.8669672803368,66.4579961479376,-45.41199653523162,-17.693970749732305,0.47899948792984576,-82.82316945543953,-42.879673031345575,-84.18118266257905,37.96717345382812,20.463998497377048,74.57594953715437,0,236,0.0,0.0,0.0,0.0,0.0,0.0,0.020996094,0.030002594,-0.06299591,0.002002716,0.036001205,0.0
80.21098607673127,40.866974789388365,66.4580116196713,-45.41198891413806,-17.69400198289292,0.4789950256518187,-82.80233001433535,-42.85026814388492,-84.24361808037816,37.96928125199154,20.49930954135876,74.57558926436698,0,237,0.0,0.0,0.0,0.0,0.0,0.0,0.0,0.0,0.0,0.0,0.0,0.0
80.21100990842055,40.86699075124569,66.45797897598817,-45.411996405081524,-17.69398486970204,0.47899836222580683,-82.8022995061581,-42.84966097960434,-84.24409285189779,37.968853152530556,20.499100848841632,74.57552963063661,0,238,0.0,0.0,0.0,0.0,0.0,0.0,0.027000427,0.034999847,-0.052001953,0.010997772,0.02999878,-0.0019989014
80.2110031327955,40.86699082489002,66.45797740725097,-45.41197303279018,-17.69398883536096,0.4789982215747969,-82.77526138049633,-42.81389151088308,-84.29720428692626,37.97922672261114,20.529328490080218,74.57426850213967,0,239,0.0,0.0,0.0,0.0,0.0,0.0,0.0,0.0,0.0,0.0,0.0,0.0
80.21099257960307,40.867001012916724,66.45802693980606,-45.41200183869726,-17.693986247852976,0.47899219328548626,-82.7752079792699,-42.814589993159586,-84.29596551652116,37.980229187953945,20.52963252759496,74.57247881941329,0,240,0.0,0.0,0.0,0.0,0.0,0.0,0.021003723,0.01599884,-0.011001587,0.06700134,0.012001038,-0.026000977
80.21100700522344,40.86695742354922,66.45799306849696,-45.411985138077206,-17.693981860740717,0.47899710844872756,-82.75398308117404,-42.79855530229622,-84.30660057235428,38.048587166573185,20.54150580263075,74.54696869456536,0,241,0.0,0.0,0.0,0.0,0.0,0.0,0.0039978027,0.0,0.008003235,0.03699875,-0.0009994507,-0.036994934
80.2109991401124,40.86697568277847,66.45799599284179,-45.41198044692712,-17.694000923483323,0.47899439145254397,-82.75076292790158,-42.79896542260969,-84.2986087195133,38.084436900275385,20.54033251605456,74.51096880094902,0,242,0.0,0.0,0.0,0.0,0.0,0.0,-0.002998352,-0.057998657,0.23799896,0.17900085,-0.011001587,-0.18500519
80.2110044950683,40.86698570006287,66.45800580997408,-45.41196256735641,-17.69399836525557,0.4790013867856027,-82.75341128819923,-42.856790668187095,-84.06011861796566,38.26445529863303,20.529034348416257,74.32439418257131,0,243,0.0,0.0,0.0,0.0,0.0,0.0,-0.021003723,-0.30599976,0.64099884,0.38499832,-0.18700027,-0.45899963
80.21098999755064,40.8669942301273,66.45799217704268,-45.41200410817615,-17.693984813934613,0.4790092536809655,-82.77442904734892,-43.16257434922035,-83.41954628984733,38.64939693204649,20.34210901418234,73.86592213882638,0,244,0.0,0.0,0.0,0.0,0.0,0.0,0.0,0.0,0.0,0.0,0.0,0.0
80.21100524880676,40.866976099570536,66.45802156856183,-45.411993709245635,-17.694004083055855,0.4789963798904424,-82.77484279501819,-43.163362672609786,-83.42092760328363,38.643632605293014,20.34358354867515,73.87268450623931,0,245,0.0,0.0,0.0,0.0,0.0,0.0,-0.084999084,-0.5550003,1.0159988,0.7080002,-0.39699936,-0.77199554
80.21100466615553,40.866959844817686,66.45800033907472,-45.41199714292692,-17.69400150586233,0.4790043785151453,-82.85970285569121,-43.7173124198145,-82.40462962878752,39.35560507707036,19.94544712679523,73.09527441433892,0,246,0.0,0.0,0.0,0.0,0.0,0.0,-0.15499878,-0.75100327,1.4300003,1.118,-0.60700035,-1.2509995
80.21099103189007,40.86697315213051,66.45800684776378,-45.411981864161866,-17.694003234186475,0.47900492019567875,-83.01411613988037,-44.4691235123125,-80.97274265969867,40.47577950480768,19.33782403563628,71.84215176077372,0,247,0.0,0.0,0.0,0.0,0.0,0.0,-0.102996826,-0.55399704,1.0530014,0.98000336,-0.40099907,-1.0810013
80.21100201896465,40.866975721202245,66.458008079659,-45.41199243356805,-17.694008233424103,0.47899234839388966,-83.11779090098342,-45.02328350995901,-79.92079928194582,41.452456988056475,18.937451553332018,70.76427632214673,0,248,0.0,0.0,0.0,0.0,0.0,0.0,0.0,0.0,0.0,0.0,0.0,0.0
80.21099013262118,40.866996104471305,66.45800797684072,-45.41197796739651,-17.693990108858003,0.4789877977605672,-83.11758743938317,-45.02355847512084,-79.91840229106765,41.455065761659675,18.936787887189805,70.76210107776879,0,249,0.0,0.0,0.0,0.0,0.0,0.0,-0.18800354,-1.1660004,2.2289963,2.5489998,-0.82100105,-2.6419983
80.21102232895669,40.86697992326583,66.45799408829369,-45.412002193535464,-17.693998077681346,0.4789813168731765,-83.30727106240612,-46.19311873442499,-77.68858277154145,43.99767114546944,18.116272823356955,68.12633771374594,0,250,0.0,0.0,0.0,0.0,0.0,0.0,0.0,0.0,0.0,0.0,0.0,0.0
80.21101192998702,40.86696859434494,66.45799254115029,-45.412004791589105,-17.694007613046423,0.4789974213504256,-83.3055478318724,-46.1903214644847,-77.6881075500014,44.002182080648446,18.115395897719857,68.12030749571667,0,251,0.0,0.0,0.0,0.0,0.0,0.0,-0.25,-1.6020012,3.189003,3.9989967,-1.1399994,-4.272003
80.21099979587471,40.866995281188565,66.45798589488946,-45.41200442705173,-17.693988563446734,0.47897579562930254,-83.5574226855438,-47.7952479865983,-74.4975823038602,47.997660180310625,16.97511659239769,63.85248679326654,0,252,0.0,0.0,0.0,0.0,0.0,0.0,0.0,0.0,0.0,0.0,0.0,0.0
80.21098842620314,40.86699130635534,66.45799894010842,-45.4119993731169,-17.693986382187035,0.4789912597786398,-83.55537165925422,-47.7905055624731,-74.50250626340878,48.002981633284975,16.975563716831832,63.84750352389384,0,253,0.0,0.0,0.0,0.0,0.0,0.0,-0.13300323,-0.723999,1.3639984,1.5460014,-0.53100014,-1.7579994
80.2109819455022,40.86699167337903,66.45799516092265,-45.411994916167636,-17.69399330224432,0.4789980836981745,-83.68893461300756,-48.515603703606125,-73.13734310038046,49.54737990970402,16.444589381416247,62.09027771044917,0,254,0.0,0.0,0.0,0.0,0.0,0.0,-0.04599762,-0.24900055,0.435997,0.37200165,-0.1760006,-0.42300034
80.2109910019088,40.8670040538152,66.45799059850191,-45.41200292886751,-17.6939981099075,0.47898594529003513,-83.73429049675723,-48.76467683361187,-72.7008057363685,49.921478734430615,16.268671414247574,61.66632576697812,0,255,0.0,0.0,0.0,0.0,0.0,0.0,-0.14099884,-0.49000168,0.7350006,0.25,-0.30799866,-0.32899857
80.21099993544105,40.86700061160193,66.45799138033291,-45.41198715647401,-17.694003966356313,0.47899047168755304,-83.87572474514882,-49.25478445204642,-71.96553803814658,50.17133069525604,15.960524694806788,61.336417200209006,0,256,0.0,0.0,0.0,0.0,0.0,0.0,-0.06600189,-0.09899902,0.072006226,-0.2610016,-0.04200077,0.22699738
80.21101471054241,40.86699315246697,66.45798030632193,-45.412002145716436,-17.693993674027173,0.4789942588916333,-83.94138723903495,-49.35308915912056,-71.89439769881675,49.91096833813862,15.919044816277053,61.564276498662714,0,257,0.0,0.0,0.0,0.0,0.0,0.0,0.0,0.0,0.0,0.0,0.0,0.0
80.21099866022726,40.86698738369849,66.45799583203359,-45.412010109236185,-17.693990888383542,0.4789750623482191,-83.94133005359389,-49.353790757742885,-71.89330217250769,49.90946299331264,15.918760736551771,61.56434186872107,0,258,0.0,0.0,0.0,0.0,0.0,0.0,-0.19400024,-0.084999084,-0.119003296,-1.3180008,0.0069999695,1.2310028
80.21099896840802,40.866986221785716,66.45796688318215,-45.41199639002935,-17.693983779695866,0.4789919434600869,-84.13551478364023,-49.43756543654377,-72.01346465120642,48.59255269533097,15.925577574386994,62.79424836131114,0,259,0.0,0.0,0.0,0.0,0.0,0.0,-0.09299469,-0.019001007,-0.2009964,-0.78699875,0.041000366,0.6839981
80.2109897288527,40.86699951077043,66.45797791511306,-45.41198314171142,-17.693995873946868,0.4790182215793678,-84.2290111953929,-49.45680650266373,-72.21547096888993,47.80329201124614,15.966710300717224,63.48016668907707,0,260,0.0,0.0,0.0,0.0,0.0,0.0,-0.26900482,-0.11000061,-0.4960022,-2.0719986,0.24199963,2.031002
80.21101074290712,40.86699325582409,66.45799443730718,-45.41198604823482,-17.69398690615288,0.4789944765528748,-84.49741879676867,-49.56641640424099,-72.71088290776856,45.73177151225914,16.20896006845643,65.51040242603166,0,261,0.0,0.0,0.0,0.0,0.0,0.0,0.0,0.0,0.0,0.0,0.0,0.0
80.21100277584294,40.86695961721722,66.45798684895064,-45.41197604175523,-17.69399610541619,0.47899416596456484,-84.49743752879208,-49.56716551186918,-72.71027449692708,45.73323850158587,16.208965375360158,65.51157587921045,0,262,0.0,0.0,0.0,0.0,0.0,0.0,-0.29000092,-0.24199677,-0.24300385,-1.8600006,0.24900055,1.7740021
80.21099517251254,40.866994353556784,66.45799618761014,-45.41200188505265,-17.69400853538487,0.47900781735365705,-84.78797636628967,-49.81016232472436,-72.95194289662143,43.87155558605022,16.457369667222387,67.28480375336515,0,263,0.0,0.0,0.0,0.0,0.0,0.0,-0.117996216,-0.13700104,-0.026000977,-0.6480026,0.07500076,0.5949936
80.21098072820236,40.866989601847486,66.45800626603176,-45.41198175668791,-17.69399811025057,0.47899689036097987,-84.90583540728383,-49.945915544200766,-72.98020325049146,43.22323678444562,16.533169255650293,67.87968787136832,0,264,0.0,0.0,0.0,0.0,0.0,0.0,0.0,0.0,0.0,0.0,0.0,0.0
80.21099523748784,40.86697328567588,66.45799219748142,-45.41199548661007,-17.694000080766816,0.47898096492868525,-84.9053240278435,-49.94780480857075,-72.97692028474458,43.226018618723735,16.531619401614766,67.8775502442296,0,265,0.0,0.0,0.0,0.0,0.0,0.0,-0.33200073,-0.43799973,-0.0039978027,-1.7039986,0.17099953,1.7140045
80.21099411169384,40.866983174766055,66.45800754342423,-45.41198461655946,-17.69399163076529,0.479004503060537,-85.23786006226776,-50.38496127829713,-72.98290402657534,41.51996990608502,16.70381157151518,69.59329222874324,0,266,0.0,0.0,0.0,0.0,0.0,0.0,-0.15599823,-0.19100189,0.0019989014,-0.7369995,0.055000305,0.7249985
80.2109867329914,40.86699331351196,66.45802973646707,-45.41198249765449,-17.69401371361338,0.47902027254912866,-85.39313181806038,-50.57455495782343,-72.98214659340573,40.78355446114021,16.759369240808706,70.31808993374858,0,267,0.0,0.0,0.0,0.0,0.0,0.0,-0.19599915,-0.2649994,0.0019989014,-1.118,0.1099987,1.0199966
80.21098562089455,40.86700386175365,66.45798565747981,-45.411974233253524,-17.69401630027674,0.4789958645311655,-85.58984830421925,-50.84032274713177,-72.97997415105765,39.66547017330219,16.86948080830221,71.33862472328873,0,268,0.0,0.0,0.0,0.0,0.0,0.0,-0.08100128,-0.092998505,-0.0019989014,-0.4620018,0.037000656,0.34400177
80.21099377013978,40.86701746562623,66.45800283112736,-45.4119906832278,-17.694004913606445,0.47899741080849856,-85.67002308958855,-50.93266556605236,-72.9825666130635,39.2038803158967,16.906452511927743,71.68212159993307,0,269,0.0,0.0,0.0,0.0,0.0,0.0,-0.06700134,-0.0870018,-0.0019989014,-0.34999847,0.062000275,0.39500427
80.2110036282176,40.86697555209138,66.45798385177673,-45.411972345003086,-17.694000246522492,0.4789977268015505,-85.73836697180892,-51.020928667661586,-72.98282234973274,38.852418857608455,16.96744733222607,72.07803021433352,0,270,0.0,0.0,0.0,0.0,0.0,0.0,-0.13600159,-0.15800095,-0.06199646,-0.8899994,0.15200043,0.83099365
80.2110122204587,40.86698968054463,66.45797401435394,-45.411976049258016,-17.694014080639874,0.4790102872801838,-85.87351690055948,-51.17792840217904,-73.04622876998724,37.962845213715646,17.120321244882174,72.90876886609884,0,271,0.0,0.0,0.0,0.0,0.0,0.0,-0.22799683,-0.25499725,-0.15399933,-1.3479996,0.22799873,1.3100052
80.21098593749542,40.86699733152626,66.45799134291224,-45.41198303962589,-17.694000088806575,0.47899931604833024,-86.10087428112405,-51.43322557681669,-73.19970065697815,36.61587981623238,17.348219179819086,74.21806593047086,0,272,0.0,0.0,0.0,0.0,0.0,0.0,0.0,0.0,0.0,0.0,0.0,0.0
80.21100243562994,40.86698492531327,66.45798827448337,-45.411998990799574,-17.694001110418874,0.47899959581399576,-86.10234237346674,-51.43267498864427,-73.2005155174665,36.6147042678395,17.348499907029428,74.21886756940478,0,273,0.0,0.0,0.0,0.0,0.0,0.0,-0.34300232,-0.33399963,-0.25600433,-1.8829994,0.34600067,1.6469955
80.21101355996957,40.8669899476652,66.4580017567383,-45.41199604412027,-17.69401784156092,0.4790159494566084,-86.44520842509861,-51.76674413451348,-73.45688715974023,34.731201864676834,17.694407242804868,75.86640721051967,0,274,0.0,0.0,0.0,0.0,0.0,0.0,-0.19400024,-0.16600037,-0.13500214,-0.9050026,0.22699928,0.94000244
80.21100502775072,40.86700013275531,66.45799152736987,-45.41197594418181,-17.693996359198074,0.47898067146075196,-86.6389601137782,-51.93396185784724,-73.59037975981654,33.826820406550716,17.921136259590575,76.80568450390211,0,275,0.0,0.0,0.0,0.0,0.0,0.0,-0.43699646,-0.35900116,-0.30299377,-1.8359985,0.40100098,1.6809998
80.21100424775439,40.86697651342787,66.45800782171366,-45.41197866502821,-17.69400774386402,0.47898896716493977,-87.07604852395986,-52.29198703231202,-73.89353551194071,31.99058407897407,18.3222090802675,78.48688666789683,0,276,0.0,0.0,0.0,0.0,0.0,0.0,-0.2460022,-0.20700073,-0.14200592,-1.1240005,0.25099945,0.9520035
80.21101682070285,40.86697937903092,66.45800553166553,-45.412012782903076,-17.69399614151026,0.47898567697524425,-87.32209346022955,-52.499358004740046,-74.03559906832939,30.865945417222107,18.573166698349567,79.439030435556,0,277,0.0,0.0,0.0,0.0,0.0,0.0,0.0,0.0,0.0,0.0,0.0,0.0
80.21099196744042,40.867009326620874,66.45798042207058,-45.41199248179914,-17.694014706793798,0.47901019507840886,-87.32186138545791,-52.49931838211092,-74.03674981883577,30.865630943298562,18.573038824729935,79.4395721358409,0,278,0.0,0.0,0.0,0.0,0.0,0.0,-0.6520004,-0.5779991,-0.36999512,-2.7269993,0.69000053,2.4720001
80.21099767578765,40.86698381633573,66.45799996120051,-45.411986342978075,-17.69400142499723,0.4789782995103808,-87.9756096745086,-53.07750078349458,-74.40886633755456,28.132937719368673,19.264132457782562,81.9175558400625,0,279,0.0,0.0,0.0,0.0,0.0,0.0,-0.3789978,-0.32699966,-0.24300385,-1.5300007,0.42499924,1.4179993
80.21100382477029,40.8669765791294,66.4579680201702,-45.41201288862812,-17.69398551126612,0.4790131829446913,-88.35218451157048,-53.40340711957285,-74.64940345293645,26.60995766733076,19.68837534954783,83.32955129587117,0,280,0.0,0.0,0.0,0.0,0.0,0.0,-0.19400024,-0.15200043,-0.14299774,-0.77199936,0.19799995,0.6009979
80.21101209700964,40.866998382847626,66.45798894449705,-45.41199047575283,-17.69400440162193,0.4790191853173436,-88.54631794087105,-53.55623679118033,-74.79186924601778,25.836623549089563,19.88590231822925,83.9309668234311,0,281,0.0,0.0,0.0,0.0,0.0,0.0,-0.17300415,-0.13399887,-0.14900208,-0.6700001,0.24300003,0.70700073
80.21098300907711,40.86699803666819,66.4579895955841,-45.41198853781699,-17.694006631008303,0.4789922628167109,-88.71991538856415,-53.68984088118275,-74.94272983262465,25.165590135087644,20.129889458936965,84.64007217717361,0,282,0.0,0.0,0.0,0.0,0.0,0.0,-0.35299683,-0.2480011,-0.4300003,-1.4730015,0.48900032,1.2740021
80.21101030042213,40.866998222231466,66.45799108759213,-45.4119813797702,-17.69397534703426,0.4790125946635823,-89.07082143576623,-53.93624260804494,-75.37102521848641,23.7014028257209,20.617661637116466,85.90544036566632,0,283,0.0,0.0,0.0,0.0,0.0,0.0,0.0,0.0,0.0,0.0,0.0,0.0
80.21098866282317,40.866996642542155,66.45800544775523,-45.41198809181554,-17.693991019751167,0.47900060200681405,-89.07252745053887,-53.937879105953485,-75.3713579695192,23.694957208908576,20.617960602359588,85.91104682214183,0,284,0.0,0.0,0.0,0.0,0.0,0.0,-0.21900177,-0.078998566,-0.5149994,-1.0769997,0.48800087,1.0509949
80.21100418949038,40.86700237635483,66.45800418777306,-45.411984336178506,-17.694009713791086,0.4790182425327064,-89.29374578322484,-54.01284015406506,-75.9018127387795,22.600475987015002,21.115416215949875,86.98168565011055,0,285,0.0,0.0,0.0,0.0,0.0,0.0,-0.036003113,0.03199768,-0.52199554,-0.5930004,0.3619995,0.58800507
80.21097803330804,40.867022844563415,66.45798442365484,-45.4120052250275,-17.6940016425755,0.47901470579634847,-89.32702939947616,-53.98440763937289,-76.40802335913715,22.025366532124256,21.46809484175143,87.54915565346099,0,286,0.0,0.0,0.0,0.0,0.0,0.0,0.007003784,0.14699936,-0.45999908,-0.1969986,0.24300003,0.23999786
80.2110046206317,40.86701499249462,66.45800335883527,-45.41198035586083,-17.69400169370776,0.47900649294156444,-89.32068930727489,-53.837828272694246,-76.8680042329919,21.826333231856022,21.711447026674886,87.79140481175642,0,287,0.0,0.0,0.0,0.0,0.0,0.0,0.0,0.0,0.0,0.0,0.0,0.0
80.21099434989357,40.867010244569336,66.45797766325163,-45.411977639683165,-17.693992711624183,0.47901027170408567,-89.32062748931101,-53.837836148474004,-76.86722382323863,21.828387166379528,21.71111460306904,87.78985990554082,0,288,0.0,0.0,0.0,0.0,0.0,0.0,0.12799835,0.39300156,-0.8710022,-0.17700005,0.5189991,0.28599548
80.21099967730694,40.86696651761141,66.45796645867848,-45.41199059059159,-17.693983589627944,0.47899539214692877,-89.19247342889216,-53.44518817036732,-77.73881326798109,21.650770824281224,22.230282191757095,88.07599810724435,0,289,0.0,0.0,0.0,0.0,0.0,0.0,0.0,0.0,0.0,0.0,0.0,0.0
80.21099742626616,40.866982668954925,66.45798583268575,-45.4120036453009,-17.694001535558346,0.47900680881901697,-89.19219481633218,-53.44498517480712,-77.73816428092027,21.65198906000433,22.22955933153721,88.07445122298462,0,290,0.0,0.0,0.0,0.0,0.0,0.0,0.125,0.40800095,-0.95700073,-0.24699974,0.5279999,0.32400513
80.2109990420766,40.86698876924034,66.45796945921968,-45.41198307609007,-17.69400005542443,0.4789931722863229,-89.06760859984885,-53.03648685973587,-78.69651203381618,21.403846429523202,22.7578561135415,88.40012919331221,0,291,0.0,0.0,0.0,0.0,0.0,0.0,0.0,0.0,0.0,0.0,0.0,0.0
80.21098333411302,40.86697613149464,66.45799719234864,-45.412005074561726,-17.693997186767316,0.47898800713733447,-89.06768123132679,-53.036997755841114,-78.69492304898344,21.405830094856768,22.757423860564842,88.39866205218148,0,292,0.0,0.0,0.0,0.0,0.0,0.0,0.05999756,0.41699982,-1.0680008,-0.35700035,0.6480007,0.46699524
80.21101165815298,40.866976087578024,66.45798384772328,-45.412023412469466,-17.693992069968743,0.4789776979232119,-89.00796717070266,-52.61988114120399,-79.76302977402658,21.046958142216457,23.40554735326326,88.86738471916476,0,293,0.0,0.0,0.0,0.0,0.0,0.0,0.0,0.0,0.0,0.0,0.0,0.0
80.21100649003196,40.86700732061931,66.45798078608962,-45.411979303486014,-17.694005435667698,0.4790025832066932,-89.00741996908155,-52.62014060969131,-79.76310733931918,21.047653848590883,23.405913936491842,88.86632452406268,0,294,0.0,0.0,0.0,0.0,0.0,0.0,0.0,0.0,0.0,0.0,0.0,0.0
80.21099147986418,40.86698163644645,66.45797710867615,-45.4119734602174,-17.69401199298779,0.4789713437179388,-89.00780607523693,-52.62008751050483,-79.76401274874648,21.046784996515935,23.406170724197075,88.86743724483657,0,295,0.0,0.0,0.0,0.0,0.0,0.0,0.0,0.0,0.0,0.0,0.0,0.0
80.21098795372568,40.86699635185327,66.45798591780053,-45.411997905831306,-17.693987932417123,0.47898952897563163,-89.00741851851963,-52.62047537244023,-79.76431190259528,21.047163103156965,23.406057514644758,88.86678094054496,0,296,0.0,0.0,0.0,0.0,0.0,0.0,0.10800171,1.4559975,-3.4680023,-1.1730003,1.9060001,1.3320007
80.21100200328414,40.866995409602815,66.45800986760078,-45.41199678355423,-17.694002256654873,0.4789733457536926,-88.8999237991745,-51.163518118288266,-83.23309548852525,19.873154091678554,25.312153916213376,90.1989107011995,0,297,0.0,0.0,0.0,0.0,0.0,0.0,0.01599884,0.3180008,-0.76399994,-0.24799919,0.4850006,0.3199997
80.21100187093019,40.86697273356716,66.45800667972735,-45.41199941390301,-17.694002062701312,0.4790277875894965,-88.88333546938112,-50.84567083338316,-83.99507644559834,19.626322034642694,25.796410556868096,90.5179932816584,0,298,0.0,0.0,0.0,0.0,0.0,0.0,0.023002625,0.52199936,-1.2220001,-0.3880005,0.6149998,0.43099976
80.2110151748347,40.86698283452322,66.45796363992305,-45.41198393109554,-17.693991457671842,0.47898006303270396,-88.86078407046058,-50.323557724850616,-85.21783711247257,19.237683416189775,26.41172433270818,90.94999815979241,0,299,0.0,0.0,0.0,0.0,0.0,0.0,0.028999329,0.45899963,-1.0169983,-0.29100037,0.57499886,0.39300537
80.21100473271845,40.86701101493268,66.45799316008018,-45.41200440067267,-17.694004866495927,0.4789912077961625,-88.83160165528201,-49.865093778781464,-86.23458177705551,18.9462799333227,26.986911875095213,91.34302813650736,0,300,0.0,0.0,0.0,0.0,0.0,0.0,0.022003174,0.21600342,-0.5059967,-0.12800026,0.28100014,0.19999695
80.21100956710283,40.86697325622225,66.45797346627813,-45.41199533857561,-17.693991281542978,0.47901724699741466,-88.81001927952781,-49.64923210682896,-86.74180022111811,18.81740090529145,27.268463570110136,91.54362093659715,0,301,0.0,0.0,0.0,0.0,0.0,0.0,0.056999207,0.27799988,-0.59000397,-0.095998764,0.28499985,0.16999817
80.21101356450406,40.86699586067572,66.4580268245832,-45.411989136059226,-17.693998255797776,0.4790021679397882,-88.75326594695574,-49.36920239132249,-87.33931567939516,18.717265447791135,27.557252771666363,91.72062429136344,0,302,0.0,0.0,0.0,0.0,0.0,0.0,0.102996826,0.20899963,-0.30400085,0.0069999695,0.1420002,0.03200531
80.21102790624954,40.86699325288563,66.45796412923329,-45.41201373708358,-17.694008181411792,0.4789729143084535,-88.64930526025768,-49.161893403140446,-87.63547100461363,18.729635937962502,27.695389109151627,91.74475593675166,0,303,0.0,0.0,0.0,0.0,0.0,0.0,0.0,0.0,0.0,0.0,0.0,0.0
80.21098893900991,40.86699290552037,66.45797224373902,-45.41197605487391,-17.69399621951847,0.47899327125439656,-88.6504023388591,-49.15732516225021,-87.64768259448364,18.721605434867953,27.7010130527031,91.75585716546108,0,304,0.0,0.0,0.0,0.0,0.0,0.0,0.1969986,0.19199753,-0.06199646,0.34999847,-0.00399971,-0.27500153
80.21100738790807,40.866989368798926,66.45799379218748,-45.41201309352634,-17.693992399800173,0.47899034121768785,-88.45254714121893,-48.96959787789928,-87.69812331155474,19.07945812707746,27.691532492117425,91.46996615787566,0,305,0.0,0.0,0.0,0.0,0.0,0.0,0.04800415,0.034999847,0.017997742,0.15600014,-0.024999619,-0.11000061
80.21100465026991,40.86698323226748,66.45799936707324,-45.41199680210236,-17.693996469573207,0.4789864234766202,-88.40451251177738,-48.93453621122503,-87.68055071536578,19.23488892423694,27.6667369235874,91.36131531682602,0,306,0.0,0.0,0.0,0.0,0.0,0.0,0.09899902,0.10499954,0.06300354,0.32900047,-0.13199997,-0.28199768
80.21100061836131,40.86700761658382,66.45799989642192,-45.4119832783873,-17.694008895861348,0.47901091615069524,-88.30581838215792,-48.829620655314415,-87.6157864829415,19.56500917754412,27.53364859780948,91.07764014489831,0,307,0.0,0.0,0.0,0.0,0.0,0.0,0.027000427,0.048000336,0.019996643,0.09499931,-0.044000626,-0.08200073
80.21098430750543,40.86699299575508,66.45802048124428,-45.412007336370024,-17.694008424871765,0.47901162508130685,-88.27870911782556,-48.781663225785834,-87.59690152264484,19.65939964257863,27.490419252275846,90.99672589663273,0,308,0.0,0.0,0.0,0.0,0.0,0.0,0.018997192,0.033000946,0.0,0.036001205,-0.0189991,-0.035003662
80.21100047620378,40.86700696586314,66.45800029540236,-45.411995808414794,-17.69400657593634,0.47900088684394077,-88.25944381907199,-48.74847301018173,-87.59667677464792,19.696070987592428,27.470934467749498,90.96142032926518,0,309,0.0,0.0,0.0,0.0,0.0,0.0,0.01599884,0.07600021,-0.027999878,0.02299881,-0.0080013275,-0.020996094
80.21099105185522,40.866988530639276,66.45798421685667,-45.41198290628375,-17.693997477690196,0.4790001437965655,-88.24316929728899,-48.672843805307465,-87.6235191872594,19.720188829148654,27.462823886503912,90.9394515816361,0,310,0.0,0.0,0.0,0.0,0.0,0.0,0.0020065308,0.038002014,-0.052001953,-0.0009994507,-0.0019989014,0.0019989014
80.21101252109567,40.86698366365678,66.45801759152569,-45.411999499590195,-17.693991543213595,0.4789860190219959,-88.24105644627224,-48.63512341033208,-87.67499415284247,19.719682250963462,27.46092188319566,90.94096002170362,0,311,0.0,0.0,0.0,0.0,0.0,0.0,0.0,0.010997772,-0.070999146,-0.01099968,0.0,0.0009994507
80.21099180341594,40.86698174333868,66.45798195866365,-45.411988730405724,-17.693997120799164,0.479002000909722,-88.24106446977342,-48.62277622329768,-87.75218882557523,19.704004510546813,27.4642209846192,90.94719844756057,0,312,0.0,0.0,0.0,0.0,0.0,0.0,0.0,0.0,-0.011001587,-0.024000168,0.0019989014,0.011001587
80.21100061584049,40.866987584125624,66.45798649438464,-45.4119836293697,-17.69399978926594,0.4790222598906965,-88.24117202166182,-48.62373972547953,-87.75798355777879,19.683874725809773,27.463034734648602,90.95354339701466,0,313,0.0,0.0,0.0,0.0,0.0,0.0,-0.007003784,0.0,-0.002998352,-0.033000946,0.00399971,0.026000977
80.21099022623626,40.86699750836364,66.45798976143114,-45.41198797394135,-17.693994797221585,0.4790073404722275,-88.24826822281084,-48.62340185837609,-87.76196941894268,19.649230979890948,27.467290847457367,90.98110630595855,0,314,0.0,0.0,0.0,0.0,0.0,0.0,-0.0019989014,0.0,0.0,-0.01499939,0.0040016174,0.01499939
80.21099140533607,40.86699616100318,66.45798243353887,-45.41198764481098,-17.693997101089455,0.4790084104796895,-88.2505908513071,-48.622723048259196,-87.76363834748163,19.633282819845117,27.47164544873034,90.99657666677079,0,315,0.0,0.0,0.0,0.0,0.0,0.0,-0.0060043335,-0.0019989014,-0.0009994507,-0.027000427,0.00399971,0.026000977
80.21099567995138,40.867011971201435,66.45800592588215,-45.41198421726393,-17.694005360180302,0.478996824845905,-88.25642870686386,-48.6252683899564,-87.76344701094415,19.609190376239567,27.475368286698117,91.0210929726442,0,316,0.0,0.0,0.0,0.0,0.0,0.0,-0.022994995,-0.020000458,0.0,-0.052000046,0.01599884,0.051994324
80.21099430336291,40.866963112684566,66.45799059413896,-45.411990544739616,-17.6939980144447,0.47900513696335495,-88.27977982203363,-48.64675921525915,-87.76159543549012,19.555692055358175,27.491989046901384,91.07392626073097,0,317,0.0,0.0,0.0,0.0,0.0,0.0,-0.008003235,-0.01499939,0.0,-0.031999588,0.009000778,0.025001526
80.21101046339876,40.86700382491331,66.4579872362723,-45.41199506209148,-17.694008116780495,0.47898712781122005,-88.28723285988453,-48.66024219047244,-87.76361645850061,19.52538274266719,27.501567791040454,91.09868405221222,0,318,0.0,0.0,0.0,0.0,0.0,0.0,-0.009994507,-0.01599884,0.0,-0.031999588,0.01099968,0.021003723
80.21099394166332,40.86698834405892,66.45798781002982,-45.41200946176348,-17.694003505800513,0.4790000250908123,-88.29719838006277,-48.67711405229575,-87.76073419500699,19.49192190652753,27.51089244683552,91.11890745340729,0,319,0.0,0.0,0.0,0.0,0.0,0.0,-0.019004822,-0.034000397,0.0009994507,-0.052000046,0.019001007,0.025993347
80.2110045526443,40.86702486847171,66.4579910230317,-45.41200483015832,-17.69397810496944,0.4789917163276119,-88.31592635485602,-48.71067098146092,-87.76157563621794,19.440192265967518,27.53042855086359,91.14534841756497,0,320,0.0,0.0,0.0,0.0,0.0,0.0,-0.0079956055,-0.024002075,0.0,-0.02199936,0.01099968,0.025001526
