ias30/Pi0/openpi-main/test2_predictions.csv
joint_0_right_waist,joint_1_right_shoulder,joint_2_right_elbow,joint_3_right_forearm_roll,joint_4_right_wrist_angle,joint_5_right_wrist_rotate,joint_6_left_waist,joint_7_left_shoulder,joint_8_left_elbow,joint_9_left_forearm_roll,joint_10_left_wrist_angle,joint_11_left_wrist_rotate,episode_index,frame_index,gt_joint_0_right_waist,gt_joint_1_right_shoulder,gt_joint_2_right_elbow,gt_joint_3_right_forearm_roll,gt_joint_4_right_wrist_angle,gt_joint_5_right_wrist_rotate,gt_joint_6_left_waist,gt_joint_7_left_shoulder,gt_joint_8_left_elbow,gt_joint_9_left_forearm_roll,gt_joint_10_left_wrist_angle,gt_joint_11_left_wrist_rotate
1.399952529600756,0.71325233110883,1.1599111566966398,-0.7926041774881232,-0.30880739211707064,0.008351408282482365,-1.38747817098859,-0.7788104544669586,-1.2425973160565236,1.2233120702434608,0.2487150784699793,0.7403732771906689,0,0,0.0,0.0,0.0,0.0,0.0,0.0,0.0,0.0,0.0,0.0,1.7464161e-05,0.0
1.3999509126324745,0.713258308648103,1.1599258225345908,-0.7925864890928578,-0.3088253895917932,0.008368860608686992,-1.3878966816153155,-0.7783778543545286,-1.2432850792550885,1.2229405955998498,0.2484962200870305,0.7400263024499437,0,1,0.0,0.0,0.0,0.0,0.0,0.0,3.4928322e-05,-1.7404556e-05,-1.7642975e-05,0.0,-1.7464161e-05,1.7404556e-05
1.3999473369437518,0.7132332923288783,1.1599354813972076,-0.7926047237105976,-0.3087982725782494,0.008359254105178007,-1.3875657116865823,-0.7787371340998003,-1.2418744032776885,1.2245736242763001,0.24865414266632832,0.7384373412982712,0,2,0.0,0.0,0.0,0.0,0.0,0.0,-3.4928322e-05,0.0,5.2571297e-05,0.0,0.0,-1.7404556e-05
1.399936938500812,0.7132556161701968,1.1599123761444015,-0.7925911964977246,-0.3088152430373306,0.00836522638280999,-1.388254698914311,-0.7788175586892826,-1.2425391904850205,1.2228970624885802,0.24860775053823359,0.7405142386354044,0,3,0.0,0.0,0.0,0.0,0.0,0.0,0.0,0.0,-5.2571297e-05,3.4928322e-05,0.0,0.0
1.3999350075233148,0.7132529467021814,1.1598999772496073,-0.792608440905207,-0.30880012361683945,0.0083662865475354,-1.388085872700693,-0.7782246713161737,-1.2432222571395326,1.222135217721308,0.2484859791109324,0.7412511116744446,0,4,0.0,0.0,0.0,0.0,0.0,0.0,3.4928322e-05,0.0,0.0,-5.2332878e-05,0.0,1.7404556e-05
1.3999621860954479,0.7132723307218544,1.1598887563881275,-0.7925803632450412,-0.3088152145786489,0.0083571829838169,-1.3879001251481624,-0.7786092565568544,-1.2426415932168708,1.2229535936104687,0.2486609777544538,0.7398485123803541,0,5,0.0,0.0,0.0,0.0,0.0,0.0,-3.4928322e-05,0.0,1.7642975e-05,0.0,-1.744926e-05,-1.7404556e-05
1.3999349071158411,0.7132587948763102,1.1599006592623198,-0.7925758260697361,-0.30880645374758786,0.008350744853318968,-1.3892185741272214,-0.7799263470050964,-1.2445396338466983,1.2122571673978377,0.2494633966169452,0.7518580078056989,0,6,0.0,0.0,0.0,0.0,0.0,0.0,0.0,-3.4987926e-05,3.4928322e-05,0.0,0.0,1.7404556e-05
1.3999252642264624,0.7132358337201244,1.1599080720474866,-0.7925912630979429,-0.30882094428078705,0.008378236966676379,-1.3875000170180556,-0.7785834351975063,-1.2429109054739873,1.224625886217663,0.248952752789655,0.7385069663015487,0,7,0.0,0.0,0.0,0.0,0.0,0.0,0.0,3.4987926e-05,-5.2571297e-05,0.0,1.744926e-05,-3.4928322e-05
1.3999651475603,0.713258171955443,1.1599004909923558,-0.7925980244073059,-0.308799275985493,0.008359671294390523,-1.3877259639385087,-0.7787008193985671,-1.2434191912724428,1.2227855986717746,0.24870103657319903,0.7403217527318612,0,8,0.0,0.0,0.0,0.0,0.0,0.0,0.0,-3.4987926e-05,1.7642975e-05,1.7404556e-05,-1.744926e-05,1.7523766e-05
1.3999256232243866,0.7132542899439382,1.159903478265725,-0.7925797689257238,-0.30883759801592925,0.00835894360869501,-1.3882529060017323,-0.7790118210622282,-1.2421729895919633,1.2243632619721716,0.24806489259334735,0.7387775674916791,0,9,0.0,0.0,0.0,0.0,0.0,0.0,0.0,3.4987926e-05,0.0,-1.7404556e-05,1.744926e-05,1.7404556e-05
1.399948986163357,0.713262209837935,1.1599343594967646,-0.7925806694941755,-0.3088143493265385,0.008362703314082065,-1.3880901396844825,-0.7785017634014624,-1.243085534260036,1.22294833097284,0.24876327208054477,0.7401720881490672,0,10,0.0,0.0,0.0,0.0,0.0,0.0,0.0,0.0,-1.7642975e-05,1.7404556e-05,-1.744926e-05,0.0
1.3999436119098194,0.7132504509988344,1.1599350349743773,-0.7925789220178063,-0.308817799359555,0.008348030294047036,-1.3889973582801978,-0.7791571664845002,-1.2438974550991402,1.2181195183282758,0.24884087281927597,0.7455211021812341,0,11,0.0,0.0,0.0,0.0,0.0,0.0,0.0,1.7404556e-05,1.7642975e-05,0.0,0.0,-1.7404556e-05
1.3999451722231673,0.713252197147674,1.159928220478065,-0.7925855534567434,-0.30880842326632574,0.008369850584016481,-1.3873803273015124,-0.7783598392264061,-1.243027985577186,1.2239994217331482,0.24884536861650533,0.7392919879679829,0,12,0.0,0.0,0.0,0.0,0.0,0.0,0.0,-1.7404556e-05,0.0,-1.7404556e-05,0.0,0.0
1.399960164543891,0.7132500175846751,1.159887891168879,-0.792573180139267,-0.3088204748014534,0.008368851431579628,-1.3878838684256367,-0.778896366404214,-1.2428229362004086,1.2224182813328892,0.24846926828784777,0.7400065736098093,0,13,0.0,0.0,0.0,0.0,0.0,0.0,0.0,0.0,-1.7642975e-05,0.0,0.0,0.0
1.3999533645087012,0.7132536738751373,1.159916033104222,-0.7925891769598361,-0.3088136918712581,0.008384734539547304,-1.387589024000385,-0.7781110123973601,-1.2434769147566043,1.2226650122220597,0.24870224127359272,0.740645327059881,0,14,0.0,0.0,0.0,0.0,0.0,0.0,3.4928322e-05,0.0,1.7642975e-05,1.7404556e-05,0.0,0.0
1.3999542348572107,0.7132586753352574,1.1599026077680548,-0.7925796149434831,-0.3088089883893157,0.008375379871377089,-1.3876052040724356,-0.7788994431508368,-1.2421049918817786,1.2228468660546667,0.24874366306761211,0.7399700442948699,0,15,0.0,0.0,0.0,0.0,0.0,0.0,0.0,-3.4987926e-05,3.4928322e-05,0.0,1.744926e-05,0.0
1.399951714572193,0.7132384620533688,1.1598778224371074,-0.7925960916137781,-0.30881818559420915,0.008351052146577576,-1.387315729367217,-0.7789014034219425,-1.2430158104355542,1.2236261078513864,0.24862536464293755,0.7398191367282444,0,16,0.0,0.0,0.0,0.0,0.0,0.0,-3.4928322e-05,3.4987926e-05,-3.4928322e-05,0.0,0.0,0.0
1.3999408832660558,0.7132583391197539,1.1599214250109193,-0.7925681363622781,-0.3088084746409735,0.008343314799080903,-1.387779207999267,-0.777925926274457,-1.2434361894101402,1.222026216786876,0.2488762628186521,0.7410327184022678,0,17,0.0,0.0,0.0,0.0,0.0,0.0,0.0,0.0,0.0,-1.7404556e-05,0.0,0.0
1.3999412251440695,0.7132446495828322,1.1598856093115246,-0.7925634731238719,-0.30880173709103337,0.00835131059905451,-1.3879640416017653,-0.7791564408709125,-1.2420868683330322,1.224286144025945,0.24845560611647607,0.7385353839387604,0,18,0.0,0.0,0.0,0.0,0.0,0.0,0.0,-3.4987926e-05,0.0,1.7404556e-05,0.0,0.0
1.3999523469162822,0.7132576782114051,1.1599001133978308,-0.7925959417110804,-0.3088073764123215,0.008374016368946361,-1.3874442689344304,-0.7771418850080593,-1.2470115103505621,1.2186484715853874,0.2494363516277459,0.7447178017134891,0,19,0.0,0.0,0.0,0.0,0.0,0.0,0.0,3.4987926e-05,0.0,0.0,0.0,0.0
1.3999389912232103,0.7132580916035474,1.1599047589812128,-0.792590198734346,-0.3087983250492277,0.008370615628854671,-1.388194231351446,-0.7789379932550363,-1.2430191469534233,1.2224595497977855,0.24860351573626951,0.7407652094343595,0,20,0.0,0.0,0.0,0.0,0.0,0.0,0.0,-3.4987926e-05,0.0,-1.7404556e-05,-1.744926e-05,1.7404556e-05
1.3999535171186641,0.7132699509237698,1.1599090195083095,-0.792573860680883,-0.30880303435216344,0.008350027215455958,-1.3878877540894166,-0.7783748316091641,-1.2434585267862475,1.2232077508152386,0.24880754715111156,0.7407323067970911,0,21,0.0,0.0,0.0,0.0,0.0,0.0,3.4928322e-05,3.4987926e-05,0.0,0.0,1.744926e-05,-1.7404556e-05
1.399956227113621,0.7132422197488165,1.159916804052092,-0.7925875681580986,-0.3087948683860215,0.008334214033988605,-1.3876371979162432,-0.7787253979553592,-1.2431157302568083,1.2229272446220687,0.2490525558932366,0.7403538192565782,0,22,0.0,0.0,0.0,0.0,0.0,0.0,-5.2332878e-05,0.0,0.0,1.7404556e-05,-1.744926e-05,1.7404556e-05
1.3999490892352124,0.7132730444293349,1.1599454168632848,-0.7925724339408736,-0.3088081769517946,0.00833907048015047,-1.387617802466805,-0.7788871024213619,-1.2431730799636973,1.222790270324997,0.24869426466072114,0.7403157651043836,0,23,0.0,0.0,0.0,0.0,0.0,0.0,1.7404556e-05,0.0,3.4928322e-05,0.0,0.0,-1.7404556e-05
1.3999666991738544,0.7132607024281314,1.1599276031991985,-0.7925708647711139,-0.3088015925357441,0.008357203737187032,-1.3879031051183481,-0.7789003807038274,-1.2432419940347308,1.2230095647929922,0.24852884902517203,0.7402618832055594,0,24,0.0,0.0,0.0,0.0,0.0,0.0,0.0,0.0,-5.2571297e-05,0.0,0.0,0.0
1.3999522510358335,0.713270878150954,1.1598856729471756,-0.7925818285673104,-0.30880007249949376,0.00836225295341138,-1.3876619250432232,-0.7784064952454764,-1.2426744837572645,1.2234511520004205,0.24851564987067926,0.7388641993743662,0,25,0.0,0.0,0.0,0.0,0.0,0.0,3.4928322e-05,0.0,1.7642975e-05,-1.7404556e-05,1.744926e-05,0.0
1.3999409412350015,0.7132601315596607,1.1599292605378029,-0.7925850452105637,-0.30880244923978545,0.008355655877352992,-1.3882968602767418,-0.7791382985791482,-1.2430268382111305,1.2219989909723872,0.248693372803137,0.7409294816991406,0,26,0.0,0.0,0.0,0.0,0.0,0.0,-3.4928322e-05,-3.4987926e-05,0.0,1.7404556e-05,0.0,1.7404556e-05
1.3999463582813234,0.7132559625360808,1.1599336026408447,-0.7926083148495641,-0.3088125729353825,0.008361875013952443,-1.3883476469548808,-0.7796257194384681,-1.2418240638590903,1.2224234855149192,0.2483523688680968,0.73985505927641,0,27,0.0,0.0,0.0,0.0,0.0,0.0,3.4928322e-05,3.4987926e-05,0.0,0.0,0.0,-1.7404556e-05
1.3999657627360018,0.7132643575159862,1.1598980115214137,-0.7925972280238207,-0.3087974667827288,0.008372530649894216,-1.3882933385416873,-0.7785825033902404,-1.2428338371077297,1.2234763441930492,0.248234730305215,0.7387713667533456,0,28,0.0,0.0,0.0,0.0,0.0,0.0,0.0,0.0,0.0,0.0,0.0,1.7404556e-05
1.399962320530189,0.7132510797481528,1.159896319439571,-0.7925956343879896,-0.3088068771213727,0.008377911360222215,-1.3881417657702582,-0.7784075808771815,-1.243277678093175,1.2229494002253045,0.24866752812047171,0.7399337531820073,0,29,0.0,0.0,0.0,0.0,0.0,0.0,0.0,1.7404556e-05,0.0,0.0,-1.744926e-05,-1.7404556e-05
1.3999584560282767,0.7132473959990843,1.1599021363589557,-0.7925865325657214,-0.30880743184600273,0.00837116583764676,-1.3880268006859278,-0.7787171835609783,-1.2425525966741868,1.2240272385320432,0.24863225324021934,0.739881139811483,0,30,0.0,0.0,0.0,0.0,0.0,0.0,-3.4928322e-05,-1.7404556e-05,0.0,-1.7404556e-05,0.0,0.0
1.3999347819253296,0.7132498608299113,1.1599165937020515,-0.7925939224715132,-0.30880038721349334,0.008367900383443871,-1.3879706335426059,-0.7788307293288407,-1.2427327628983091,1.2236982031345613,0.2484552246335236,0.739640166735569,0,31,0.0,0.0,0.0,0.0,0.0,0.0,0.0,0.0,0.0,1.7404556e-05,3.491342e-05,0.0
1.399972143984096,0.7132616245838544,1.1599120797286813,-0.7926026471486028,-0.3088194395707908,0.008389592917339244,-1.3879510754331974,-0.7787164379382299,-1.2429287300452405,1.2226837869386216,0.24867537356426975,0.7404116082458037,0,32,0.0,0.0,0.0,0.0,0.0,0.0,-1.7404556e-05,0.0,0.0,0.0,-1.7464161e-05,1.7404556e-05
1.399953780901769,0.7132714296984627,1.159919580132663,-0.7925859349611413,-0.30879766203025605,0.008346162937284747,-1.388446643697518,-0.7787781993112047,-1.2436368966479556,1.2220939754838631,0.24878260330561347,0.7411984758969459,0,33,0.0,0.0,0.0,0.0,0.0,0.0,1.7404556e-05,0.0,0.0,0.0,0.0,-1.7404556e-05
1.399947580540763,0.7132561868736587,1.1599237726574314,-0.7925775600731719,-0.30881115781125673,0.008364482770488898,-1.38747759675415,-0.7786622096166935,-1.2429641849580664,1.2222240780891203,0.2486553105542325,0.7406466923403392,0,34,0.0,0.0,0.0,0.0,0.0,0.0,0.0,0.0,0.0,0.0,0.0,0.0
1.3999394495341422,0.7132479960685438,1.1599276887912935,-0.7925877580022823,-0.3088198454741376,0.008350204578624407,-1.388397733853432,-0.7786269852879152,-1.2433987019671708,1.2218207546427846,0.2486803397365403,0.7410161909835544,0,35,0.0,0.0,0.0,0.0,0.0,0.0,0.0,0.0,0.0,0.0,0.0,0.0
1.3999478675015642,0.7132455296230531,1.159905546549305,-0.7925948595395695,-0.30882160888086135,0.008359453633615116,-1.3879749443266665,-0.7785792911139467,-1.2440234362758107,1.2222364895903646,0.2489549498154292,0.7403917762033669,0,36,0.0,0.0,0.0,0.0,0.0,0.0,0.0,0.0,0.0,0.0,-1.744926e-05,0.0
1.3999723784981573,0.7132632975992403,1.159907263604365,-0.7926015546290737,-0.30880820199959225,0.008349879348800817,-1.387807851122315,-0.778245400384125,-1.2435923223135157,1.222540997617652,0.24875690352438593,0.7403742425622055,0,37,0.0,0.0,0.0,0.0,0.0,0.0,0.0,0.0,3.4928322e-05,5.2332878e-05,0.0,0.0
1.3999485406504066,0.7132814281252391,1.1598881691651268,-0.7925932597993399,-0.30881228898016794,0.008356785806366542,-1.3882405102028748,-0.7787579936778052,-1.2428194360387586,1.222935791715376,0.24909772467486327,0.7407217333144426,0,38,0.0,0.0,0.0,0.0,0.0,0.0,0.0,0.0,0.0,0.0,0.0,0.0
1.3999276467168962,0.7132691102395794,1.1599058264436217,-0.7925933069042649,-0.3088129178767825,0.008362820867569485,-1.38800075782336,-0.778618967006791,-1.2423074913465886,1.2224072121234366,0.24852985082518014,0.7403679622720973,0,39,0.0,0.0,0.0,0.0,0.0,0.0,0.000104665756,-3.4987926e-05,1.7404556e-05,0.00019204617,1.744926e-05,-6.9856644e-05
1.3999596855630259,0.7132750260170317,1.1599203402775746,-0.792586725027674,-0.3088056347420296,0.008340358739436903,-1.3875691489446174,-0.7778436476045618,-1.243912930582761,1.2227579409045033,0.24870138456688606,0.7398993054420657,0,40,0.0,0.0,0.0,0.0,0.0,0.0,6.997585e-05,3.4987926e-05,3.4928322e-05,0.00012207031,-1.744926e-05,-1.7464161e-05
1.3999756117001043,0.7132531698296937,1.1598929350316354,-0.792591230562282,-0.30881962926954276,0.008353062399217227,-1.3871165083943306,-0.7784748646659426,-1.2435269149425978,1.2232050802805057,0.248769652747647,0.7396808176334918,0,41,0.0,0.0,0.0,0.0,0.0,0.0,0.0,0.0,0.0,0.0,0.0,0.0
1.399925486091703,0.7132307693813434,1.15989898809839,-0.7925833596507694,-0.3088396846984724,0.008373844080035874,-1.388137104958661,-0.7787832590855837,-1.2436128223488607,1.2229935589430898,0.2488308759097214,0.7403207643601845,0,42,0.0,0.0,0.0,0.0,0.0,0.0,0.0021291971,0.0019372702,-0.00027930737,0.005707383,0.00022688508,-0.004415691
1.3999485946763846,0.7132511388530499,1.1599048047138598,-0.7925831633404727,-0.3088003553378681,0.00833520215226833,-1.3855378715657358,-0.7765049378241661,-1.2431046205321261,1.2284579625842924,0.24897056230368758,0.7354030483876185,0,43,0.0,0.0,0.0,0.0,0.0,0.0,0.0,0.0,0.0,0.0,0.0,0.0
1.399955747487636,0.7132451357420525,1.1599098098060412,-0.7925800026119437,-0.3088080085121604,0.008343129293606916,-1.3857234517052122,-0.7766259329138673,-1.242637426835296,1.2289048437545735,0.24873611385986052,0.7355758326922963,0,44,0.0,0.0,0.0,0.0,0.0,0.0,0.0061610937,0.004363358,0.00012218952,0.028832793,0.00443314,-0.028134704
1.3999621203529031,0.7132451999967202,1.1598981462358309,-0.7925862422991481,-0.3088060457392117,0.00834845637136821,-1.3792911457782961,-0.7723181743869246,-1.2432972882855544,1.2581714225541123,0.2536072675962346,0.7068450056965794,0,45,0.0,0.0,0.0,0.0,0.0,0.0,0.0,0.0,0.0,0.0,0.0,0.0
1.399932984077418,0.7132414236412785,1.1598988830799886,-0.7925850611483763,-0.308820574033355,0.00838012440791663,-1.3791421971584192,-0.7723903037797206,-1.2431611124851079,1.2584346842114809,0.25341406607081146,0.7068389748120353,0,46,0.0,0.0,0.0,0.0,0.0,0.0,0.0,0.0,0.0,0.0,0.0,0.0
1.3999365680641325,0.7132509289765946,1.1599172164364677,-0.7925773405609402,-0.30880435590223654,0.008353108866480479,-1.3795410585325247,-0.7722640177343706,-1.2430227777025051,1.2582851420672274,0.25316804156425915,0.706998800777623,0,47,0.0,0.0,0.0,0.0,0.0,0.0,0.010506749,0.0054104924,0.0071558952,0.055239677,0.007731825,-0.05211556
1.399940234463956,0.7132517551437273,1.1598881087084616,-0.7925801375426438,-0.3088264462605665,0.008352823421524207,-1.368981703116848,-0.7669698525021916,-1.2365364066309998,1.3135722235156688,0.26116860342717163,0.6546233901790933,0,48,0.0,0.0,0.0,0.0,0.0,0.0,0.0,0.0,0.0,0.0,0.0,0.0
1.3999429470599012,0.7132473036705228,1.159915510540487,-0.7925816262682147,-0.3088438079306731,0.008345439732001463,-1.3689269521335183,-0.7670098722388304,-1.236352368743786,1.3108716580561377,0.2606743864836986,0.6574489208643924,0,49,0.0,0.0,0.0,0.0,0.0,0.0,0.012269735,0.0056374073,0.0117634535,0.06312847,0.010105431,-0.05850339
1.3999388567977917,0.7132494615567542,1.159929152194984,-0.7925762643931444,-0.3088097987193192,0.008383786474624018,-1.3554759937025314,-0.7631328754005072,-1.2188465967153657,1.3871946362835978,0.26969555436667964,0.5844178395553579,0,50,0.0,0.0,0.0,0.0,0.0,0.0,0.008813858,0.0039619207,0.008918643,0.045832396,0.008168161,-0.04729843
1.3999468912620636,0.7132598598346851,1.1598912293295633,-0.7925910442727825,-0.3088113161900068,0.008373188724191228,-1.3473306351940588,-0.757367361340341,-1.2143100201692845,1.4233628928215498,0.2783345899579154,0.5480933881041248,0,51,0.0,0.0,0.0,0.0,0.0,0.0,0.003071785,0.001413703,0.0032986403,0.017086864,0.0030193925,-0.016982079
1.3999476379303128,0.7132720355628124,1.1598844545621831,-0.7925934327063348,-0.3088008661682556,0.008350973893185445,-1.3420559639935903,-0.7564595621330145,-1.2071466869468543,1.4546001171684515,0.2809832520462149,0.517185698791681,0,52,0.0,0.0,0.0,0.0,0.0,0.0,0.0,0.0,0.0,0.0,0.0,0.0
1.3999430789034424,0.7132424423561311,1.1599061199637613,-0.792587879155202,-0.3088117539167727,0.008357359728901016,-1.3440267861892057,-0.7559033062547728,-1.2114378378538722,1.4393334090212286,0.282046904417103,0.5319353546445462,0,53,0.0,0.0,0.0,0.0,0.0,0.0,0.006824255,0.0031067133,0.005253434,0.033998966,0.0053756237,-0.030735254
1.3999463944937938,0.7132380349076848,1.1598942794629483,-0.7926018263568461,-0.3088403836949865,0.008374031153560916,-1.3374741056158261,-0.7528581880697367,-1.2067007290647493,1.473958786604554,0.2873903616568965,0.5008476319845239,0,54,0.0,0.0,0.0,0.0,0.0,0.0,0.001902461,0.0013613105,0.00012218952,0.0060563087,0.0012391806,-0.0068241954
1.399947899875013,0.7132605990188001,1.1599104406398792,-0.7926165586738225,-0.30880402069170276,0.008363274302813525,-1.3356275565913223,-0.7513620637995456,-1.2078755477404186,1.4763026917847404,0.2888648346891407,0.4973084707347422,0,55,0.0,0.0,0.0,0.0,0.0,0.0,0.0,0.0,0.0,0.0,0.0,0.0
1.3999416241338214,0.7132566854337203,1.1599079994155856,-0.7926006877000715,-0.30882573298192273,0.008356883581155279,-1.3356064207059621,-0.7515445344228953,-1.2066579413111362,1.480609581167278,0.28857711421172466,0.4931077543201643,0,56,0.0,0.0,0.0,0.0,0.0,0.0,0.0005759001,0.0031067133,-0.0064228773,-0.01022768,0.00085523725,0.01059413
1.3999484866393448,0.7132598078857689,1.1598986240644305,-0.792568989382052,-0.3088212546579415,0.008345094566860537,-1.3356880134399582,-0.7481284785003934,-1.2129224671992853,1.467898060570739,0.2899124339983503,0.5065686427092856,0,57,0.0,0.0,0.0,0.0,0.0,0.0,0.0,0.0,0.0,0.0,0.0,0.0
1.3999511439955177,0.7132473740351825,1.159918726698036,-0.7925771848931845,-0.3088204146114128,0.008346661894486586,-1.3353816221681671,-0.7482480602889178,-1.2124167037790252,1.4676037108660853,0.2894482112986288,0.5055667870086971,0,58,0.0,0.0,0.0,0.0,0.0,0.0,0.0,0.0,0.0,0.0,0.0,0.0
1.3999472454663382,0.713252221546623,1.159901206156017,-0.7925852219882767,-0.30882534011521434,0.008359785287134183,-1.3358673278862032,-0.7479816100714684,-1.2134093743929613,1.4672303992218396,0.2893292106392447,0.506548733265122,0,59,0.0,0.0,0.0,0.0,0.0,0.0,-3.4928322e-05,0.0044505596,-0.014521003,-0.030682921,0.0013788044,0.03256786
1.3999431747685092,0.7132522544999338,1.1598900916441974,-0.7925868759260188,-0.30880689941715694,0.008357407030531505,-1.334552236857589,-0.743101467182238,-1.2288103451578387,1.438686250176936,0.2909853159478567,0.5366755406006258,0,60,0.0,0.0,0.0,0.0,0.0,0.0,0.00041890144,0.006091237,-0.016475916,-0.028885126,0.0026703477,0.030682921
1.3999678161258937,0.7132155151271067,1.1598791211115342,-0.7926073974968131,-0.3088274930250744,0.008380738354907671,-1.334986408689934,-0.7375259146384057,-1.2446196427016571,1.4068925401955776,0.29331747529596186,0.5709494435764092,0,61,0.0,0.0,0.0,0.0,0.0,0.0,0.0,0.0,0.0,0.0,0.0,0.0
1.3999674612597188,0.7132388809765736,1.1599265695608256,-0.7925893181254502,-0.3087973183529923,0.008339142025043557,-1.3350389828641889,-0.7377138544138231,-1.2451648033621945,1.4069782392958416,0.2936167946841735,0.5708348460198306,0,62,0.0,0.0,0.0,0.0,0.0,0.0,0.0016231537,0.007976115,-0.016982198,-0.027541399,0.0029845238,0.029722929
1.399955434089979,0.713261051344662,1.1598886854025867,-0.7925880408779468,-0.308818680380507,0.008360036844195166,-1.333128176836594,-0.730018411703889,-1.2613311059473022,1.3810170019909012,0.2966464912136928,0.5989498839229569,0,63,0.0,0.0,0.0,0.0,0.0,0.0,0.0,0.0,0.0,0.0,0.0,0.0
1.3999552619325162,0.7132602173726997,1.159902307153463,-0.792595644736008,-0.30880378351139526,0.008374017788769046,-1.3338249547741023,-0.7299217185342856,-1.2615320158802554,1.3800528563470855,0.2968634283691325,0.5990862829659089,0,64,0.0,0.0,0.0,0.0,0.0,0.0,0.000977397,0.0046949387,-0.009878397,-0.014643192,0.002233982,0.01579523
1.3999300506547632,0.7132404412395796,1.159913716531597,-0.7925951961428906,-0.3088329409378568,0.00837617562838767,-1.3326221805454306,-0.7250874901505092,-1.2715320098889686,1.3661462932274153,0.2990265947091214,0.6145860686589237,0,65,0.0,0.0,0.0,0.0,0.0,0.0,0.00038397312,0.00094246864,-0.0017977953,-0.0027053356,0.00038400292,0.0031764507
1.3999379827901859,0.7132371223746865,1.159902124595776,-0.7925845837299685,-0.30882513452712695,0.00836282513356332,-1.331586875054418,-0.7240100291717054,-1.273230469864881,1.3641382732604637,0.2997960404831235,0.6175366476742795,0,66,0.0,0.0,0.0,0.0,0.0,0.0,0.00071561337,0.0005236268,-0.0009599924,-0.0012739897,0.00047126412,0.0017802715
1.3999339272349567,0.7132592090655296,1.1599096149015835,-0.7925784510207634,-0.30881977246513975,0.008348803751544395,-1.3320015862354442,-0.7242901125866783,-1.2740609982139148,1.3614845297072276,0.29974022344588724,0.6201930230832462,0,67,0.0,0.0,0.0,0.0,0.0,0.0,0.0,0.0,0.0,0.0,0.0,0.0
1.3999413267280476,0.7132448072754434,1.1598934358999577,-0.7925871423082474,-0.3088084493601123,0.008353744816528001,-1.3313472855434583,-0.7243198585607568,-1.2730605173286127,1.3641102166938641,0.29987393650503946,0.6181961337842646,0,68,0.0,0.0,0.0,0.0,0.0,0.0,0.0018849373,0.0,0.0013439655,0.0048519373,0.0010646284,-0.0048345923
1.3999457036600949,0.7132409139445117,1.159926497404374,-0.7925891309661578,-0.30880230913321177,0.008351183818118016,-1.3295464260443974,-0.7245863090570739,-1.2713702763922687,1.3683625883425232,0.30046199680818647,0.6137034086199851,0,69,0.0,0.0,0.0,0.0,0.0,0.0,0.0,0.0,0.0,0.0,0.0,0.0
1.3999440771977396,0.7132263629527829,1.1598995684022027,-0.7925921192155966,-0.30881084913826234,0.008374201472618917,-1.3287368134548754,-0.7233538605135661,-1.2725772999038498,1.3696371848561186,0.30136858451324217,0.61277280980908,0,70,0.0,0.0,0.0,0.0,0.0,0.0,0.0017453432,-1.7464161e-05,0.0013438463,0.0039269924,0.0014660656,-0.0032113194
1.3999347160196405,0.7132712244049675,1.1599055267519613,-0.7925759514914464,-0.3088041248505662,0.008347705325254539,-1.3274472723248834,-0.7233812737012917,-1.2721256667671395,1.3710388819820614,0.30267506215748896,0.6118019632288991,0,71,0.0,0.0,0.0,0.0,0.0,0.0,0.002233982,0.0019198656,-0.0050438643,-0.0031241179,0.0019373,0.0044505
1.3999524476444514,0.7132302423595703,1.1599056883190197,-0.7925889664046999,-0.308825961734655,0.008362269644485155,-1.3254860160259123,-0.721776424128139,-1.2766097611774874,1.3676134355501424,0.3043325742055365,0.6162853187672359,0,72,0.0,0.0,0.0,0.0,0.0,0.0,0.0008727312,0.0021642447,-0.0041189194,-0.0043284893,0.0010123253,0.0040492415
1.3999507566738554,0.7132516401688541,1.1599126677739302,-0.7925728150723699,-0.308806125586758,0.008374463055604436,-1.3248676893473497,-0.7195941869212676,-1.2807118995202502,1.363752225737529,0.3049515176178462,0.6203546834812488,0,73,0.0,0.0,0.0,0.0,0.0,0.0,0.0,0.0,0.0,0.0,0.0,0.0
1.399933594069788,0.7132532912557639,1.1599043627658483,-0.7925891298847433,-0.30883248470025754,0.008371419925310949,-1.3249114799568917,-0.7195929437293485,-1.2818006978384082,1.3624222686030951,0.3056101571845797,0.6217939728906288,0,74,0.0,0.0,0.0,0.0,0.0,0.0,0.0023386478,0.007243097,-0.012269735,-0.013788104,0.004049152,0.015934825
1.3999371731938661,0.7132067796097687,1.1598979437987615,-0.7925627529912974,-0.308808982482555,0.00834886966003042,-1.3220805094492518,-0.712459467245835,-1.292597175611586,1.3492011810301594,0.3094013791217406,0.6364177704653634,0,75,0.0,0.0,0.0,0.0,0.0,0.0,0.0,0.0,0.0,0.0,0.0,0.0
1.399968836110476,0.713258614239066,1.159885386264186,-0.7925763588341932,-0.30882679423365617,0.0083423556067751,-1.3220365616740302,-0.712145974010346,-1.293286080597441,1.349228207985907,0.30948176302712793,0.6366256005518841,0,76,0.0,0.0,0.0,0.0,0.0,0.0,0.0039271116,0.014172077,-0.026494145,-0.02935636,0.0069289505,0.033178687
1.3999400852268875,0.7132600780119291,1.159920132504284,-0.7925851023987468,-0.30880770335935676,0.008349108471782246,-1.3187224433356899,-0.6984325750645496,-1.3197915954599626,1.319473276511779,0.31621763882997717,0.6700597977976078,0,77,0.0,0.0,0.0,0.0,0.0,0.0,0.0007853508,0.0027925372,-0.0050439835,-0.0060214996,0.0013264418,0.0064751506
1.3999469147250296,0.713258660154435,1.1599024493259116,-0.7925958827292409,-0.3087999785021978,0.008347667281837503,-1.317267435549212,-0.6961935373070363,-1.3224998481011252,1.3198157491886242,0.3175732165611521,0.6704257350570985,0,78,0.0,0.0,0.0,0.0,0.0,0.0,0.0005584955,0.002094388,-0.0033335686,-0.0042409897,0.0007504821,0.004118979
1.3999248158440345,0.7132535892115673,1.1599056670039667,-0.7925810808493431,-0.3088178193470786,0.00834879998523865,-1.3167606216346524,-0.6937211117427272,-1.3271474440753583,1.3107374475493212,0.3183289140536538,0.6785985082769301,0,79,0.0,0.0,0.0,0.0,0.0,0.0,0.00071549416,0.0025132895,-0.0040841103,-0.0052535534,0.0012392104,0.0066148043
1.3999439776181073,0.713254520369134,1.1599059631922168,-0.7925753631571989,-0.30880912484891215,0.008361924925893844,-1.316666639731897,-0.6910525852123804,-1.3323407690698865,1.3030694984311497,0.3194998327317289,0.6880084329622788,0,80,0.0,0.0,0.0,0.0,0.0,0.0,0.00013971329,0.0001745224,-0.00040137768,-0.0006980896,8.72612e-05,0.0006457567
1.3999430004444884,0.7132498202507637,1.1598938584086111,-0.792577915340216,-0.30881978649416253,0.008377070636877159,-1.3159148134611476,-0.6911704122728327,-1.331679991187752,1.303718064863376,0.3200943005982284,0.6873088045352694,0,81,0.0,0.0,0.0,0.0,0.0,0.0,3.4928322e-05,0.0,1.7404556e-05,3.4809113e-05,1.7464161e-05,0.0
1.3999371267638931,0.7132791973759076,1.1598978600786325,-0.7925752116006829,-0.3088167925850103,0.008340623663620391,-1.3160175994915522,-0.6901978092456946,-1.332494176502491,1.3046730013777885,0.3196715952466125,0.6866384711806757,0,82,0.0,0.0,0.0,0.0,0.0,0.0,0.0,-0.00022691488,0.0010995865,0.0012916327,0.0,-0.0010820627
1.3999560535055713,0.7132534685760485,1.1598985325320137,-0.792576542249554,-0.3088272015204678,0.008369939237633088,-1.3160945024621258,-0.6911573242393362,-1.33047222872975,1.3076383038500756,0.3198478435038282,0.6839214449776878,0,83,0.0,0.0,0.0,0.0,0.0,0.0,-3.4928322e-05,-0.00027924776,0.00085520744,0.00076794624,0.0,-0.0009599924
1.3999553190983252,0.7132584376925519,1.1599083880181646,-0.7925714866590436,-0.30881218554846257,0.008356026299116501,-1.3161294041950662,-0.6914845913858612,-1.329714441290101,1.3063329422756456,0.31972892281269044,0.6861851910941839,0,84,0.0,0.0,0.0,0.0,0.0,0.0,-6.9856644e-05,-0.0005235672,0.0010297298,0.0013612509,0.0,-0.0011867285
1.3999500742658673,0.7132480834692112,1.1599114637736154,-0.7925701395596202,-0.30881883468344307,0.008353759564784655,-1.3162814954884123,-0.6917003354135688,-1.3297134309111733,1.308360712045487,0.31987548791142034,0.6840229579875026,0,85,0.0,0.0,0.0,0.0,0.0,0.0,-0.00019192696,-0.0010123253,0.0017104149,0.0018501282,-1.7464161e-05,-0.0023736954
1.3999387450858072,0.7132432020088127,1.1599269352803006,-0.7925810742564435,-0.3088195960475098,0.008378731831283608,-1.3171041884561503,-0.692199123961565,-1.3286424845747213,1.3070404090659498,0.3198633215460084,0.6844909575025383,0,86,0.0,0.0,0.0,0.0,0.0,0.0,-0.00012218952,-0.0005584955,0.0009948015,0.00089013577,0.0,-0.0009075403
1.3999543742925615,0.7132339677878461,1.1598774950220807,-0.7925917198315013,-0.30881795493408537,0.0083642714993817,-1.316446141113565,-0.6930740168830023,-1.3269954004147813,1.3090399275413025,0.3199757779907781,0.6815714911136802,0,87,0.0,0.0,0.0,0.0,0.0,0.0,-0.00031411648,-0.0010646582,0.0012741089,0.0018150806,-5.236268e-05,-0.0023038387
1.3999597623024376,0.7132372933612383,1.159887805116251,-0.792577921783955,-0.30882669712636124,0.008354591317982713,-1.3164029348053732,-0.6941548378335403,-1.326041205863238,1.311833344514439,0.31970318138258136,0.6781667964067248,0,88,0.0,0.0,0.0,0.0,0.0,0.0,-0.00012230873,-0.0005584955,0.00085520744,0.0011345148,-0.00010469556,-0.0010646582
1.3999645379706638,0.7132428271047725,1.1599092976518532,-0.7925731058274444,-0.3088211275768193,0.00835245129746508,-1.3164388060704677,-0.693057484612988,-1.3269201026508195,1.3117435303645473,0.32024202596048224,0.6788783071883805,0,89,0.0,0.0,0.0,0.0,0.0,0.0,-0.00027918816,-0.0007854104,0.0016756058,0.001902461,-0.00019198656,-0.0019198656
1.399939557641101,0.7132423691480971,1.159885213620087,-0.792592361565252,-0.30881398552144707,0.008338992830858866,-1.3173788762389766,-0.6954229086880501,-1.3238631133995855,1.3143811538347747,0.31951704241550627,0.6761342089731354,0,90,0.0,0.0,0.0,0.0,0.0,0.0,-0.00020945072,-0.00062829256,0.00068068504,0.00085508823,-0.00015708804,-0.000977397
1.3999438111026452,0.7132505487736231,1.1598871275093703,-0.7925674241799648,-0.30882882420905927,0.008344235662699977,-1.3174140706465722,-0.6961745838719925,-1.322123441093645,1.316956872756397,0.31948643979535635,0.6735423732187734,0,91,0.0,0.0,0.0,0.0,0.0,0.0,-8.72612e-05,-0.00047123432,0.0005235672,0.0006632805,-0.00024434924,-0.00076788664
1.3999365547739209,0.7132525268746904,1.1599090003784596,-0.7925845186437305,-0.30881263337526715,0.00835572717613105,-1.3176267186703168,-0.6965863027024568,-1.3231611961163312,1.3152535867369854,0.3194509918850572,0.6752847022675718,0,92,0.0,0.0,0.0,0.0,0.0,0.0,0.0,0.0,0.0,0.0,0.0,0.0
1.3999591974386143,0.713261572094231,1.1599143327793906,-0.7925907170134421,-0.3088188539504509,0.00835035172557954,-1.3183101587810726,-0.6966712223593561,-1.3219362443127878,1.316013113780241,0.31925807596051364,0.6745683170355979,0,93,0.0,0.0,0.0,0.0,0.0,0.0,-0.0002617836,-0.0009250641,0.001553297,0.0016930103,-0.00062832236,-0.0019548535
1.399949970011914,0.7132757086804575,1.1599222054565919,-0.7925843401879604,-0.308823838492843,0.00835544191389654,-1.3180750187588837,-0.6973680863256982,-1.3212509793742286,1.3174509005158073,0.31847602738227027,0.6729016179626274,0,94,0.0,0.0,0.0,0.0,0.0,0.0,-6.9737434e-05,-0.00027924776,0.0005235672,0.0006980896,-0.0002618134,-0.0007330179
1.399964216089496,0.7132704456932871,1.1599062551568908,-0.7925887385320153,-0.30880862990786007,0.00834458540334303,-1.318180559213066,-0.6973642996628577,-1.321613719585062,1.3173106720589838,0.3186324410202486,0.6735621932469522,0,95,0.0,0.0,0.0,0.0,0.0,0.0,0.0,0.0,0.0,0.0,0.0,0.0
1.3999239470095055,0.7132620090080715,1.1598727927334231,-0.7925714215951797,-0.30884167313637084,0.008359065394615122,-1.3182182754335032,-0.6970307427375957,-1.3206102354644607,1.3186604065973297,0.3181622874887247,0.6713068316316629,0,96,0.0,0.0,0.0,0.0,0.0,0.0,-3.504753e-05,0.00031411648,-0.0008376837,-0.0005760193,-0.00012215972,0.00050616264
1.3999475104128958,0.7132578410053095,1.1599002165927437,-0.7925909880457531,-0.30882610815072303,0.008359522064780184,-1.318702383900281,-0.6977451030206283,-1.3202249912760198,1.3171726272081719,0.31760614995069675,0.6724071447231105,0,97,0.0,0.0,0.0,0.0,0.0,0.0,1.7642975e-05,0.0008378029,-0.001954794,-0.0017975569,5.236268e-05,0.0021118522
1.39994592876585,0.713243150641623,1.1599121406980863,-0.7925917240974951,-0.30882667840297395,0.008356088439432273,-1.317682385189175,-0.6967069581334077,-1.3226594743507565,1.3161975438966864,0.3185299279881981,0.674201289060349,0,98,0.0,0.0,0.0,0.0,0.0,0.0,0.0002617836,0.0034732223,-0.0067195892,-0.007068634,0.00019198656,0.006981313
1.399941363414103,0.7132606614387921,1.159880933554813,-0.7925735865423019,-0.3088241298277794,0.008342328636669854,-1.3176697321816673,-0.6930978369999782,-1.3294560077409054,1.3099157771402692,0.3184919784341932,0.6800757716178487,0,99,0.0,0.0,0.0,0.0,0.0,0.0,0.0,0.0,0.0,0.0,0.0,0.0
1.3999476125245296,0.7132382329407866,1.1599082448724432,-0.792583083494791,-0.3088072155481825,0.00835247825638328,-1.3174906061410012,-0.692911920688124,-1.330078720676932,1.3086746091156933,0.3188677439507428,0.6814069781159865,0,100,0.0,0.0,0.0,0.0,0.0,0.0,0.0023909807,0.013351738,-0.02391088,-0.025865793,0.004939288,0.028885186
1.3999415608580204,0.7132362997277445,1.1599113937632122,-0.7925707182953816,-0.30881483657463143,0.008350654976585247,-1.315222286390747,-0.680131685639794,-1.3526572980350078,1.2830786134358025,0.3232550143345961,0.709976671241325,0,101,0.0,0.0,0.0,0.0,0.0,0.0,0.002635479,0.012566388,-0.023806334,-0.023579359,0.0057072043,0.025761068
1.3999468307401406,0.7132703738836339,1.1598930717783662,-0.7925782262823164,-0.30881733473912876,0.008356912764431276,-1.3126916192665576,-0.6671533995273718,-1.3773674726725944,1.2611567344370325,0.32906985186712356,0.7345612522495264,0,102,0.0,0.0,0.0,0.0,0.0,0.0,0.0017104149,0.008168101,-0.014765501,-0.014259338,0.0043982267,0.01706928
1.3999480932244712,0.713262000289633,1.1599198631453689,-0.7926019265088823,-0.3088106960397983,0.008345379597896078,-1.3114183538041078,-0.6591451248775754,-1.3931582286471855,1.244459475297743,0.33339426827655816,0.7537018182433777,0,103,0.0,0.0,0.0,0.0,0.0,0.0,0.0010297298,0.004677534,-0.008429885,-0.008028507,0.0026878119,0.009512126
1.3999374455537068,0.7132737975823423,1.1598981237713086,-0.7925704286776568,-0.308819129490093,0.008341952472222337,-1.3084973191255982,-0.6527454811062163,-1.4016894320885658,1.2417037360424317,0.3369620502409199,0.7573490591222187,0,104,0.0,0.0,0.0,0.0,0.0,0.0,0.003612876,0.013962626,-0.026022911,-0.02254963,0.007801652,0.026249707
1.399943261091491,0.713259361295133,1.159870647729076,-0.7925834362745817,-0.30882533666214596,0.008368800426104406,-1.3060072615986043,-0.6405458110152287,-1.4261155074822478,1.2155795578703967,0.3437298713552278,0.7877024746009815,0,105,0.0,0.0,0.0,0.0,0.0,0.0,0.0,0.0,0.0,0.0,0.0,0.0
1.3999442699803875,0.7132481826834,1.159924977487452,-0.7925817202934783,-0.30883444003195565,0.008353215448271783,-1.3054235128378437,-0.6402756387514479,-1.4257193351863746,1.2161474371933365,0.3437286296504809,0.7878748568466897,0,106,0.0,0.0,0.0,0.0,0.0,0.0,0.005497694,0.02254963,-0.039723754,-0.03323114,0.012077659,0.03846711
1.3999348188575,0.7132620597310737,1.1599086155515088,-0.7925945026354875,-0.30882513845564485,0.008345563135382088,-1.3001528535959994,-0.6176396585188924,-1.4665019966586377,1.1856095816145622,0.35645627134099794,0.822966111536735,0,107,0.0,0.0,0.0,0.0,0.0,0.0,0.0043982267,0.015655637,-0.028553486,-0.024609208,0.009145528,0.028832793
1.399936109335551,0.7132533263010523,1.1598971534823848,-0.7925915676951233,-0.30883059253062556,0.008361086390548686,-1.2959753560233647,-0.601339220995317,-1.4943992416702088,1.1586026838644432,0.3656788751295534,0.854627465944141,0,108,0.0,0.0,0.0,0.0,0.0,0.0,0.0012391806,0.0046774745,-0.008430004,-0.0069987774,0.0028623343,0.008552074
1.3999424434563459,0.7132664446581305,1.159876806168489,-0.7925883217026528,-0.3088260500824923,0.00835588689359773,-1.29486828912802,-0.5963213817792815,-1.5066435916429326,1.1461152131119265,0.36889194827589306,0.8685494339391566,0,109,0.0,0.0,0.0,0.0,0.0,0.0,0.0014312267,0.0057770014,-0.010768771,-0.0093199015,0.0030368567,0.009128094
1.3999390111809016,0.7132544909919492,1.1599035049431023,-0.79258890257514,-0.3088340316152523,0.008357580392466226,-1.2934289236980314,-0.5920379969212906,-1.5120224897948469,1.148844126699565,0.3705158831281895,0.8659900075166556,0,110,0.0,0.0,0.0,0.0,0.0,0.0,0.0017976761,0.006911516,-0.013229489,-0.013037682,0.0039968193,0.016475916
1.3999313386492895,0.7132675833419404,1.1598983005424959,-0.7925877807707192,-0.30883690077951054,0.008377150855460504,-1.2925593499171633,-0.5843432132422215,-1.5276349736196364,1.1284069259383263,0.37518066975637016,0.8892810461196794,0,111,0.0,0.0,0.0,0.0,0.0,0.0,0.0002617836,0.0013613701,-0.0029495955,-0.0034382343,0.00080284476,0.0036302805
1.3999491402462811,0.7132604255188919,1.159918370641373,-0.7925924066751535,-0.3088118374951991,0.008348024402202406,-1.2919401720875623,-0.5832037879233124,-1.5306717851526703,1.1239827701991902,0.37564071517015607,0.8944499272025715,0,112,0.0,0.0,0.0,0.0,0.0,0.0,0.000104665756,0.0006632209,-0.0014660358,-0.0020768642,0.00050616264,0.0027227402
1.3999502221120128,0.7132510384604922,1.1599198105205686,-0.7925845342496607,-0.3088056176500867,0.008357068831191698,-1.2917958474572677,-0.5825691706570729,-1.5335578729195152,1.1193569388075695,0.3769073602091444,0.8990909237133319,0,113,0.0,0.0,0.0,0.0,0.0,0.0,0.0,0.00013959408,-1.7404556e-05,-0.0014312267,0.00020942092,0.0013787746
1.399940087229369,0.713238793641164,1.1599072824881,-0.7925864850552661,-0.30881042724489666,0.008348634991214911,-1.2926237405409298,-0.5832315588761534,-1.531791308941875,1.1158890388352165,0.3764568796546085,0.9013177374754496,0,114,0.0,0.0,0.0,0.0,0.0,0.0,-3.4809113e-05,-0.00045371056,0.0012042522,0.000104665756,-1.7434359e-05,-0.00027924776
1.3999466288214044,0.713261075031369,1.159892605425812,-0.7925934520226355,-0.3088281395879003,0.008374150161364415,-1.2923700968677712,-0.5833112130444686,-1.5307116248661619,1.1204691178583597,0.37678319346163475,0.8979013770043704,0,115,0.0,0.0,0.0,0.0,0.0,0.0,-0.0006632805,-0.0029845238,0.0058642626,0.0026179552,-0.00031414628,-0.0033161044
1.3999344127462607,0.7132592498199409,1.1598977387886715,-0.7925845680308129,-0.3088138904860864,0.008338534031425902,-1.2927233802091815,-0.5861023282629935,-1.5247790395593224,1.123534757153035,0.37669245109138827,0.8940042889613354,0,116,0.0,0.0,0.0,0.0,0.0,0.0,-0.0002617836,-0.0012043118,0.0019721985,0.0014138222,-0.00045379996,-0.0018675327
1.3999363807444924,0.7132605486808187,1.1599193217529018,-0.7925990462769057,-0.30883047270989666,0.008376276229770222,-1.2932294486688904,-0.5876213961070893,-1.522729208816868,1.1230499377179108,0.3757011681558822,0.8938849364673783,0,117,0.0,0.0,0.0,0.0,0.0,0.0,-0.0005584955,-0.0019198656,0.0031241179,0.0024434328,-0.0010821223,-0.0030193925
1.3999374776157827,0.7132615441862783,1.1598958398844375,-0.7925815133937096,-0.3088148066977585,0.008336244844691197,-1.2941457661352544,-0.5896359737710187,-1.5191972941707752,1.1267253781488158,0.3748902316378155,0.8892878456345088,0,118,0.0,0.0,0.0,0.0,0.0,0.0,-0.00019204617,-0.00071561337,0.0010472536,0.0006980896,-0.0005584955,-0.0012915134
1.3999318429538996,0.7132377979380666,1.1599184245107321,-0.7926129100110616,-0.3087985448896127,0.008357920499197508,-1.29312000271589,-0.5901145251850696,-1.5184603935933156,1.1280973888281784,0.37458150636561727,0.8867499538101694,0,119,0.0,0.0,0.0,0.0,0.0,0.0,-8.714199e-05,-0.00038391352,0.0003490448,0.00036644936,-0.00038397312,-0.00045382977
1.399938199480485,0.7132573597646608,1.159942921450801,-0.7925837257468749,-0.3088354800916935,0.008346031482027212,-1.294128870583661,-0.5911080085369946,-1.5184790172260998,1.1276714130626118,0.3741370556102935,0.8888558735562789,0,120,0.0,0.0,0.0,0.0,0.0,0.0,-8.72612e-05,-6.9856644e-05,3.4928322e-05,0.00013971329,-0.00012215972,-5.2392483e-05
1.3999368496495577,0.7132766933046496,1.159862482441615,-0.7925830817831728,-0.3088313992807741,0.008360794304215649,-1.2931600490416018,-0.5910626078242884,-1.5163874750656976,1.1299170207659333,0.3735830934311971,0.8854841296387785,0,121,0.0,0.0,0.0,0.0,0.0,0.0,0.0,0.0,-3.4928322e-05,0.0,0.0,-1.7404556e-05
1.3999356532844023,0.7132494101131196,1.1599009697830414,-0.7925654540217009,-0.308809748084881,0.008341876210124532,-1.2938047887140578,-0.5899747465724472,-1.5191709273068428,1.127041747819712,0.37388886739928556,0.8880999429486902,0,122,0.0,0.0,0.0,0.0,0.0,0.0,0.0,0.0,0.0,0.0,0.0,0.0
1.399948683076428,0.713260993209309,1.159909988951679,-0.7925704226739417,-0.3088173042805294,0.008369342894392388,-1.2939052929455601,-0.5904700553712098,-1.5182011668222475,1.1287765163486203,0.37366762338258286,0.8867130695586691,0,123,0.0,0.0,0.0,0.0,0.0,0.0,-1.7523766e-05,6.9856644e-05,-0.00047123432,0.0,0.0,1.7404556e-05
1.399946297871271,0.7132690308525665,1.1598796432035487,-0.7925783691539552,-0.3088225541378359,0.008342677202672998,-1.29407201590506,-0.5905369311227924,-1.5182900830930588,1.1297454122389012,0.3735095771284969,0.8862463151925204,0,124,0.0,0.0,0.0,0.0,0.0,0.0,0.0,0.00040137768,-0.0012741089,-0.0003142357,-1.7493963e-05,0.00038403273
1.3999240493523384,0.7132720344142757,1.1599023598742855,-0.7925748924659353,-0.3088225081217835,0.008364761891034732,-1.2937381009936275,-0.590136690538034,-1.5198816135568327,1.1283326949669379,0.37384319458468024,0.8878085669369534,0,125,0.0,0.0,0.0,0.0,0.0,0.0,0.0,0.0,0.0,0.0,0.0,0.0
1.399929918778127,0.7132575536175362,1.159900040749149,-0.7925694897339057,-0.3088127209139081,0.008352428835739681,-1.294407642569745,-0.5900686903383172,-1.5216249758414842,1.125476635570597,0.3740358240295724,0.8911048549244663,0,126,0.0,0.0,0.0,0.0,0.0,0.0,5.2452087e-05,0.0017977357,-0.005078912,-0.005602479,0.00019201636,0.0064751506
1.3999432502717521,0.7132472045029468,1.1599000428280755,-0.7926008779320728,-0.30882757685334483,0.008367069663183131,-1.292997041498799,-0.5879261557113477,-1.5247999442274507,1.1240588600004902,0.37411029064922563,0.8927066268544266,0,127,0.0,0.0,0.0,0.0,0.0,0.0,0.0,0.0,0.0,0.0,0.0,0.0
1.3999634280142577,0.7132508127357207,1.1599104894945282,-0.7925960232460063,-0.3088244560849468,0.008344393288188914,-1.2934098780580179,-0.5881770520864258,-1.5250881413812747,1.1221679218049403,0.3739531143793572,0.894320360405514,0,128,0.0,0.0,0.0,0.0,0.0,0.0,0.0,0.0048694015,-0.012269616,-0.015655637,0.0025132596,0.01591736
1.3999414568017048,0.7132643948434322,1.1598883515587373,-0.7925665938419282,-0.3088295550066183,0.008347774207630495,-1.293974449063197,-0.5827946772278129,-1.537929101280565,1.1070535135653297,0.37641057715334436,0.909952024893129,0,129,0.0,0.0,0.0,0.0,0.0,0.0,0.0,0.0,0.0,0.0,0.0,0.0
1.3999149038558396,0.7132691964096717,1.1598938044982328,-0.7925893638431813,-0.3088201691042135,0.008364961283828897,-1.293725102813949,-0.582760338582645,-1.5382508584266141,1.1069784068658033,0.3770191970214274,0.910557532151505,0,130,0.0,0.0,0.0,0.0,0.0,0.0,-0.00019204617,0.009878635,-0.024521828,-0.030298948,0.0072256625,0.03274238
1.3999458627771901,0.7132706218855447,1.1599111249328848,-0.7925786654037341,-0.30882248614296565,0.00834859242823098,-1.2955861044914379,-0.5740627749553603,-1.562154599445816,1.0727248378645857,0.3831417469361937,0.9466844925446777,0,131,0.0,0.0,0.0,0.0,0.0,0.0,-0.0010122061,0.009948373,-0.02478385,-0.03005445,0.008150697,0.030770183
1.399940512072852,0.7132666334181028,1.1599154347426517,-0.7925911740714248,-0.3088074410063295,0.008335896972284953,-1.2949500243212917,-0.563720683557875,-1.586029333700967,1.0461703882395488,0.391843344209222,0.973330678429954,0,132,0.0,0.0,0.0,0.0,0.0,0.0,0.0,0.0,0.0,0.0,0.0,0.0
1.3999523012209252,0.7132648611018286,1.1598958346153383,-0.792582756273673,-0.3088307802791024,0.00834500534643356,-1.2949091651093232,-0.563376793750114,-1.586008355683995,1.0467657688716279,0.3919846770998394,0.9731300381038309,0,133,0.0,0.0,0.0,0.0,0.0,0.0,-0.0011694431,0.006894052,-0.02040279,-0.025307298,0.008115798,0.028763115
1.399937165519552,0.7132483398036072,1.159907637490384,-0.7925861457269668,-0.3088246461454133,0.008352619988807777,-1.2967009035183394,-0.5559655179473342,-1.6078898004569706,1.019140269593255,0.4002432463472352,1.0050140527102664,0,134,0.0,0.0,0.0,0.0,0.0,0.0,0.0,0.0,0.0,0.0,0.0,0.0
1.3999308656982423,0.7132594770363189,1.15991226527331,-0.7926013300379228,-0.3088145329358081,0.008368029418570289,-1.296977394985767,-0.5561639345009507,-1.6087645787438107,1.0168333928361692,0.40046027050109667,1.007414546863345,0,135,0.0,0.0,0.0,0.0,0.0,0.0,0.0,0.0,0.0,0.0,0.0,0.0
1.3999489101212712,0.7132984653113252,1.1598954406634865,-0.7925813828902832,-0.30882856298405925,0.00834280991087977,-1.2989742511287066,-0.5577470420852043,-1.6112717725509573,1.0051207193009362,0.4017156673935365,1.0193239581776572,0,136,0.0,0.0,0.0,0.0,0.0,0.0,-0.0055327415,0.012566328,-0.048467875,-0.069289565,0.0195826,0.071802735
1.3999153601251353,0.7132835176045439,1.159913575649388,-0.7925923904091876,-0.30881973044519373,0.008365307663230525,-1.3027150010395339,-0.5437747240035092,-1.6570758639397845,0.9494587520126396,0.4198173873582018,1.0767567531600213,0,137,0.0,0.0,0.0,0.0,0.0,0.0,0.0,0.0,0.0,0.0,0.0,0.0
1.3999519671384186,0.7132597862798525,1.159907563816223,-0.7925554105297711,-0.3088215846907372,0.00836864804174688,-1.3045839880873131,-0.5434941140029983,-1.6623314866619294,0.9366228846026174,0.42269006909320284,1.091075279244731,0,138,0.0,0.0,0.0,0.0,0.0,0.0,-0.0023037195,0.002705276,-0.013124824,-0.022148252,0.005218506,0.024172783
1.3999430581994818,0.7132706218445255,1.1599060963031573,-0.7925878235658343,-0.30881024369529136,0.00835130032748107,-1.3052172398007829,-0.541906789989857,-1.6715246888174142,0.92347032457154,0.42635995388971826,1.106256779217008,0,139,0.0,0.0,0.0,0.0,0.0,0.0,-0.00038409233,0.0004363656,-0.002041936,-0.004869461,0.0008377731,0.0041190386
1.399951132368447,0.7132719557357757,1.1599456442586553,-0.7925903666127633,-0.3087956376409183,0.008357565851169937,-1.305754434281481,-0.5406253596268381,-1.6737904016604979,0.9190634170669907,0.42669275058899114,1.1107590976551383,0,140,0.0,0.0,0.0,0.0,0.0,0.0,-0.00024425983,5.2332878e-05,-0.0013439655,-0.0034732223,0.0004363358,0.00399673
1.3999456220841497,0.7132666269091061,1.1598696759737168,-0.792572169691642,-0.3088180624117727,0.008332771397185811,-1.3093006466007167,-0.5422158615876661,-1.678612699478274,0.9008917943884944,0.4286109042150906,1.128481437990529,0,141,0.0,0.0,0.0,0.0,0.0,0.0,0.0001745224,-3.4928322e-05,0.0009075403,0.001291573,-1.7464161e-05,-0.00054097176
1.399932879545653,0.7132374713322363,1.159892585788816,-0.7925701770884331,-0.30882582546896736,0.00836573834122468,-1.3053559237892627,-0.5407105781605337,-1.6715399318969908,0.9227706720291791,0.426514782646361,1.1075175636656072,0,142,0.0,0.0,0.0,0.0,0.0,0.0,0.0006631613,5.2392483e-05,0.0013264418,0.0026354194,1.7464161e-05,-0.0018326044
1.3999324662700423,0.7132661566205761,1.1598936738130168,-0.7925984337823663,-0.3088456560158829,0.008349887052947024,-1.3045230295771564,-0.5413721677515478,-1.6710686068134126,0.9234922058281045,0.4269505200028823,1.1073729030193848,0,143,0.0,0.0,0.0,0.0,0.0,0.0,0.0,0.0,0.0,0.0,0.0,0.0
1.3999501405342032,0.7132446653341941,1.1598881240514962,-0.7925957039900656,-0.30884223109405734,0.00834033232495498,-1.3055971394450898,-0.5416178902953841,-1.6715461900307482,0.9187394846702892,0.42705739360953665,1.1129470571742455,0,144,0.0,0.0,0.0,0.0,0.0,0.0,0.0012916327,0.0,-0.00031411648,0.001047194,0.00033161044,-0.00054109097
1.3999407990126775,0.7132591574634118,1.1599035933133137,-0.7925915062591253,-0.3088180827498237,0.008372755109597297,-1.3040676159067766,-0.5408332108693406,-1.673502226312114,0.9192058936941598,0.42775016598624677,1.1110569917236053,0,145,0.0,0.0,0.0,0.0,0.0,0.0,0.00050604343,0.0007504821,-0.0034731627,-0.0025656223,0.0016406178,0.002443552
1.3999551466686444,0.7132333213760453,1.1598857063367811,-0.7925802933856633,-0.30879747722956596,0.008364865248159804,-1.3024629151452376,-0.5403381801171907,-1.6757348814278064,0.9206666777266044,0.42926384792291034,1.1106414996327638,0,146,0.0,0.0,0.0,0.0,0.0,0.0,0.0,0.0038921237,-0.012514114,-0.013910234,0.005148709,0.014573455
1.3999379140448511,0.7132601663895985,1.1598978493800869,-0.7925740585760113,-0.30882587578084564,0.00835509165492032,-1.3029294121898536,-0.5365976955671973,-1.6868951277303768,0.9073843904388017,0.43333873172527765,1.123964745940665,0,147,0.0,0.0,0.0,0.0,0.0,0.0,0.0,0.0,0.0,0.0,0.0,0.0
1.399937789607601,0.7132290344046346,1.1599067166360875,-0.7925944475803014,-0.3088113295846308,0.008358757948466876,-1.3029504343877447,-0.5360167108225078,-1.6878005055446765,0.906144891601161,0.43380891689259127,1.125403717142946,0,148,0.0,0.0,0.0,0.0,0.0,0.0,-0.0009598732,0.004241109,-0.015620589,-0.019059062,0.0067195,0.021415114
1.3999521454599442,0.713280770528256,1.1599037898771836,-0.7925711240868579,-0.3087998491836662,0.008351376183116177,-1.3049680726843387,-0.5315613208209803,-1.707018969661454,0.8803192846507121,0.4418947161421951,1.1544280559546254,0,149,0.0,0.0,0.0,0.0,0.0,0.0,-0.0010995865,0.0019024014,-0.007993698,-0.01059413,0.0036128461,0.011344671
1.3999456432798745,0.7132712980203965,1.1598794516663922,-0.7925657199750926,-0.30881951558677356,0.008331450846488887,-1.3050316478721462,-0.5305223305089342,-1.709387930132835,0.8795007514030984,0.4435560681346948,1.154423195698842,0,150,0.0,0.0,0.0,0.0,0.0,0.0,-0.0021816492,0.0024434328,-0.01171124,-0.017732501,0.005096346,0.01649344
1.3999387966431769,0.713237687279529,1.1599134082911682,-0.7925819118082609,-0.30881684191755593,0.008347566986234227,-1.3073423137919207,-0.5277369397079061,-1.7234327268403808,0.857303969807148,0.44941181486264475,1.1760166059056694,0,151,0.0,0.0,0.0,0.0,0.0,0.0,0.0,0.0,0.0,0.0,0.0,0.0
1.3999325877576412,0.7132691997573954,1.1598977198452725,-0.7925498474351551,-0.3088141032040516,0.008381325212464968,-1.309401659073485,-0.5289540814857677,-1.7225501066691715,0.855197093417601,0.4490823456880488,1.1783760943439436,0,152,0.0,0.0,0.0,0.0,0.0,0.0,-0.006091237,0.0010297894,-0.01685977,-0.032463133,0.009040803,0.033283353
1.3999521826307715,0.7132411562298416,1.1599262952320648,-0.7925772977369252,-0.3088304700846697,0.008364133070865015,-1.3149499710720587,-0.529151583042105,-1.737895065085965,0.8220966597741345,0.45825403657486014,1.2116284650624087,0,153,0.0,0.0,0.0,0.0,0.0,0.0,-0.007068515,-0.0008378029,-0.012199998,-0.03159046,0.006667167,0.029181957
1.3999442895800935,0.7132800085710428,1.1598846018545699,-0.792590220621803,-0.30882885575653113,0.00836068349045778,-1.32071090578093,-0.5280685653637824,-1.750479884122844,0.7969188835280794,0.46450322876102235,1.2343189478539907,0,154,0.0,0.0,0.0,0.0,0.0,0.0,0.0,0.0,0.0,0.0,0.0,0.0
1.3999427966136995,0.7132497747530444,1.1598829288690162,-0.7925656627794515,-0.30883381583576525,0.008369758972358258,-1.3214774226071269,-0.5295692781587088,-1.7484032649973507,0.7945696573056872,0.4643088057426069,1.2363635015663266,0,155,0.0,0.0,0.0,0.0,0.0,0.0,-0.007888913,-0.0034731627,-0.009965777,-0.030490875,0.007068604,0.028832912
1.399958471109348,0.7132460515733651,1.1598834959553328,-0.7925749337461379,-0.30881947289700307,0.008350794113614897,-1.3298899152567492,-0.5318964171475518,-1.7632985336493892,0.7591175017503554,0.4735503846927945,1.2714799681599327,0,156,0.0,0.0,0.0,0.0,0.0,0.0,0.0,0.0,0.0,0.0,0.0,0.0
1.3999423051359707,0.7132528305396169,1.159936455330312,-0.7925702741025027,-0.30882187851479154,0.008359601944489238,-1.3282080397476401,-0.531876213187358,-1.759911230115401,0.7678093060545774,0.47124415846957035,1.2617774467045444,0,157,0.0,0.0,0.0,0.0,0.0,0.0,-0.0095644,-0.0049218535,-0.010489345,-0.033161283,0.0071209073,0.031555533
1.3999481387072743,0.7132498491431765,1.1598685489048584,-0.7925765664266265,-0.30881300384550786,0.008357873552755753,-1.3409997764283377,-0.5405649311183037,-1.7702704525354744,0.7220742337623302,0.4800703722552031,1.3050899896144839,0,158,0.0,0.0,0.0,0.0,0.0,0.0,0.0,0.0,0.0,0.0,0.0,0.0
1.3999526842821872,0.713253811102911,1.1598867900968528,-0.7925768210755076,-0.30880993461210526,0.008366446770283694,-1.3390673110321283,-0.5399933846487386,-1.7688344597612629,0.7293798432050083,0.47925238409437315,1.2988384069467425,0,159,0.0,0.0,0.0,0.0,0.0,0.0,-0.0049567223,-0.002705276,-0.0050964355,-0.019163728,0.0037175715,0.016964555
1.399949411733532,0.713251281325684,1.1598952930839654,-0.7925915834576722,-0.3088028544569934,0.008344800190911928,-1.3429918201781081,-0.5386080254014853,-1.7779717137923376,0.7120243628925049,0.4831843843394766,1.3138603955441532,0,160,0.0,0.0,0.0,0.0,0.0,0.0,-0.0029497147,-0.0021118522,-0.0023911,-0.010855973,0.0014835298,0.010227561
1.3999456390064227,0.7132488578701495,1.159872852725826,-0.7925523785865243,-0.308825430450617,0.008366511345646643,-1.346101774927104,-0.5427203484329943,-1.777259864716396,0.702709358160016,0.48376790407009546,1.3222615643412194,0,161,0.0,0.0,0.0,0.0,0.0,0.0,0.0,0.0,0.0,0.0,0.0,0.0
1.3999336065358872,0.7132338164047293,1.1598981646646258,-0.7925839767357271,-0.3088198452280226,0.00835764696774685,-1.3456369799739158,-0.5412973429413096,-1.777772155292012,0.7042424750345788,0.4842786533500181,1.3213578346797434,0,162,0.0,0.0,0.0,0.0,0.0,0.0,-0.0010994673,-0.0009948015,0.00019204617,-0.0031765103,5.236268e-05,0.002635479
1.3999264604704247,0.713245907782524,1.1598911907939164,-0.7925790236372102,-0.3088255846640567,0.008368594845474997,-1.3463972073271084,-0.5427747068799272,-1.7767982540474625,0.7014255470874219,0.48369784553078254,1.3227234319303829,0,163,0.0,0.0,0.0,0.0,0.0,0.0,0.0,0.0,0.0,0.0,0.0,0.0
1.3999388756908493,0.7132473324007235,1.1599186157943158,-0.7925900104582134,-0.3088313041983346,0.008352630720914642,-1.3467679418416587,-0.5419118477488675,-1.7786566709272802,0.7022267881414402,0.48432129731161716,1.3233057272709199,0,164,0.0,0.0,0.0,0.0,0.0,0.0,-0.0006632805,-0.001116991,0.0018501282,-0.00019198656,-5.236268e-05,1.7523766e-05
1.3999288291187526,0.7132480308733108,1.1599218860664067,-0.7925730502949443,-0.30881192485484726,0.008361665674475322,-1.347856495507589,-0.5451620339108394,-1.773971831310507,0.7011183440261171,0.4835866512066989,1.3235061402075463,0,165,0.0,0.0,0.0,0.0,0.0,0.0,-0.0011519194,-0.0016231537,0.0024434328,-0.0019896626,-0.00040140748,0.0008376837
1.3999174157748109,0.7132448659999809,1.1599017711745945,-0.7925735158681341,-0.30882893824235597,0.008348713073072323,-1.349132789500444,-0.545799673523252,-1.7733675960820203,0.6965039792146701,0.483796061078387,1.3272101302394572,0,166,0.0,0.0,0.0,0.0,0.0,0.0,-0.0015009642,-0.0015359521,0.0013612509,-0.0031241179,-0.0004886985,0.0019897223
1.3999363639639222,0.713238122880756,1.1599056456012817,-0.7925824098854151,-0.3088138168566736,0.008365700116950387,-1.3491217494805257,-0.5459702845709936,-1.7734989995597896,0.697118669744979,0.4834893274755294,1.3258026660723297,0,167,0.0,0.0,0.0,0.0,0.0,0.0,0.0,0.0,0.0,0.0,0.0,0.0
1.3999256675847562,0.7132546125485348,1.1598975020222848,-0.7925810929238957,-0.3088223995817929,0.008338720765610525,-1.3505967017186615,-0.5484134366752618,-1.7708437676376623,0.6928854684768248,0.48290148529112326,1.3297381934207544,0,168,0.0,0.0,0.0,0.0,0.0,0.0,-0.0039269924,-0.0035429597,0.0027751923,-0.008761525,-0.0012740791,0.006335497
1.3999426178101988,0.7132520754904049,1.1599084896301104,-0.7925791412242588,-0.3088074319765183,0.008361812183768788,-1.3539257907646216,-0.5507997753199385,-1.7690064535367669,0.6864735412561838,0.4817835685897922,1.3330687009993383,0,169,0.0,0.0,0.0,0.0,0.0,0.0,-0.0043982267,-0.0041713715,0.0035254955,-0.008691788,-0.0016231537,0.0063180923
1.3999402534092196,0.7132409925819925,1.1599167529794945,-0.7925912439382609,-0.3088168919483597,0.008352118607745805,-1.3578706298702574,-0.5533589009294277,-1.7667820795171512,0.6799794602042828,0.48038860497706576,1.3383664018676469,0,170,0.0,0.0,0.0,0.0,0.0,0.0,-0.0037873983,-0.0042237043,0.004869461,-0.005968988,-0.002181679,0.004188776
1.3999543008607866,0.7132485922635562,1.1599177485380925,-0.792573989615326,-0.30881886895682537,0.008358612061919013,-1.361678866791347,-0.5580766961040425,-1.7618966176229136,0.6732958477320445,0.47774453457946864,1.3423476692155325,0,171,0.0,0.0,0.0,0.0,0.0,0.0,0.0,0.0,0.0,0.0,0.0,0.0
1.3999455658282207,0.7132326408101908,1.159915039840833,-0.792576655402803,-0.3088236644969756,0.008345574080975094,-1.3620363935917152,-0.5577584356263243,-1.7623937934638478,0.6712474286854782,0.4784897850295345,1.3450980858250974,0,172,0.0,0.0,0.0,0.0,0.0,0.0,-0.0031938553,-0.004712343,0.006091237,-0.0034732223,-0.0028972626,0.0022165775
1.3999374308837593,0.7132331227257914,1.1598849802526978,-0.7925910431531455,-0.30883702819251513,0.008377447349489966,-1.3646258533227233,-0.5637460058759118,-1.754484673239976,0.6703184053692849,0.4751653235284417,1.3443801360096364,0,173,0.0,0.0,0.0,0.0,0.0,0.0,-0.0011694431,-0.001902461,0.0029495955,-0.001221776,-0.001204282,0.0004014969
1.3999390465543435,0.713218493402361,1.1598909408305433,-0.7925791393373769,-0.30881134501902635,0.008352272645921746,-1.365598010715752,-0.564503645329008,-1.7521201885863915,0.668985547790922,0.4735738906075156,1.3446838329719615,0,174,0.0,0.0,0.0,0.0,0.0,0.0,-0.0030019283,-0.00490433,0.0065624714,-0.0039967895,-0.0027227104,0.001553297
1.3999452423659504,0.7132470418059966,1.1599125233472918,-0.7925945041196357,-0.30882331453259165,0.008343743566886821,-1.368947077055576,-0.570067233721157,-1.7453854809242582,0.6661677307216719,0.4708984993613104,1.3454439923242671,0,175,0.0,0.0,0.0,0.0,0.0,0.0,0.0,0.0,0.0,0.0,0.0,0.0
1.399943189572701,0.7132500714316602,1.1598912370113355,-0.792593081134745,-0.30881514952107764,0.0083646188348097,-1.369008739464079,-0.5703270463311457,-1.745529745934334,0.6649496605747501,0.47081319257553234,1.3464226619075923,0,176,0.0,0.0,0.0,0.0,0.0,0.0,-0.0017801523,-0.002164185,0.0014660358,-0.004101515,-0.00094243884,0.003368497
1.3999483800267891,0.7132418338404513,1.159883237870164,-0.7925714863476708,-0.30881129375997807,0.00836345970760409,-1.3708568960851022,-0.5723573905232437,-1.7437901892677508,0.6606642067936006,0.469849807821305,1.3493425175741105,0,177,0.0,0.0,0.0,0.0,0.0,0.0,-0.0009599924,-0.00045382977,-5.2332878e-05,-0.0025830865,-5.236268e-05,0.0021990538
1.399940910989422,0.7132509325601786,1.1599149807424618,-0.7925791238917943,-0.3088162142706277,0.008348764209063091,-1.3716229071343715,-0.5719264239958284,-1.7442613049417641,0.6583897577364376,0.4699721383517427,1.3519299472943518,0,178,0.0,0.0,0.0,0.0,0.0,0.0,0.0,0.0,0.0,0.0,0.0,0.0
1.399931808840865,0.7132543024874144,1.1599082480644805,-0.7925861871003947,-0.3088137334199498,0.008374555371114353,-1.3719240533236663,-0.5727161467430603,-1.744354689753066,0.6567382248026785,0.47016668088314156,1.3530989735243795,0,179,0.0,0.0,0.0,0.0,0.0,0.0,-0.00085520744,-5.2332878e-05,-0.00089013577,-0.003193915,0.0,0.0034558773
1.399939830637671,0.7132389212704516,1.159902339155875,-0.7925795148567046,-0.3088277870691406,0.008365537887991705,-1.3734336668480434,-0.5739490987388731,-1.7424078754738537,0.6543199554743429,0.46940541569329697,1.355716275570485,0,180,0.0,0.0,0.0,0.0,0.0,0.0,-0.00064587593,-0.00015711784,-0.0003490448,-0.001658082,0.0,0.0014309883
1.3999473193791563,0.7132351957825116,1.159881093111932,-0.7925824117555164,-0.30882264512208724,0.00836165100079898,-1.3730712153522575,-0.5725664686984532,-1.7448126940833402,0.653857713060175,0.4695505519088574,1.3562757241143837,0,181,0.0,0.0,0.0,0.0,0.0,0.0,0.0,0.0,0.0,0.0,0.0,0.0
1.3999412482844757,0.713251226641535,1.1598921929370236,-0.792581848676027,-0.308815527792419,0.00836196422226012,-1.3731136729520703,-0.573267752200358,-1.7446122509070805,0.6537222896418732,0.4698127765760671,1.356151827600353,0,182,0.0,0.0,0.0,0.0,0.0,0.0,-0.0022513866,-0.0042935014,0.0052011013,-0.0021991134,-0.0010995567,0.0009599924
1.3999478123662041,0.7132581759007416,1.1599221962459234,-0.7925786384037967,-0.3088208809882054,0.008345114845247307,-1.3753558220794477,-0.5767584834475983,-1.739997207466674,0.6513087252759961,0.4689082080893476,1.3582990792334035,0,183,0.0,0.0,0.0,0.0,0.0,0.0,0.0,0.0,0.0,0.0,0.0,0.0
1.399933055691298,0.7132462066854975,1.1598911881407217,-0.7925870054198142,-0.30880901278453565,0.008361654882704208,-1.3754848634759886,-0.577369421643887,-1.7393729250380205,0.6517399125090628,0.46864146565561005,1.3572951422863841,0,184,0.0,0.0,0.0,0.0,0.0,0.0,-0.002775073,-0.0055676103,0.008953452,-0.001850009,-0.0030368865,6.9856644e-05
1.3999309806265028,0.7132535624129969,1.159906149836905,-0.7925847410123881,-0.30881257363643744,0.008353819650412837,-1.3782620925943818,-0.5830057540072524,-1.7304120070459652,0.6491369208014212,0.4655270357029941,1.3573275231115705,0,185,0.0,0.0,0.0,0.0,0.0,0.0,-0.0036302805,-0.0061609745,0.009686589,-0.0024609566,-0.00420627,0.0005235672
1.3999342234232068,0.7132421389708808,1.1598851190839483,-0.7926050584792431,-0.30879780456441885,0.008357226695337632,-1.3817993996910702,-0.5889084100684837,-1.7208237953633652,0.6475245040131985,0.4610097833969563,1.3572973130677854,0,186,0.0,0.0,0.0,0.0,0.0,0.0,-0.0018849373,-0.003438294,0.004433155,-0.002024591,-0.0020245612,0.00076794624
1.399945378818089,0.7132437067180212,1.1598964616455807,-0.7925718829639044,-0.30881000342269765,0.00836302633446392,-1.383440214790574,-0.5926781085347013,-1.715292272331951,0.6458942338719758,0.45886974468563335,1.3577627743558218,0,187,0.0,0.0,0.0,0.0,0.0,0.0,0.0,0.0,0.0,0.0,0.0,0.0
1.3999536756885262,0.7132413084930062,1.1599090476549192,-0.7925743650488865,-0.3088094151453177,0.008352918779910842,-1.3838744291028278,-0.592925695308681,-1.7163147223948534,0.6441374079103526,0.4589480169020563,1.3594898541355716,0,188,0.0,0.0,0.0,0.0,0.0,0.0,-0.00692904,-0.012775838,0.01628387,-0.008936048,-0.0055152476,0.0051312447
1.3999565648058148,0.7132295208099699,1.159903576758349,-0.7925837731911402,-0.30881515724107217,0.008360930316330234,-1.390908603629201,-0.6050063357591987,-1.7018000042263055,0.634407443197194,0.45457534180341624,1.3654080974207923,0,189,0.0,0.0,0.0,0.0,0.0,0.0,0.0,0.0,0.0,0.0,0.0,0.0
1.399939367197478,0.7132484187673769,1.159934147897504,-0.7925771194116707,-0.3088130298069144,0.008349765352794268,-1.3910877074476706,-0.6051208591676822,-1.7000436118055913,0.6345039808249555,0.45380844720054364,1.3653043597564891,0,190,0.0,0.0,0.0,0.0,0.0,0.0,-0.007871389,-0.013142347,0.014870286,-0.013055086,-0.004729837,0.008726716
1.39994708037536,0.7132436887945077,1.159902264994145,-0.7926006403714057,-0.308801716909601,0.008338015511808286,-1.3985890414853483,-0.6178184039778117,-1.6871707910146114,0.6214751877223998,0.4498992575307003,1.3741966594834958,0,191,0.0,0.0,0.0,0.0,0.0,0.0,-0.006824136,-0.009512067,0.0090408325,-0.014416456,-0.0025830865,0.0100182295
1.3999613237904251,0.7132445922156564,1.1599212148361426,-0.792588856644855,-0.308841839549285,0.008368231408157685,-1.4078827414630635,-0.6322848461760783,-1.6727064418473152,0.6027753421527373,0.4468999723557464,1.3886261323744962,0,192,0.0,0.0,0.0,0.0,0.0,0.0,0.0,0.0,0.0,0.0,0.0,0.0
1.3999453629138374,0.7132458516049042,1.1598981194167508,-0.7925690871997244,-0.30881004734397555,0.008341302314625421,-1.4065419765092324,-0.6326394592810282,-1.6691418135403113,0.6054716361942271,0.4449183521832193,1.3851635618273541,0,193,0.0,0.0,0.0,0.0,0.0,0.0,0.0,0.0,0.0,0.0,0.0,0.0
1.3999374229297692,0.713242655215799,1.1598995140312909,-0.7925722604969005,-0.3087985549281227,0.00835512276236836,-1.4050762725695716,-0.6280188506741198,-1.67688885704062,0.6071903192206214,0.446338039004357,1.383585353518806,0,194,0.0,0.0,0.0,0.0,0.0,0.0,-0.006248355,-0.008011043,0.006667018,-0.0128106475,-0.0021642148,0.010628939
1.399936561486149,0.7132558086172334,1.159921579265378,-0.7925824024721321,-0.3088092963015909,0.008339428225125485,-1.410461764270392,-0.6341201243304786,-1.6732642606793326,0.5946869308842055,0.44626772800840653,1.3961095587266916,0,195,0.0,0.0,0.0,0.0,0.0,0.0,-0.0012391806,-0.0017452836,0.002443552,-0.0018675327,-0.0009250343,0.0011868477
1.3999484051398445,0.7132412044572002,1.1599206381140499,-0.7925795589933332,-0.3088085396666151,0.008352865029880144,-1.4114865970618575,-0.6362438331765905,-1.669718227601165,0.5937689770040794,0.4449569864123472,1.3953798901362038,0,196,0.0,0.0,0.0,0.0,0.0,0.0,-0.00029671192,-0.0008203387,0.001221776,-0.00024437904,-0.00050613284,5.2452087e-05
1.399941869128281,0.7132412397653843,1.1599117718686125,-0.7925986881124165,-0.3088082795798971,0.00835902772037063,-1.4125325314442487,-0.6367782396744025,-1.6689927672012264,0.5920567689008143,0.44417909036065034,1.3972490831924194,0,197,0.0,0.0,0.0,0.0,0.0,0.0,-0.0002617836,-0.0005759597,0.00089001656,-0.00010472536,-0.00059339404,-1.7523766e-05
1.3999454885070823,0.7132295988582662,1.1598943675795865,-0.7925680275496032,-0.3088134419712784,0.008368239880481102,-1.4119220603949318,-0.6366313549673084,-1.6702752984835896,0.5939995119897712,0.4451778405059232,1.3962051720380315,0,198,0.0,0.0,0.0,0.0,0.0,0.0,-0.0003142357,-0.00047117472,0.0008378029,-0.00010472536,-0.0004886985,1.7523766e-05
1.3999454459627436,0.7132583775509885,1.159919760989919,-0.792564789790799,-0.30881384629538716,0.008344526519390123,-1.4128069686701643,-0.6385291208601651,-1.6657483588586,0.5942736937911648,0.44249926151095104,1.3941698403970089,0,199,0.0,0.0,0.0,0.0,0.0,0.0,-5.2332878e-05,1.7404556e-05,-1.7404556e-05,-3.4868717e-05,-6.979704e-05,0.0
1.3999506015878262,0.7132555638521082,1.1599018294963983,-0.7925899894750427,-0.30880978416497135,0.008358749051035681,-1.4132046107412664,-0.6384935197119023,-1.6656111520810861,0.5937032187968668,0.44233117052149434,1.3947549867011484,0,200,0.0,0.0,0.0,0.0,0.0,0.0,0.0,-1.7404556e-05,1.7404556e-05,0.0,0.0,0.0
1.3999307477718534,0.7132431684625885,1.1599195405379754,-0.7925829722657141,-0.3088104234040106,0.008364518755489329,-1.4130543513338565,-0.6389012340247147,-1.665695953797321,0.5930423460715073,0.44198611369028096,1.3951384499059016,0,201,0.0,0.0,0.0,0.0,0.0,0.0,5.2332878e-05,1.7404556e-05,-0.00012218952,-1.7464161e-05,1.7434359e-05,0.0
1.3999501904116514,0.7132475006539069,1.159910002782598,-0.792593333246031,-0.30879676275950174,0.00837248793215614,-1.4132117324528972,-0.6390624347864586,-1.6648594816560005,0.592640662814823,0.4428576987278608,1.3957741653381976,0,202,0.0,0.0,0.0,0.0,0.0,0.0,8.738041e-05,5.2332878e-05,-0.0003490448,1.7464161e-05,3.4928322e-05,0.0
1.3999273507039098,0.7132627997104014,1.1599034458232893,-0.7925858972309615,-0.3088252385219137,0.008366142868564764,-1.4123006184726627,-0.6381329906219965,-1.6663309649448286,0.5936555977438677,0.4432837613436765,1.3952731482609129,0,203,0.0,0.0,0.0,0.0,0.0,0.0,0.00012207031,0.00012218952,-0.00024437904,0.0,0.0,-1.7523766e-05
1.3999465880213127,0.7132574969290412,1.1599353249389006,-0.792586376961359,-0.3088097431047807,0.008367103768759706,-1.4129611554340038,-0.6383045861033997,-1.6656113219296727,0.5940252644745516,0.442501396839626,1.394815316531482,0,204,0.0,0.0,0.0,0.0,0.0,0.0,0.0002617836,0.00024431944,-0.0004886389,5.2392483e-05,5.2332878e-05,0.0
1.3999473995940106,0.7132614651982702,1.1598999317817202,-0.7925859399505641,-0.3088239407349924,0.008361325519266837,-1.4121763086135632,-0.6375331114196878,-1.6671913030775036,0.595590736082589,0.44323498103645315,1.3942263839928744,0,205,0.0,0.0,0.0,0.0,0.0,0.0,0.00013971329,0.000104784966,-0.0003142357,8.7201595e-05,8.72612e-05,-8.72612e-05
1.3999487976392448,0.7132359832387335,1.15991610940361,-0.7925680136496975,-0.3088157567138892,0.008349680933474863,-1.4128521650800454,-0.6387981366419008,-1.665831689118675,0.5941421402095888,0.4424417716396085,1.3940412362628194,0,206,0.0,0.0,0.0,0.0,0.0,0.0,0.00024437904,0.00024431944,-0.00059330463,0.00029677153,0.0001745522,-0.00013959408
1.3999448766278306,0.7132303970988012,1.1599391913239656,-0.792592740235598,-0.308811056809005,0.008343157276139894,-1.412452405814437,-0.6376974230286823,-1.6690292623098326,0.5927420644990943,0.4439975481341664,1.3966598052223096,0,207,0.0,0.0,0.0,0.0,0.0,0.0,0.00012207031,0.000174582,-0.0002619028,0.00013959408,0.00012215972,-0.00012218952
1.3999388826715664,0.7132439855495682,1.159915772621296,-0.7925717887093063,-0.3088230123518134,0.008373181266160051,-1.4117346829880375,-0.636577566135846,-1.6702451670506926,0.5938875531889,0.4438962013917673,1.3949734767397903,0,208,0.0,0.0,0.0,0.0,0.0,0.0,0.0,0.0,0.0,0.0,0.0,0.0
1.3999482050776921,0.7132493544967166,1.1599048841139243,-0.7925974688585635,-0.3088056811775962,0.008360343980835119,-1.4115066536223297,-0.6371763749843277,-1.668403315384525,0.5952781872821851,0.4433623957725353,1.394254608202416,0,209,0.0,0.0,0.0,0.0,0.0,0.0,0.00013971329,0.00045371056,-0.00050604343,0.00038397312,0.0003490746,-0.00013971329
1.399943963209191,0.7132618285945682,1.1598986697448714,-0.792582007759561,-0.30879374162294215,0.008338887314633767,-1.41150829830876,-0.6372760148581259,-1.6681472948203213,0.5961325635441034,0.44346673772596146,1.3939125484157466,0,210,0.0,0.0,0.0,0.0,0.0,0.0,0.000104665756,0.00015711784,-0.00013971329,0.0004886985,0.0001745224,-0.00033152103
1.3999404397071096,0.7132322135955198,1.1599190539834796,-0.792580785744372,-0.30883424457933256,0.008362065443591514,-1.4118216758160655,-0.6368948447416999,-1.6688095642725664,0.5957611066501489,0.44325141356997266,1.3935860592056144,0,211,0.0,0.0,0.0,0.0,0.0,0.0,0.0,0.0,0.0,0.0,0.0,0.0
1.399933522069955,0.7132547832199848,1.159900156577967,-0.7925970449328843,-0.30881757073174476,0.00836434819777433,-1.4120476088879033,-0.6351079441055337,-1.6717242217964756,0.5950825418857881,0.4441753341727125,1.3949373557519449,0,212,0.0,0.0,0.0,0.0,0.0,0.0,0.0,-0.00036650896,0.0016231537,0.0006108284,-5.2332878e-05,-0.0008376837
1.3999415579773558,0.7132515728769033,1.159936028827883,-0.7925831845734875,-0.3088282680245197,0.008357296509967485,-1.4127968344297654,-0.6375572365863932,-1.6674489596672395,0.5929482124392543,0.4434473157277465,1.395567612035437,0,213,0.0,0.0,0.0,0.0,0.0,0.0,0.0,0.0,0.0,0.0,0.0,0.0
1.399950752769576,0.7132431519355914,1.1599109219923986,-0.7925711238258268,-0.3088130339074332,0.00835734538244579,-1.411830551490173,-0.6380960534770475,-1.6648927582668585,0.5966456449765654,0.4427962415086181,1.392531873310567,0,214,0.0,0.0,0.0,0.0,0.0,0.0,-0.0015184879,-0.005707264,0.011885762,0.0010123253,-0.0027751029,-0.0026180744
1.3999444211584084,0.7132626525690398,1.1598900928822307,-0.7925821372943755,-0.3088013347190643,0.008357865259425083,-1.4133965589752542,-0.6439936959751043,-1.6545693198114968,0.5963887379062481,0.4407241902216952,1.3907735741348877,0,215,0.0,0.0,0.0,0.0,0.0,0.0,-0.002425909,-0.0070511103,0.012426734,0.0020419955,-0.0056548715,-0.0035430193
1.3999419109361393,0.7132356494582771,1.1599323065991027,-0.7925626735632654,-0.30880626342609024,0.008365070131463299,-1.4156053141722114,-0.648948686346983,-1.6448642669365292,0.5983259497834548,0.43602855025625864,1.3873309683852393,0,216,0.0,0.0,0.0,0.0,0.0,0.0,-0.0019373894,-0.005515218,0.0095644,0.0018849969,-0.0045203865,-0.0034383535
1.3999339118415803,0.7132670104942946,1.159922784602545,-0.7925853986392032,-0.30883967957480496,0.008367073082690427,-1.4174570037071024,-0.6532789736017564,-1.6387177371291333,0.5961539141166735,0.4329850777940817,1.3887497106065263,0,217,0.0,0.0,0.0,0.0,0.0,0.0,0.0,0.0,0.0,0.0,0.0,0.0
1.399946665790865,0.7132479764613798,1.1599135925045383,-0.7925837980860483,-0.30881787335814037,0.008349652074623222,-1.418285956048798,-0.6564306402457183,-1.6326783155538278,0.5996404652461443,0.4309788493710045,1.384766159786737,0,218,0.0,0.0,0.0,0.0,0.0,0.0,-0.0065449476,-0.021816611,0.03731513,0.009965837,-0.016196638,-0.014259338
1.399954086185088,0.7132489027637682,1.1599186800900025,-0.7925732846784901,-0.308822074541683,0.008354797245410571,-1.4250279896556368,-0.6791273853375035,-1.5939302330279896,0.6071134045813305,0.4143747727692075,1.3724582106870722,0,219,0.0,0.0,0.0,0.0,0.0,0.0,-0.004433155,-0.014468849,0.026860595,0.009826183,-0.011239946,-0.013648391
1.3999378914880358,0.7132446106146193,1.1599138646070768,-0.7925858798090006,-0.3088279936230431,0.00835973456273351,-1.42910106624818,-0.6916210482045146,-1.570578726290395,0.6169258962716514,0.4035302744997492,1.359279727925997,0,220,0.0,0.0,0.0,0.0,0.0,0.0,-0.002635479,-0.0115017295,0.019861817,0.0087964535,-0.008674294,-0.011466742
1.3999443688589648,0.7132529440471224,1.1599122247743363,-0.7925935883815486,-0.3088240622412364,0.008348839313301557,-1.4319526966812834,-0.7065259651517944,-1.5427587852088733,0.6305276170692113,0.391840128090991,1.3426334114003808,0,221,0.0,0.0,0.0,0.0,0.0,0.0,0.0,0.0,0.0,0.0,0.0,0.0
1.399959936775619,0.7132494814025752,1.1599079609302803,-0.7925825683909516,-0.30881245208544533,0.00836807139796328,-1.4315073677281094,-0.7061253294054836,-1.5431402091089836,0.6309764694910873,0.3917016283610983,1.3418996903316587,0,222,0.0,0.0,0.0,0.0,0.0,0.0,-0.005515218,-0.022130728,0.041172385,0.02172935,-0.017121702,-0.025132775
1.3999503053100797,0.7132465197587303,1.1598893955339415,-0.792580688027383,-0.3088165362412917,0.008368657358692327,-1.4361254237751115,-0.7263442553232511,-1.5040182543675618,0.6571750691698786,0.37402986504742486,1.3124721044720875,0,223,0.0,0.0,0.0,0.0,0.0,0.0,0.0,0.0,0.0,0.0,0.0,0.0
1.399945886008957,0.713247955789582,1.1599097715090512,-0.7925795143849842,-0.3088169453049792,0.008348703518402131,-1.4372690614208665,-0.7260884536664641,-1.507746483685038,0.6500321752468958,0.3769875134834644,1.3193270228497596,0,224,0.0,0.0,0.0,0.0,0.0,0.0,-0.0040665865,-0.017488182,0.031398535,0.016842425,-0.014137149,-0.020996451
1.3999387724679688,0.7132589183402872,1.1599199958871367,-0.792582132148334,-0.3088118986524531,0.008364192466625313,-1.4418893867896763,-0.7455610435382433,-1.4720019619915614,0.6672669092945114,0.36162095914619585,1.297805412897696,0,225,0.0,0.0,0.0,0.0,0.0,0.0,-0.0012043715,-0.0045204163,0.0091279745,0.003804803,-0.003944427,-0.0050439835
1.399948503658572,0.7132819918106935,1.1599036685946804,-0.7925599628933567,-0.3088205346596117,0.00834652195198957,-1.4439464626401217,-0.7516693426941631,-1.4621201998535076,0.665718183228202,0.358046901558037,1.2975160907801133,0,226,0.0,0.0,0.0,0.0,0.0,0.0,-0.0014660358,-0.0048520565,0.008813977,0.002757609,-0.0034906864,-0.003909588
1.3999453392457755,0.7132514066802721,1.1598981317970825,-0.7925853503820125,-0.3088212485647301,0.008351789421436677,-1.443541177985937,-0.7516024256294795,-1.4589365401308596,0.6739301014552896,0.3547939795153415,1.2895336281751857,0,227,0.0,0.0,0.0,0.0,0.0,0.0,-0.0005235672,-0.0015183687,0.0021816492,0.00010472536,-0.0014311373,-0.00047123432
1.3999414205631313,0.7132376300111721,1.159935916151948,-0.7925873540753137,-0.308827453761337,0.008383779493906835,-1.4429543705498,-0.7508154964118615,-1.460513112093283,0.673338782657785,0.35505425518762507,1.2903330201269565,0,228,0.0,0.0,0.0,0.0,0.0,0.0,-0.0003490448,-0.0005236268,0.00047123432,-0.0002617836,-0.00040143728,0.00020945072
1.3999272096110114,0.7132586100518477,1.159911627760805,-0.7925943894635934,-0.30881925693572654,0.008375834408545235,-1.4449830154385441,-0.7559946978215224,-1.4534172406197048,0.6726313447715501,0.3524755408456147,1.2893954143516588,0,229,0.0,0.0,0.0,0.0,0.0,0.0,-0.00054109097,0.00027924776,-0.0016930103,-0.0032114387,6.979704e-05,0.0030543804
1.399957207882011,0.7132300096167914,1.159884029098285,-0.7925824639897022,-0.3088150290216679,0.008350538823343181,-1.4446955979182279,-0.7555254357368707,-1.4554432012156149,0.6719535119293403,0.3531682547679468,1.2904362353601881,0,230,0.0,0.0,0.0,0.0,0.0,0.0,3.4928322e-05,0.000610888,-0.002722621,-0.0023212433,0.00019201636,0.002530694
1.3999390319930038,0.7132291876634462,1.1598848866432194,-0.7925801608266171,-0.30883111542064945,0.008352997122799346,-1.4452364986087187,-0.752267794030423,-1.4631349028727496,0.6645242314068839,0.35518401335678484,1.2991562317663758,0,231,0.0,0.0,0.0,0.0,0.0,0.0,0.0,0.0008377433,-0.0026705265,-0.0022689104,0.00041884184,0.002303958
1.3999493508387075,0.7132470100795321,1.159873563666377,-0.792592284381155,-0.30882006247487725,0.008371881921442526,-1.4450250489339664,-0.7523664953623908,-1.4643527504198637,0.6632390414361727,0.3548628396085452,1.2995699427961938,0,232,0.0,0.0,0.0,0.0,0.0,0.0,-3.4928322e-05,0.0022514462,-0.0038745403,-0.0031241179,0.0014486313,0.0035079718
1.399957823796058,0.713243275041583,1.1599030850400986,-0.7925791802968841,-0.30880373682412005,0.008345011180478448,-1.4446591969941747,-0.7502634080107715,-1.4669457272010855,0.6642545778160958,0.35585245748078737,1.2996466960447788,0,233,0.0,0.0,0.0,0.0,0.0,0.0,0.0,0.00071561337,-0.0012042522,-0.0007504821,0.00050616264,0.0007855892
1.3999444718916656,0.7132317071019775,1.159891048242973,-0.792575128758737,-0.30880739602507895,0.008339875421726444,-1.4461836335550695,-0.7516052543252475,-1.4656149142079313,0.6597943549677526,0.35459764036158503,1.3037971767965315,0,234,0.0,0.0,0.0,0.0,0.0,0.0,0.00012218952,0.0012741089,-0.0018326044,-0.00059342384,0.000977397,0.0006979704
1.3999630518609971,0.7132677236871711,1.1599018354404491,-0.7925937534464236,-0.3088088950520555,0.00835132466956258,-1.444566471987752,-0.7483100353343431,-1.4690303538654976,0.6634084421075921,0.35658345151110415,1.2996395246445744,0,235,0.0,0.0,0.0,0.0,0.0,0.0,0.0001745224,0.0005584359,-0.00047123432,-3.4987926e-05,0.0005759299,0.0
1.3999364320520178,0.7132334436150408,1.159908596830219,-0.7925887502784144,-0.30878753915877144,0.008357642655839511,-1.444725722646591,-0.748193888838238,-1.4699421938000428,0.6616845362339797,0.357987135101988,1.302405628004098,0,236,0.0,0.0,0.0,0.0,0.0,0.0,0.00036656857,0.0005236864,-0.0010994673,3.4987926e-05,0.00062835217,0.0
1.399933951682383,0.7132435594908921,1.1599235851923597,-0.7925786630003836,-0.3088206665250609,0.008352417216127107,-1.4446870681230481,-0.7483503990834278,-1.4705476120722518,0.6614513002886744,0.3580364545235082,1.3023572347244834,0,237,0.0,0.0,0.0,0.0,0.0,0.0,0.0,0.0,0.0,0.0,0.0,0.0
1.3999559671788604,0.7132565315838597,1.1598913374113513,-0.7925873972573142,-0.3088036586042891,0.00835598793873314,-1.4445475626484414,-0.7477215754324671,-1.4711577448926136,0.6611842952670401,0.35795265922546166,1.3024206181385158,0,238,0.0,0.0,0.0,0.0,0.0,0.0,0.00047123432,0.0006108284,-0.00090765953,0.00019192696,0.0005235672,-3.4928322e-05
1.3999505940552146,0.7132549848180256,1.1598902651254608,-0.7925650207585666,-0.3088060824569637,0.008356079523356,-1.4441166337616371,-0.74654102878297,-1.4727053624984439,0.6606502597603192,0.35850461441118153,1.3027459448144219,0,239,0.0,0.0,0.0,0.0,0.0,0.0,0.0,0.0,0.0,0.0,0.0,0.0
1.3999410296075434,0.7132630621827571,1.1599353691034966,-0.7925915808809224,-0.3088060678280356,0.008351219407842794,-1.4439301599033885,-0.7469032605517224,-1.4720459654616453,0.6616507874142729,0.35897497445411064,1.301399758932106,0,240,0.0,0.0,0.0,0.0,0.0,0.0,0.00036656857,0.00027924776,-0.00019204617,0.0011693835,0.00020945072,-0.00045371056
1.399953862848751,0.7132232891476071,1.1599034439103042,-0.792577207028621,-0.3087981869227613,0.008357438611564526,-1.443406902720114,-0.746812109516725,-1.4717632772708087,0.6644654817948801,0.3590529725557226,1.3010090732193147,0,241,0.0,0.0,0.0,0.0,0.0,0.0,6.9737434e-05,0.0,0.00013971329,0.0006457567,-1.7434359e-05,-0.0006457567
1.3999461169841827,0.7132427031038171,1.159908230030961,-0.7925725114932108,-0.30881553572776416,0.00835285158817733,-1.4440698831761445,-0.7471782708093296,-1.4715477348852373,0.6637207829965609,0.3588874548047003,1.3014246012473338,0,242,0.0,0.0,0.0,0.0,0.0,0.0,-5.2332878e-05,-0.0010122657,0.0041538477,0.0031241775,-0.00019201636,-0.0032289028
1.399950670664111,0.7132516080154172,1.1599143213536867,-0.7925540286572773,-0.30881379081695776,0.008360981985570231,-1.4436305576472066,-0.7478927436913126,-1.4671521416672157,0.6677573467003362,0.3583895049539343,1.296590623956504,0,243,0.0,0.0,0.0,0.0,0.0,0.0,-0.00036656857,-0.0053406954,0.011187553,0.00671947,-0.0032637715,-0.008011103
1.399939910708958,0.7132581008869318,1.1599053427492807,-0.792593016055965,-0.3088012857682767,0.00836671307233844,-1.4441486805369068,-0.7531107287291762,-1.4564574865158524,0.6744906119550563,0.3552416962496786,1.2893962802348602,0,244,0.0,0.0,0.0,0.0,0.0,0.0,0.0,0.0,0.0,0.0,0.0,0.0
1.3999529580646473,0.713244273489236,1.1599301258260382,-0.7925844556047219,-0.30881598060305293,0.00835593466415193,-1.4439956691197997,-0.7533917333273913,-1.456987707243019,0.6713627771529721,0.35608430672140956,1.2931329474968778,0,245,0.0,0.0,0.0,0.0,0.0,0.0,-0.0014835596,-0.009686589,0.017732501,0.012356937,-0.0069289505,-0.013473868
1.3999512183670044,0.7132262320606066,1.1599095081696993,-0.7925870179940547,-0.30881558228079475,0.008365579578385988,-1.4459735980565689,-0.7627014106623246,-1.439253973302897,0.6848366110425995,0.34835218562786685,1.27698424738272,0,246,0.0,0.0,0.0,0.0,0.0,0.0,-0.0027052164,-0.013107479,0.024958253,0.019512773,-0.010594159,-0.021834016
1.3999390288564355,0.7132388976322218,1.1599185271723957,-0.7925738081129502,-0.30881766609945394,0.008364488254006321,-1.4481781450034903,-0.7765600538360076,-1.4123766373871944,0.7068256274817399,0.3370994014108209,1.2529626173478579,0,247,0.0,0.0,0.0,0.0,0.0,0.0,-0.0017976761,-0.0096690655,0.018378377,0.017104328,-0.0069987476,-0.018867016
1.3999506566653863,0.7132435587637341,1.1599189371151988,-0.7925853428755041,-0.308825568718786,0.008353774119132499,-1.4506045372723475,-0.7864429319164282,-1.3949932935607405,0.7202797416045789,0.33077140850752845,1.2372300204548894,0,248,0.0,0.0,0.0,0.0,0.0,0.0,0.0,0.0,0.0,0.0,0.0,0.0
1.399938975988317,0.7132622472138582,1.1599165828618032,-0.7925707265439641,-0.30880650844385626,0.008347496075273792,-1.4504972990711835,-0.7875052402479589,-1.3912018549732623,0.7238375844687984,0.329546202703754,1.234400305776249,0,249,0.0,0.0,0.0,0.0,0.0,0.0,-0.0032812357,-0.020350575,0.038903236,0.04448843,-0.014329165,-0.046111584
1.3999683543403072,0.7132416643716089,1.1599057825437857,-0.7925916968719523,-0.30881009455144837,0.00834539499873046,-1.4549486016736297,-0.811403455363012,-1.3493382850021527,0.7640610759270969,0.31480010980231393,1.1916149029461365,0,250,0.0,0.0,0.0,0.0,0.0,0.0,0.0,0.0,0.0,0.0,0.0,0.0
1.3999621727548948,0.7132298547209418,1.1599056122200664,-0.7925947964259806,-0.30882361105645323,0.008355530724131801,-1.4540367682684407,-0.8104393497115958,-1.3471253673433772,0.7689339874942954,0.3134500076582306,1.1856517255624832,0,251,0.0,0.0,0.0,0.0,0.0,0.0,-0.0043632984,-0.027960181,0.055658698,0.06979567,-0.019896746,-0.07456052
1.3999504262644291,0.713255543847804,1.159895235548984,-0.7925967118236508,-0.30879927185560824,0.008336397588898727,-1.4604687207878606,-0.8429430089608271,-1.286905467409488,0.8349078069069501,0.29181660336017284,1.1149264731842459,0,252,0.0,0.0,0.0,0.0,0.0,0.0,0.0,0.0,0.0,0.0,0.0,0.0
1.3999360678614394,0.7132582478642167,1.1599099725141784,-0.7925889775693725,-0.3088041858740418,0.008350597997227052,-1.4579265129411692,-0.8347457305096537,-1.298943593012043,0.8375460217456632,0.29534211334308835,1.1134843177609273,0,253,0.0,0.0,0.0,0.0,0.0,0.0,-0.0023213625,-0.012636185,0.023806214,0.026982784,-0.009267688,-0.030682921
1.3999320217676552,0.7132546740716985,1.1599041659633218,-0.7925825370746787,-0.3088111508603717,0.008357408977077643,-1.4608854160007485,-0.8491363785429614,-1.272350456419851,0.8630864984410936,0.28524749129236987,1.0831649561796381,0,254,0.0,0.0,0.0,0.0,0.0,0.0,-0.00080275536,-0.0043458343,0.007609606,0.0064926744,-0.0030718148,-0.0073827505
1.3999358479613901,0.7132707579871557,1.1599057850496841,-0.7925899514465418,-0.30881455911349753,0.008344893774287144,-1.4610781403018707,-0.8533019057037045,-1.2644270702285714,0.8719927934198047,0.2824994777025891,1.0750167153640464,0,255,0.0,0.0,0.0,0.0,0.0,0.0,-0.0024609566,-0.008552134,0.012828112,0.0043632984,-0.005375564,-0.005742073
1.3999484645887434,0.7132651928266651,1.1599025260876974,-0.7925765637435999,-0.3088209517332247,0.008350152334183755,-1.463892361765875,-0.8615937647736588,-1.2525385949547225,0.8747536823279661,0.2773379732154456,1.0692726508348769,0,256,0.0,0.0,0.0,0.0,0.0,0.0,-0.0011519194,-0.001727879,0.0012568235,-0.0045553446,-0.0007330775,0.0039618015
1.3999581683272662,0.7132586130644261,1.1598919778175725,-0.7925884966494191,-0.30881287956860537,0.008351934901521842,-1.4645842660969401,-0.8623452576634998,-1.2518550430985014,0.872380595688917,0.27685208988851967,1.0727995380688777,0,257,0.0,0.0,0.0,0.0,0.0,0.0,0.0,0.0,0.0,0.0,0.0,0.0
1.3999498853035959,0.7132570296908459,1.1599078585464282,-0.7926035442155089,-0.30880619235851114,0.008334372297139207,-1.4647990452364381,-0.8638277428331654,-1.2497777879937682,0.8703143481148733,0.2765202875744311,1.0732420867417798,0,258,0.0,0.0,0.0,0.0,0.0,0.0,-0.0033859015,-0.0014835,-0.0020769835,-0.023003459,0.00012218952,0.02148509
1.3999465389633157,0.7132519083279586,1.1598784229652357,-0.7925840441414129,-0.3088007753891001,0.008351417597563306,-1.468053539208516,-0.8633720224669126,-1.2539451839013773,0.8494598457197906,0.276621505643247,1.0930204668021057,0,259,0.0,0.0,0.0,0.0,0.0,0.0,-0.0016231537,-0.00033164024,-0.003508091,-0.013735712,0.00071558356,0.011937976
1.3999377158402146,0.7132656336037657,1.1598895107679812,-0.7925749614005174,-0.30881313222619206,0.008376043367662766,-1.4701164358813368,-0.8637418568323674,-1.259183854817145,0.8324486770367222,0.27758628684251124,1.1079151291708127,0,260,0.0,0.0,0.0,0.0,0.0,0.0,-0.0046949387,-0.0019198656,-0.008656859,-0.03616321,0.0042237043,0.035447717
1.3999578874205219,0.7132575998722456,1.1599068350957258,-0.7925767303970356,-0.308803410395418,0.008355659936852586,-1.4741363254689128,-0.8646682935402172,-1.26849563107431,0.7962335742539901,0.2826452024439853,1.1431961674411575,0,261,0.0,0.0,0.0,0.0,0.0,0.0,0.0,0.0,0.0,0.0,0.0,0.0
1.3999518574904444,0.7132286256150296,1.1598972753689882,-0.7925682056100976,-0.3088120545313644,0.008354714718566575,-1.4743130985332362,-0.8655112685722612,-1.268254639572541,0.7972503731242858,0.2828277655563398,1.144599811205312,0,262,0.0,0.0,0.0,0.0,0.0,0.0,-0.005061507,-0.0042236447,-0.004241228,-0.032463133,0.004345864,0.030962229
1.3999432837806862,0.7132584490399464,1.1599053427809773,-0.7925899491504004,-0.30882051851297415,0.008363717971765735,-1.480774648488587,-0.8733516683862007,-1.2667367610661784,0.7619578670035806,0.28526619786855667,1.1753642179794521,0,263,0.0,0.0,0.0,0.0,0.0,0.0,-0.0020594597,-0.0023911595,-0.00045382977,-0.011309743,0.0013090074,0.01038456
1.3999284623775274,0.7132538397715829,1.159918733508151,-0.7925729524269302,-0.30881681108838566,0.008359151952524969,-1.4817609648106425,-0.8717971908272366,-1.2732732028655347,0.7524072090253261,0.28838269817377227,1.1845086603137718,0,264,0.0,0.0,0.0,0.0,0.0,0.0,0.0,0.0,0.0,0.0,0.0,0.0
1.3999423144417291,0.713237855322023,1.1599046372437698,-0.7925859422215346,-0.30881168826372424,0.00834028777627025,-1.4818184574977233,-0.8756639220539156,-1.2661016406149599,0.7558335575493373,0.28562706446691144,1.181491278698434,0,265,0.0,0.0,0.0,0.0,0.0,0.0,-0.005794525,-0.007644534,-6.9737434e-05,-0.029740393,0.0029845238,0.029914975
1.3999424583264948,0.7132486254928141,1.1599189265187348,-0.7925767334063512,-0.3088091699327106,0.008365036325140225,-1.4879429474071613,-0.8816074954448085,-1.2705349140803601,0.7232373525072495,0.29052914893842474,1.2140806277978027,0,266,0.0,0.0,0.0,0.0,0.0,0.0,-0.002722621,-0.0033335686,3.4809113e-05,-0.01286304,0.0009599328,0.012653708
1.3999321613223346,0.7132574309664844,1.1599461779702824,-0.7925750087030802,-0.3088286299534502,0.008381442482547203,-1.4897456075579019,-0.8828888106038738,-1.2726482625588227,0.710537382320839,0.29231304920391205,1.2266977528920646,0,267,0.0,0.0,0.0,0.0,0.0,0.0,-0.0034208298,-0.0046251416,3.4928322e-05,-0.019512832,0.0019198358,0.017802238
1.3999355661895143,0.7132653260881645,1.1598974803063624,-0.7925651679950181,-0.3088330008407632,0.008355787138701717,-1.4939203596655584,-0.888118286685447,-1.2724942677658884,0.6912872116760458,0.294351361402994,1.244756178667883,0,268,0.0,0.0,0.0,0.0,0.0,0.0,-0.001413703,-0.0016230941,-3.4928322e-05,-0.008063436,0.0006457865,0.006003976
1.3999447923446202,0.7132775711484803,1.1599156235128787,-0.7925817299143385,-0.30881958774322515,0.00835819713435445,-1.4944598050381597,-0.8890307143044487,-1.273437810329585,0.6839079997464402,0.2950897577139838,1.2501305950740509,0,269,0.0,0.0,0.0,0.0,0.0,0.0,-0.0011694431,-0.0015184879,-3.4809113e-05,-0.0061086416,0.0010820925,0.0068941116
1.3999512185385392,0.7132400100702877,1.1598951693887896,-0.7925615342520487,-0.3088151876250912,0.008357258697749415,-1.497361234795298,-0.8926163884322414,-1.2703863999107436,0.6753578165892544,0.29482908490926035,1.2585259263637372,0,270,0.0,0.0,0.0,0.0,0.0,0.0,-0.0023736954,-0.0027576685,-0.0010820627,-0.015533388,0.0026529133,0.014503598
1.3999570993005352,0.71325279397289,1.1598864053034632,-0.7925642759212639,-0.3088281434175993,0.008368918087733278,-1.4984329507469596,-0.8934846510419373,-1.2741543679982523,0.6609953532935514,0.2987498669784998,1.272250415685822,0,271,0.0,0.0,0.0,0.0,0.0,0.0,-0.0039793253,-0.0044505,-0.0026878119,-0.023527026,0.0039793253,0.022863865
1.3999365262022034,0.7132615254144139,1.15990023325585,-0.7925746052049484,-0.3088162747105124,0.008359840041668454,-1.5019789426812846,-0.8979866991070445,-1.277664251060542,0.6376074073155368,0.3030678692714932,1.2952747380344323,0,272,0.0,0.0,0.0,0.0,0.0,0.0,0.0,0.0,0.0,0.0,0.0,0.0
1.3999495037208887,0.7132481561756926,1.1598983140098358,-0.7925877781538825,-0.30881871300566444,0.008360965466031173,-1.5031596012181687,-0.8972482392029127,-1.278111824239947,0.636981632266132,0.30315827644959326,1.2956211774132138,0,273,0.0,0.0,0.0,0.0,0.0,0.0,-0.005986452,-0.005829394,-0.0044680834,-0.03286457,0.0060388446,0.028745532
1.3999616519139648,0.7132548794658772,1.1599157571831715,-0.7925847227476697,-0.3088332523926968,0.00837180533678487,-1.5091031396454178,-0.9033236671170699,-1.2831161990005078,0.603660526828748,0.309125156684718,1.3249114911617732,0,274,0.0,0.0,0.0,0.0,0.0,0.0,-0.0033860207,-0.0028972626,-0.0023562908,-0.01579529,0.003961891,0.016406178
1.3999487906883599,0.7132638906767956,1.1599025869564188,-0.7925653730423983,-0.3088151557298886,0.008339171937342101,-1.5124357373386355,-0.9077897806053375,-1.2828637097974562,0.588737738373666,0.3125689291529924,1.3405432455693336,0,275,0.0,0.0,0.0,0.0,0.0,0.0,-0.0076270103,-0.0062657595,-0.0052882433,-0.032044172,0.006998807,0.029338956
1.3999460641421673,0.7132432288055188,1.1599165224144605,-0.7925662418284501,-0.30882111045690874,0.00834808091916267,-1.520203589016872,-0.912695759356065,-1.2893886867303221,0.5553148160916828,0.32007315588035606,1.3709074433497588,0,276,0.0,0.0,0.0,0.0,0.0,0.0,-0.004293561,-0.0036128163,-0.0024784803,-0.019617558,0.0043807626,0.01661551
1.3999653378072174,0.7132445070822305,1.1599171783855928,-0.7926017866782556,-0.30881466817601644,0.008347658861720304,-1.524636833315814,-0.9168892102500724,-1.2911217837529603,0.535723888524636,0.324159102817635,1.3871400758660066,0,277,0.0,0.0,0.0,0.0,0.0,0.0,0.0,0.0,0.0,0.0,0.0,0.0
1.399939924827011,0.7132717694080538,1.1598959493124,-0.7925791565057646,-0.30883097998280323,0.008368153240532914,-1.5244726451000488,-0.9165437387050827,-1.2929003945361228,0.5353954614513231,0.32434441736492414,1.3879389412380454,0,278,0.0,0.0,0.0,0.0,0.0,0.0,-0.01137948,-0.0100880265,-0.006457567,-0.047595084,0.012042761,0.043144584
1.3999495683745609,0.7132521617891482,1.159914860650447,-0.792574684767225,-0.3088156550777048,0.00833568541777257,-1.537822935266361,-0.9276978837482366,-1.2994692153261578,0.4823503979506309,0.3370382184810481,1.4363056479317686,0,279,0.0,0.0,0.0,0.0,0.0,0.0,-0.0066148043,-0.0057072043,-0.004241228,-0.026703566,0.007417649,0.024748802
1.3999519352255032,0.7132441751028887,1.1598809289830398,-0.7925984889531519,-0.3088028002706679,0.008373452007607857,-1.5420742868569082,-0.9324018681073052,-1.3014074358274006,0.4636744033775518,0.3432602051676581,1.4542813902884788,0,280,0.0,0.0,0.0,0.0,0.0,0.0,-0.0033859015,-0.0026528835,-0.0024957657,-0.013473928,0.003455758,0.010489345
1.3999589460619444,0.7132558672373585,1.1599058812732024,-0.7925862407739807,-0.30881813184977197,0.008384107893393675,-1.5462025809241797,-0.937490830486209,-1.3004194037007402,0.44878545923130786,0.34582631547620707,1.465397399822,0,281,0.0,0.0,0.0,0.0,0.0,0.0,-0.0030195713,-0.002338767,-0.0026005507,-0.011693686,0.0042411387,0.012339473
1.3999283112852738,0.7132624989037655,1.1599022921218014,-0.7925774877414565,-0.30882209789231246,0.008352809530941138,-1.5493382616944666,-0.9367725501897572,-1.3102363151319705,0.4344961841469651,0.3527405182137143,1.4814684308825712,0,282,0.0,0.0,0.0,0.0,0.0,0.0,-0.0061608553,-0.0043284297,-0.00750494,-0.025708735,0.00853467,0.022235513
1.3999555632034146,0.7132648700057855,1.1598989930356067,-0.7925727293050113,-0.30879122568595657,0.00837179137628276,-1.553960686749958,-0.9416248058260214,-1.3123064940729947,0.41778995368623945,0.35831604388499383,1.4946881634241247,0,283,0.0,0.0,0.0,0.0,0.0,0.0,0.0,0.0,0.0,0.0,0.0,0.0
1.399936171782578,0.7132637360140095,1.15991386467047,-0.7925802772427547,-0.3088056463635067,0.008358797498406212,-1.554890646060094,-0.9412266202107561,-1.3161226596077007,0.412085288059349,0.3599809977112742,1.4998711034513152,0,284,0.0,0.0,0.0,0.0,0.0,0.0,-0.0038223267,-0.0013787746,-0.0089885,-0.018797189,0.0085172355,0.01834333
1.3999533713290708,0.7132626323130271,1.1599156700659095,-0.7925815172411215,-0.30882530410783987,0.008378044603542724,-1.5610756944029471,-0.9412363991180674,-1.3331869559579717,0.3825442466607206,0.37482309015366916,1.5296475308255912,0,285,0.0,0.0,0.0,0.0,0.0,0.0,-0.00062835217,0.0005584955,-0.009110451,-0.01034981,0.0063180625,0.0102626085
1.3999274249448812,0.7132833777962915,1.1598959464149547,-0.7925926497659508,-0.3088172000247116,0.008371189971835653,-1.5587282356186074,-0.9413979472659163,-1.3342470451382933,0.38336671040414394,0.37520005065516304,1.527653178963171,0,286,0.0,0.0,0.0,0.0,0.0,0.0,0.00012218952,0.0025656223,-0.008028507,-0.0034382641,0.0042411685,0.004188776
1.399952525055086,0.7132765583515754,1.1599162169409616,-0.7925730448058333,-0.3088203452629099,0.008363619965778031,-1.5594250155257965,-0.9389829605785168,-1.3429476901825592,0.37725748531805475,0.38023280546440397,1.534471692607722,0,287,0.0,0.0,0.0,0.0,0.0,0.0,0.0,0.0,0.0,0.0,0.0,0.0
1.399943375904152,0.7132730158016822,1.1598923309516196,-0.7925721753038104,-0.30881271400031324,0.008369144379315267,-1.5589248148164854,-0.9391759288951381,-1.34139380694084,0.380180685856967,0.37931482799627364,1.5323061621464928,0,288,0.0,0.0,0.0,0.0,0.0,0.0,0.002233982,0.0068591237,-0.015201926,-0.0030892491,0.009058237,0.0049916506
1.3999458034522811,0.7132331145816213,1.1598818302674627,-0.7925845735348399,-0.30880080670910204,0.00835296468409274,-1.5566431115454051,-0.9327102634324974,-1.3572175068996324,0.37644698456831716,0.3885898383339736,1.537448172866874,0,289,0.0,0.0,0.0,0.0,0.0,0.0,0.0,0.0,0.0,0.0,0.0,0.0
1.3999448167957755,0.7132506339368812,1.1598973354135973,-0.7925926346373345,-0.30881804102027477,0.00836468374951307,-1.5562773277497628,-0.9328187289993345,-1.3558556094260363,0.3778716445673937,0.3874088874849433,1.5357239096499595,0,290,0.0,0.0,0.0,0.0,0.0,0.0,0.0021816492,0.007120967,-0.016702771,-0.0043109655,0.009215325,0.005654931
1.3999488933640074,0.7132516951886146,1.1598813675376471,-0.7925765544583511,-0.3088218773886288,0.008353116850302855,-1.5545333626233626,-0.924954022072989,-1.3743429878949152,0.3727130000147211,0.3974292332994208,1.542774521902641,0,291,0.0,0.0,0.0,0.0,0.0,0.0,0.0,0.0,0.0,0.0,0.0,0.0
1.3999338609927239,0.7132429276334392,1.1599095970134956,-0.7925940016981784,-0.30881750874991215,0.008348342755721251,-1.5545933896070272,-0.9255807639770506,-1.3726572635533576,0.3741674503018036,0.3968004763724029,1.5416618097289343,0,292,0.0,0.0,0.0,0.0,0.0,0.0,0.0010471344,0.007278025,-0.01864016,-0.006230831,0.011309743,0.008150578
1.3999593120200762,0.7132383742462388,1.159894649015851,-0.7926114183153298,-0.308809802261884,0.00833832132837672,-1.5537500756742244,-0.9181170711734492,-1.39117083381101,0.36648248055648425,0.40810129120340377,1.5508721252284137,0,293,0.0,0.0,0.0,0.0,0.0,0.0,0.0,0.0,0.0,0.0,0.0,0.0
1.399955269972274,0.713267409331157,1.1598917024521453,-0.7925727644808154,-0.3088218513745499,0.008361405381729194,-1.5533176868026919,-0.9184460499287388,-1.3912956754200334,0.36668708796946425,0.40852160430575246,1.550364049543657,0,294,0.0,0.0,0.0,0.0,0.0,0.0,0.0,0.0,0.0,0.0,0.0,0.0
1.3999366006706448,0.7132422918903522,1.159887779410282,-0.7925640440958228,-0.3088253830660159,0.008330808834926524,-1.5536137682635491,-0.9183659878671828,-1.3923809702736072,0.36608632834892435,0.4089470626177919,1.5513707041513052,0,295,0.0,0.0,0.0,0.0,0.0,0.0,0.0,0.0,0.0,0.0,0.0,0.0
1.399933947151629,0.7132573797242168,1.1599006564711516,-0.7925891919952269,-0.3088081357163402,0.008347975520401561,-1.5532764730017616,-0.9184505617282139,-1.3937146391949797,0.3660740980864758,0.40910081343465016,1.551200723509175,0,296,0.0,0.0,0.0,0.0,0.0,0.0,0.0018850565,0.025411963,-0.06052804,-0.020472705,0.033265978,0.023247838
1.3999490154808776,0.713256169496446,1.1599172178534938,-0.7925862007057082,-0.30881879916829863,0.008333032469296196,-1.5521051361560414,-0.8923728699159991,-1.4539456742566959,0.34504994464343564,0.44227474873018674,1.5741652305436942,0,297,0.0,0.0,0.0,0.0,0.0,0.0,0.00027918816,0.005550146,-0.013334274,-0.0043284,0.008464873,0.005584955
1.3999492546450214,0.7132355610917948,1.1599146440384571,-0.7925924337459422,-0.3088207648927631,0.008385705254511277,-1.5509854578218203,-0.8869156906313274,-1.46522303043823,0.34191430518739313,0.44982117202426886,1.5787337383729096,0,298,0.0,0.0,0.0,0.0,0.0,0.0,0.0004014969,0.00911063,-0.021327972,-0.0067718923,0.010733753,0.007522464
1.3999622785340153,0.7132440963311634,1.1598777174317574,-0.7925754103665362,-0.30880955347688,0.008341499456492553,-1.551219290833431,-0.877929041897819,-1.4872696488998538,0.33431649468156777,0.46087911645089547,1.5872559738313743,0,299,0.0,0.0,0.0,0.0,0.0,0.0,0.00050616264,0.008011043,-0.017749906,-0.005078912,0.010035634,0.0068591833
1.3999519950314554,0.7132738434939823,1.1599029591401422,-0.7925967655587655,-0.30882252367177854,0.008348186450303831,-1.5505401698306092,-0.870418189389823,-1.5046408174177723,0.32887451888298136,0.47104148260143935,1.5943824325107177,0,300,0.0,0.0,0.0,0.0,0.0,0.0,0.00038397312,0.0037699938,-0.008831382,-0.0022340417,0.0049043894,0.0034905672
1.3999564765055224,0.7132369403688936,1.1598870418538823,-0.7925862937893953,-0.30881168754775323,0.00837316580566142,-1.550652855603501,-0.8664884315765609,-1.5151615251346795,0.3263435982694059,0.47675282204525493,1.5980630909932148,0,301,0.0,0.0,0.0,0.0,0.0,0.0,0.0009948015,0.004851997,-0.010297537,-0.0016754866,0.0049741864,0.0029671192
1.3999559013113936,0.7132601814771956,1.1599319829951298,-0.7925801309273701,-0.308822984757098,0.00836274654083077,-1.550350374658817,-0.8595586137057706,-1.5357421559729887,0.3202028170309127,0.4881913615136553,1.607277189543733,0,302,0.0,0.0,0.0,0.0,0.0,0.0,0.0017976761,0.0036477447,-0.005305767,0.00012218952,0.0024783611,0.0005584955
1.3999740591636185,0.713261349136389,1.159877146828979,-0.7926036196385782,-0.3088294389969433,0.008333364605256657,-1.5471204675389518,-0.8580885605490625,-1.529738369448375,0.32560889084690153,0.4836449627931616,1.6008176022952711,0,303,0.0,0.0,0.0,0.0,0.0,0.0,0.0,0.0,0.0,0.0,0.0,0.0
1.399938639073623,0.7132612507873318,1.1598873038619755,-0.7925706445056211,-0.30881463517049945,0.008355937492610255,-1.5489660608940004,-0.8539594014917087,-1.5415693973375075,0.31944254064388294,0.4906470087989472,1.6083593448954348,0,304,0.0,0.0,0.0,0.0,0.0,0.0,0.0034382343,0.0033509731,-0.0010820627,0.006108612,-6.979704e-05,-0.0047996044
