ias30/Pi0/openpi-main/test4_predictions.csv
joint_0_right_waist,joint_1_right_shoulder,joint_2_right_elbow,joint_3_right_forearm_roll,joint_4_right_wrist_angle,joint_5_right_wrist_rotate,joint_6_left_waist,joint_7_left_shoulder,joint_8_left_elbow,joint_9_left_forearm_roll,joint_10_left_wrist_angle,joint_11_left_wrist_rotate,episode_index,frame_index,gt_joint_0_right_waist,gt_joint_1_right_shoulder,gt_joint_2_right_elbow,gt_joint_3_right_forearm_roll,gt_joint_4_right_wrist_angle,gt_joint_5_right_wrist_rotate,gt_joint_6_left_waist,gt_joint_7_left_shoulder,gt_joint_8_left_elbow,gt_joint_9_left_forearm_roll,gt_joint_10_left_wrist_angle,gt_joint_11_left_wrist_rotate
1.3999402375646324,0.713262741826757,1.1599266926705463,-0.7926018267427992,-0.3088168233493889,0.008352321839095393,-1.388136860805243,-0.7794010174392846,-1.2425381368746835,1.2233526724889547,0.24910266614558774,0.7408158875056073,1,0,0.0,0.0,0.0,0.0,0.0,0.0,3.4928322e-05,-1.7464161e-05,0.0,0.0,3.489852e-05,0.0
1.3999399682252944,0.7132753447732842,1.159940904161509,-0.7925760206050213,-0.3088398073980013,0.008373625119698533,-1.388470722574641,-0.7787886599596218,-1.2433076866315715,1.222870664555011,0.24868791904856452,0.7403336897981674,1,1,0.0,0.0,0.0,0.0,0.0,0.0,-3.4928322e-05,1.7464161e-05,1.7642975e-05,-3.4928322e-05,0.0,0.0
1.3999438027571083,0.7132480608490026,1.1599289938833561,-0.7925591677292596,-0.3088163910893599,0.008366451107128824,-1.3896855340530618,-0.7798360844148184,-1.243373718396741,1.2184405861490937,0.24870503049572054,0.7455366037709604,1,2,0.0,0.0,0.0,0.0,0.0,0.0,3.4928322e-05,0.0,-1.7642975e-05,5.2332878e-05,0.0,-3.4868717e-05
1.3999353385778608,0.7132343619242842,1.1599128163845238,-0.7925872920114427,-0.30881650675596545,0.00834476698402811,-1.3884870336668735,-0.7779492300189375,-1.2447283787122592,1.2223747904542408,0.24931132689080232,0.7414362951153475,1,3,0.0,0.0,0.0,0.0,0.0,0.0,0.0,-1.7464161e-05,0.0,-1.7404556e-05,1.744926e-05,3.4868717e-05
1.399923457934195,0.7132414949400565,1.1599201598827167,-0.7925899850225981,-0.3088193300160418,0.008382892092609147,-1.3887411460941803,-0.7788034918136848,-1.2428704583425498,1.2232678997203141,0.24873358013433958,0.7407907899957022,1,4,0.0,0.0,0.0,0.0,0.0,0.0,0.0,1.7464161e-05,1.7642975e-05,0.0,0.0,0.0
1.3999588964101017,0.7132690420890228,1.1599141166624276,-0.7925768315391254,-0.3088424072378377,0.00837899006561313,-1.3890247470541845,-0.7789431513613408,-1.2435556642469818,1.2222142937118408,0.24912668469997684,0.7402634498811719,1,5,0.0,0.0,0.0,0.0,0.0,0.0,0.0,-1.7464161e-05,0.0,0.0,-1.744926e-05,0.0
1.3999466977336126,0.7132686553183226,1.159929623188298,-0.7925906085065465,-0.3088384407156526,0.008350470308275262,-1.3881583264788822,-0.7790173938871019,-1.2434679995296616,1.223063314682494,0.249283197401101,0.73966170090664,1,6,0.0,0.0,0.0,0.0,0.0,0.0,1.7404556e-05,1.7464161e-05,-1.7642975e-05,0.0,0.0,0.0
1.3999514663773056,0.7132744168823353,1.1599267201105075,-0.792591482953244,-0.3088323604643742,0.008371629936010877,-1.3885424828002306,-0.7788598644744475,-1.2444404400412254,1.2209907394132065,0.2493929129561994,0.7432141735594251,1,7,0.0,0.0,0.0,0.0,0.0,0.0,-5.2332878e-05,0.0,0.0,1.7404556e-05,0.0,0.0
1.3999472021948414,0.7132686904046304,1.1599159798650664,-0.792585207309473,-0.3088052045199076,0.008366669369207994,-1.3884259992789667,-0.778965123900079,-1.2425686415631338,1.2252819368158627,0.2491864120962827,0.7392511492475653,1,8,0.0,0.0,0.0,0.0,0.0,0.0,0.0,0.0,0.0,0.0,0.0,-3.4868717e-05
1.399926193838352,0.7132858629912725,1.159946910811342,-0.7925895239693248,-0.308825532584625,0.008336556985670068,-1.388672246336955,-0.7785442077838423,-1.2438477297047754,1.2215892657125969,0.24895970036058843,0.7419486988466594,1,9,0.0,0.0,0.0,0.0,0.0,0.0,0.0,0.0,0.0,0.0,1.744926e-05,3.4868717e-05
1.3999377962303328,0.713245138702891,1.1599223993803185,-0.7926055620753404,-0.3088220669643233,0.008378363568620125,-1.3877273321326946,-0.7783629396377371,-1.2435904389105004,1.224898751013515,0.2494858625174448,0.7377122760665521,1,10,0.0,0.0,0.0,0.0,0.0,0.0,3.4928322e-05,0.0,0.0,-1.7404556e-05,0.0,1.7523766e-05
1.3999552768784107,0.7132579656439266,1.1598771360073759,-0.7925822708938169,-0.3088146261313657,0.008378928096832076,-1.3901022086090598,-0.7821326595068405,-1.2400502195611043,1.2173635962034768,0.24862116147676316,0.747277083358988,1,11,0.0,0.0,0.0,0.0,0.0,0.0,0.0,0.0,-1.7404556e-05,0.0,0.0,-1.7523766e-05
1.3999223175154605,0.7132458330754257,1.1599259403267352,-0.7925714341843363,-0.3088407512677821,0.008363369510175028,-1.3879600906374676,-0.7786864054587399,-1.2439348023078955,1.224126152681978,0.24929523315748114,0.7399434582424178,1,12,0.0,0.0,0.0,0.0,0.0,0.0,0.0,0.0,1.7404556e-05,0.0,-1.744926e-05,0.0
1.3999430015892962,0.7132344879295854,1.1599409937287344,-0.7925961574532773,-0.30882043316699437,0.00836800323715184,-1.3885386841707004,-0.7780349642482001,-1.2446138540997929,1.2241453639943423,0.24946308992553923,0.739395748573459,1,13,0.0,0.0,0.0,0.0,0.0,0.0,0.0,0.0,0.0,1.7404556e-05,0.0,-3.4868717e-05
1.3999532552746476,0.7132445226918898,1.1599166742226852,-0.7925929205791822,-0.3088168839384342,0.008357640317746738,-1.3881002025525964,-0.7784814600560406,-1.2443165951715955,1.2231702341043067,0.24950614008395777,0.740468721929574,1,14,0.0,0.0,0.0,0.0,0.0,0.0,-3.4928322e-05,0.0,0.0,-1.7404556e-05,1.744926e-05,3.4868717e-05
1.3999500203610824,0.7132392214860386,1.159910073039116,-0.7925852071542527,-0.3088256936538598,0.008380973018129656,-1.388388822510401,-0.7789126496559701,-1.2423133702818834,1.2241263003580338,0.24898389832057574,0.7390368152659479,1,15,0.0,0.0,0.0,0.0,0.0,0.0,3.4928322e-05,0.0,0.0,0.0,-1.744926e-05,0.0
1.3999382543585428,0.7132396820120058,1.1599045669420374,-0.7925885043274622,-0.3088306960164017,0.008366609621987977,-1.3888753688051751,-0.7784615321748061,-1.24332404171173,1.2221547690737289,0.24945139522860246,0.7409959260721218,1,16,0.0,0.0,0.0,0.0,0.0,0.0,-3.4928322e-05,0.0,0.0,1.7404556e-05,-3.489852e-05,0.0
1.3999372012136893,0.7132412574465117,1.159957277057029,-0.7925767870221372,-0.30882017177418863,0.008370282706071923,-1.3878786259994547,-0.7789988964439468,-1.244121959489973,1.222684693132601,0.24951278988732764,0.740895686535859,1,17,0.0,0.0,0.0,0.0,0.0,0.0,3.4928322e-05,-1.7464161e-05,0.0,0.0,5.234778e-05,0.0
1.3999341037292645,0.7132360223486489,1.1599048670070653,-0.7925797123006221,-0.30883441582877996,0.008380305028380195,-1.3879884548558463,-0.7785891697656085,-1.243924296398402,1.22237963915141,0.24969211644244724,0.7411268338925692,1,18,0.0,0.0,0.0,0.0,0.0,0.0,0.0,3.4868717e-05,0.0,-1.7404556e-05,-1.744926e-05,0.0
1.3999445623426676,0.7132322243164396,1.1599454828817768,-0.7925620068227361,-0.3088436377906079,0.008351691605628767,-1.3885036842112093,-0.7794100761155347,-1.2430653525069626,1.2210998876811363,0.24875127411135792,0.7423988151694404,1,19,0.0,0.0,0.0,0.0,0.0,0.0,0.0,-1.7404556e-05,0.0,0.0,1.744926e-05,-3.4868717e-05
1.3999484662490875,0.7132647664845838,1.1599198818846044,-0.7925969850672681,-0.3088221825265164,0.008376375615493694,-1.3883039189029658,-0.7790357981615528,-1.2431492199447283,1.222266624736017,0.249370426157037,0.7416862876424781,1,20,0.0,0.0,0.0,0.0,0.0,0.0,0.0,-1.7464161e-05,0.0,1.7404556e-05,-1.744926e-05,3.4868717e-05
1.3999364930792224,0.7132573099636575,1.1599309930459034,-0.792586217903928,-0.3088344736527602,0.00836233021861438,-1.388356969405172,-0.7786494074058228,-1.2439252001583745,1.2245848319939374,0.24945255784387504,0.738847810999416,1,21,0.0,0.0,0.0,0.0,0.0,0.0,1.7404556e-05,1.7464161e-05,1.7642975e-05,-1.7404556e-05,0.0,0.0
1.3999287829237075,0.7132561814106508,1.1599507767638413,-0.7926025620673831,-0.30881195808037615,0.008363702450670602,-1.3884533766231693,-0.7785812355496194,-1.244596925906346,1.2200979794798115,0.2496728835439036,0.7428081542014624,1,22,0.0,0.0,0.0,0.0,0.0,0.0,-5.2332878e-05,0.0,0.0,-3.4928322e-05,1.744926e-05,-3.4868717e-05
1.3999436881029306,0.7132864175257227,1.1598921020236237,-0.7925993015653129,-0.30882501621431874,0.008373509788704405,-1.3875879351925837,-0.7786584537190284,-1.242739405348147,1.2257802136662572,0.24932875918564718,0.7383934956329576,1,23,0.0,0.0,0.0,0.0,0.0,0.0,3.4928322e-05,0.0,-1.7642975e-05,3.4928322e-05,-1.744926e-05,0.0
1.39994842351084,0.7132618991475432,1.159925111418776,-0.792578024906152,-0.30882815184517454,0.008385217715555171,-1.3890182865141578,-0.7796200191651526,-1.2422847065859695,1.2205528306820799,0.24854121158878084,0.7424883694862738,1,24,0.0,0.0,0.0,0.0,0.0,0.0,0.0,0.0,-1.7404556e-05,0.0,1.744926e-05,3.4868717e-05
1.3999307651742368,0.7132570473290897,1.159949957857102,-0.7926082824966247,-0.3088234342973853,0.00835350327420451,-1.3885639218226495,-0.7789992065447575,-1.2441200247529334,1.2212597134489194,0.24927028130710377,0.7418747130271465,1,25,0.0,0.0,0.0,0.0,0.0,0.0,-3.4928322e-05,0.0,1.7404556e-05,0.0,-1.744926e-05,1.7523766e-05
1.399939362655537,0.7132944098241507,1.159929088316947,-0.7925812933211933,-0.30884165559508153,0.008375592000157871,-1.3884201226352049,-0.7791148206045636,-1.242994626780565,1.2238708543440486,0.24919006778754035,0.7396854445956813,1,26,0.0,0.0,0.0,0.0,0.0,0.0,0.0,0.0,0.0,1.7404556e-05,0.0,-1.7523766e-05
1.3999508971496017,0.713255143025241,1.159919823156338,-0.792556311862671,-0.30884203796088194,0.008360790550029204,-1.3878180247813499,-0.778607939356662,-1.243107695335298,1.2238226065063873,0.24922437592273028,0.7400447470020879,1,27,0.0,0.0,0.0,0.0,0.0,0.0,0.0,0.0,0.0,0.0,0.0,0.0
1.3999215639261582,0.7132599650926759,1.1599464528285635,-0.7925805588841152,-0.30881167444399243,0.008368116972127297,-1.388190612111791,-0.7788594801948459,-1.243963807073573,1.223976288055238,0.24925721035738194,0.7396213466563694,1,28,0.0,0.0,0.0,0.0,0.0,0.0,3.4928322e-05,0.0,0.0,0.00012218952,0.0,0.0
1.3999316597510927,0.7132636527059367,1.159917489683814,-0.7925755480641659,-0.30884164498230315,0.008345649392173925,-1.3881803766949072,-0.7787559455655401,-1.2432990376858277,1.2236504527729435,0.24905423073661656,0.7396818640564635,1,29,0.0,0.0,0.0,0.0,0.0,0.0,0.0,0.0,0.0,0.0,0.0,0.0
1.3999198431234376,0.7132650492521069,1.159928188863471,-0.792584756767479,-0.30884097504227853,0.008341346660078804,-1.389153356889228,-0.7792381132847139,-1.2431658297885004,1.2213024124340306,0.24887630841886096,0.7415521606812651,1,30,0.0,0.0,0.0,0.0,0.0,0.0,0.00027918816,1.7404556e-05,0.0,0.0025656223,-3.489852e-05,-0.0017976165
1.3999291518575938,0.7132728819962126,1.1599264565716532,-0.7925738379301589,-0.30882154546895124,0.008346745665889534,-1.3873891127953932,-0.7778413279835695,-1.2447108688276916,1.2282827599087993,0.24968012300324316,0.7370713267483959,1,31,0.0,0.0,0.0,0.0,0.0,0.0,0.00029671192,5.2392483e-05,5.2571297e-05,0.0019373894,3.489852e-05,-0.0015883446
1.3999360175868512,0.7132402150076619,1.1599563593276476,-0.7926074077143158,-0.3088126341956506,0.008355939640523235,-1.3873856988849458,-0.7786937017905966,-1.2417605584982867,1.230438890416321,0.24908018878086172,0.733986117099654,1,32,0.0,0.0,0.0,0.0,0.0,0.0,0.0013439655,0.0008203387,-5.2571297e-05,0.0031415224,3.491342e-05,-0.0029146671
1.3999276638125682,0.7132662205955675,1.1599267757753877,-0.7925914336482,-0.3088299695892489,0.008363612853613051,-1.3869778497135268,-0.7785588405272069,-1.2422906684264456,1.2306590243463014,0.24906672058603313,0.7343898759936537,1,33,0.0,0.0,0.0,0.0,0.0,0.0,0.0,0.0,0.0,0.0,0.0,0.0
1.3999526634985187,0.7132800714497036,1.159917984315358,-0.7925792589641969,-0.3088276205313044,0.008371463338510432,-1.386124211410065,-0.7777498095426265,-1.2437106761785945,1.2303400037902466,0.24913425684570248,0.7338798265648644,1,34,0.0,0.0,0.0,0.0,0.0,0.0,0.00071561337,0.0009599328,-0.00040125847,0.00064587593,0.00019197166,-0.00041884184
1.3999428609569313,0.7132600926781475,1.1599103782562452,-0.7925766875431883,-0.30880443627930304,0.008364594484337904,-1.3859958581632745,-0.7771562651879157,-1.2427265083449583,1.2313083434786223,0.2493949871799292,0.733714397388885,1,35,0.0,0.0,0.0,0.0,0.0,0.0,0.002041936,0.0023038387,-0.0024783611,0.0022164583,0.001727894,-0.0014660954
1.3999361589687482,0.713257730835273,1.1599374936150384,-0.7925776790669916,-0.30881488757264863,0.008371287105233709,-1.3842577841207997,-0.7754594714923374,-1.2453235105541225,1.2326052835369714,0.2503300761644997,0.7334122871563769,1,36,0.0,0.0,0.0,0.0,0.0,0.0,0.0032812357,0.0031066537,-0.0024434328,0.007208228,0.0031241179,-0.006876588
1.399938091050034,0.7132511692445269,1.1599297590419293,-0.7925833443990957,-0.3088498014133523,0.008390092504744718,-1.3800486433655992,-0.771286972277283,-1.2489294924595176,1.2428742560917427,0.25391842537326226,0.7235827368327246,1,37,0.0,0.0,0.0,0.0,0.0,0.0,0.0,0.0,0.0,0.0,0.0,0.0
1.3999409700551646,0.7132644124481148,1.1599500899873112,-0.7925777784331377,-0.308816592292125,0.0083580243392301,-1.3809192011341807,-0.7712303359337139,-1.2483501004953352,1.2397335130598623,0.25379783940930395,0.7253014464757435,1,38,0.0,0.0,0.0,0.0,0.0,0.0,0.009424806,0.007906318,-0.0025134087,0.030229092,0.006963879,-0.024521887
1.3999355420888864,0.7132797306325949,1.1598985780036297,-0.7925960542080227,-0.3088268959006049,0.008355082929023842,-1.3702182678106247,-0.763688867930225,-1.252463410697566,1.2700916214368174,0.26162524983771185,0.7018252097532078,1,39,0.0,0.0,0.0,0.0,0.0,0.0,0.0,0.0,0.0,0.0,0.0,0.0
1.3999365397348011,0.7132477403363838,1.159910949628133,-0.7925829984508614,-0.3088186687497074,0.008357552342810968,-1.369641070088981,-0.7631728724513915,-1.2485674111723786,1.277079791128494,0.26043457449842744,0.6950354141783728,1,40,0.0,0.0,0.0,0.0,0.0,0.0,0.0,0.0,0.0,0.0,0.0,0.0
1.3999307755259842,0.7132928677307732,1.1599270789219809,-0.7925894863711755,-0.3088456931494201,0.00833993460866187,-1.3694260609980586,-0.7615048583170174,-1.2507732642547444,1.2761029789066098,0.2611447935839993,0.6950406753457451,1,41,0.0,0.0,0.0,0.0,0.0,0.0,0.013247013,0.009983301,0.0,0.045710206,0.010506868,-0.043528497
1.3999405643047074,0.7132740885723449,1.15991384406393,-0.7925850273933273,-0.30881299620848396,0.008346398476825395,-1.3570558633839627,-0.7527767569713555,-1.2539036693676144,1.314598370970821,0.2723417210067156,0.6590480881793106,1,42,0.0,0.0,0.0,0.0,0.0,0.0,0.010611653,0.007190764,0.003211379,0.04194033,0.009459704,-0.040002942
1.399943112762438,0.7132589050500757,1.1599230303670465,-0.7925935570503596,-0.3088489193221728,0.008344883012348155,-1.3467138812544197,-0.7481271433822904,-1.24408759985812,1.3579657945481198,0.2792854946556236,0.617227353317717,1,43,0.0,0.0,0.0,0.0,0.0,0.0,0.006771803,0.004066646,0.0030893087,0.025499225,0.0065449774,-0.024347365
1.3999555882446866,0.7132651495626262,1.1598833829698896,-0.7925866689553989,-0.30884007062921176,0.008366346282636114,-1.339826892258599,-0.7427120096514388,-1.2444523858827452,1.3850707598249554,0.2874797131541611,0.5913100353295182,1,44,0.0,0.0,0.0,0.0,0.0,0.0,0.0,0.0,0.0,0.0,0.0,0.0
1.3999513456010164,0.7132792078292706,1.1599175999890274,-0.7925813554596446,-0.30880925702014067,0.008346395335129762,-1.3398395192971244,-0.7424095763063747,-1.2450629333913248,1.3814051537152092,0.2868366515775537,0.594418456425873,1,45,0.0,0.0,0.0,0.0,0.0,0.0,0.012356997,0.006300628,0.0078190565,0.048328042,0.01047197,-0.04361576
1.3999281446803153,0.7132665997133955,1.1599109021465777,-0.792580231856906,-0.3088324127302567,0.008348492751644293,-1.3275959563671753,-0.7359192069580704,-1.237644536480475,1.4330348522998717,0.29770604941146195,0.5486701903467099,1,46,0.0,0.0,0.0,0.0,0.0,0.0,0.0,0.0,0.0,0.0,0.0,0.0
1.399920972038159,0.7132632718995641,1.15993243392634,-0.7925958100670415,-0.3088268540396082,0.008360709174518774,-1.3262637418060246,-0.7355164618569643,-1.236562248581377,1.4353266370115467,0.29848023167000753,0.545541204041562,1,47,0.0,0.0,0.0,0.0,0.0,0.0,0.010506868,0.005148709,0.007365346,0.043929935,0.009861112,-0.043144524
1.3999318720849694,0.7132789007103435,1.159940522127591,-0.7926064454343852,-0.308825795843803,0.008357139652655759,-1.3172315898496167,-0.7308645756437337,-1.2296868798631664,1.4759352469505858,0.3079665479784445,0.5058301328855767,1,48,0.0,0.0,0.0,0.0,0.0,0.0,0.0,0.0,0.0,0.0,0.0,0.0
1.3999260975850016,0.7132447601257703,1.1599440192580743,-0.7925952731843527,-0.3088240884860481,0.008368554363281766,-1.3158505798537987,-0.7304853903959473,-1.2300949498057543,1.4786731520771021,0.30845062916639693,0.5015417246146645,1,49,0.0,0.0,0.0,0.0,0.0,0.0,0.006091118,0.0046076775,0.0010297298,0.020053864,0.004625112,-0.018936872
1.3999389713512862,0.713268569506216,1.1598972858102319,-0.7925928123249274,-0.3088288707229352,0.008358012480960528,-1.3107228097269088,-0.7266345784571988,-1.2285258731042241,1.4971072602380298,0.31269395537776873,0.48602862552783427,1,50,0.0,0.0,0.0,0.0,0.0,0.0,0.0,0.0,0.0,0.0,0.0,0.0
1.3999446393058204,0.7132908053092054,1.159926977999903,-0.7925841998203557,-0.3088111920879019,0.008344881826521197,-1.310344884238395,-0.7259318470745304,-1.2291283574374123,1.4971604191431256,0.3132615242935898,0.4857595126241436,1,51,0.0,0.0,0.0,0.0,0.0,0.0,0.0027052164,0.007312894,-0.014224529,-0.013491273,0.003071785,0.014852762
1.3999340195952148,0.713258250145442,1.1599617802982924,-0.7925638070572179,-0.3088482965840275,0.008348416702100375,-1.3089197992518251,-0.7181298767310008,-1.2460437124330555,1.4785352586842462,0.316082689741707,0.506402502943853,1,52,0.0,0.0,0.0,0.0,0.0,0.0,0.0,0.0,0.0,0.0,0.0,0.0
1.3999163673452975,0.7132706405007905,1.1599259866914504,-0.7925744602059063,-0.3088407811353324,0.008331339386212938,-1.308360663989147,-0.7195353615268808,-1.243449235124215,1.4812897796045688,0.3154979610462735,0.5029271073605949,1,53,0.0,0.0,0.0,0.0,0.0,0.0,1.7642975e-05,0.005410552,-0.012793183,-0.022776604,0.0009599328,0.02515018
1.3999525782122033,0.7132713239864643,1.1599128044423515,-0.7925771772710767,-0.3088385920223246,0.008356585291604811,-1.3081354022004001,-0.712642430108039,-1.258321923551012,1.4563293024966644,0.317319313692941,0.5309644333466549,1,54,0.0,0.0,0.0,0.0,0.0,0.0,0.0,0.0019721985,-0.005846858,-0.01092577,0.00041890144,0.010978162
1.3999393060565384,0.7132593273760072,1.1599010037730184,-0.7925927751018937,-0.30882541952833037,0.0083641429229242,-1.3073583663847677,-0.7110081381392347,-1.263556042055012,1.4464950092894857,0.3178268520642728,0.5406198501181778,1,55,0.0,0.0,0.0,0.0,0.0,0.0,0.0,0.0010821223,-0.0028623343,-0.0048345327,0.00019195676,0.005323231
1.3999256640496494,0.7132715735871904,1.1599051480592413,-0.7925863589800458,-0.3088196062615166,0.0083494142212284,-1.3084725377200215,-0.7099355461071651,-1.26552665002893,1.44245566559314,0.31725224200700286,0.5456922768126188,1,56,0.0,0.0,0.0,0.0,0.0,0.0,0.0,0.0023212433,-0.006387949,-0.010716438,0.0005236268,0.010838509
1.3999514175784753,0.7132876447018693,1.1599306803493012,-0.7926034382760405,-0.3088050791653196,0.008360592624136546,-1.30552786415557,-0.708141473516942,-1.2684677897400385,1.4468517181193117,0.31872252471687906,0.5423427931935263,1,57,0.0,0.0,0.0,0.0,0.0,0.0,0.0,0.0013962984,-0.0028272867,-0.0039618015,0.0003490448,0.004363358
1.3999310215571101,0.713277854057706,1.159906140939474,-0.7925816470034058,-0.3088208627756933,0.008362225265470632,-1.3081380527609394,-0.7067100644652059,-1.2744929461529053,1.428657115075306,0.3184839090640516,0.5587641518001698,1,58,0.0,0.0,0.0,0.0,0.0,0.0,0.000104665756,0.00033164024,-0.00055861473,-0.0004887581,8.7291e-05,0.0004886985
1.3999356292173357,0.7132745645662687,1.1598971807489467,-0.7925831326059263,-0.30882262538627225,0.008342793462192008,-1.3083828526400134,-0.7062391262170062,-1.2757653165090612,1.4285671839359466,0.3188910909698208,0.559683250314579,1,59,0.0,0.0,0.0,0.0,0.0,0.0,0.0003489256,0.0007853508,-0.0010994673,-0.0010122061,0.0002617836,0.001116991
1.3999455444162132,0.7132487239015355,1.1598869635147226,-0.7925803565337455,-0.3088436958551096,0.008360214155157397,-1.308751845855096,-0.7055489593660458,-1.2779941071230876,1.4225737319304843,0.3190686382377948,0.5652635099250339,1,60,0.0,0.0,0.0,0.0,0.0,0.0,0.0,0.0,0.0,0.0,0.0,0.0
1.3999529228105339,0.7132436612370825,1.159933122722132,-0.7925842671067129,-0.3088060973096328,0.00836332538100455,-1.307971939189324,-0.7055271664180649,-1.2771697887680382,1.4268131825808228,0.3192215647665762,0.5619622617768638,1,61,0.0,0.0,0.0,0.0,0.0,0.0,0.0012568235,0.003194034,-0.00647521,-0.0081682205,0.0013264418,0.009407282
1.3999408805513325,0.7132757900102875,1.1598864556824637,-0.7925786013187367,-0.3088129006188984,0.008336842844547072,-1.306271047889067,-0.7014597486828092,-1.2838527384382608,1.4182197167737935,0.320040788439902,0.5708475669943693,1,62,0.0,0.0,0.0,0.0,0.0,0.0,0.0,0.0,0.0,0.0,0.0,0.0
1.3999383329027981,0.7132819641451268,1.1598970134951396,-0.7926035788953538,-0.30885569501807786,0.008368399213859179,-1.3074581189789156,-0.703225028083741,-1.2834330535063982,1.4149579755892545,0.32008637912799026,0.5757303689257222,1,63,0.0,0.0,0.0,0.0,0.0,0.0,0.0021990538,0.0080807805,-0.013945222,-0.016877294,0.0032288432,0.019617498
1.3999227370166627,0.7132643457882322,1.159913751987077,-0.7926101949744757,-0.308818764100636,0.008366794528954962,-1.3046692575206535,-0.6939455648389257,-1.2966375723911177,1.4021973461025696,0.3233232060540268,0.5906900620662243,1,64,0.0,0.0,0.0,0.0,0.0,0.0,0.002775073,0.012391865,-0.022793889,-0.024469495,0.005340755,0.025534153
1.399954541852148,0.7132855288938499,1.1598947797253054,-0.7925811471959885,-0.3088267682116531,0.008350279956945518,-1.3019022249689274,-0.6819769648955153,-1.319417499714784,1.377463328614873,0.32887855761803225,0.615422971437766,1,65,0.0,0.0,0.0,0.0,0.0,0.0,0.0011519194,0.0037001371,-0.006876707,-0.006911516,0.002146721,0.009791315
1.399950436970433,0.7132652331522397,1.1599214061793905,-0.7925754663316023,-0.3088268899164672,0.008354064497576395,-1.300615529900785,-0.6782066356192328,-1.3259334630231092,1.3729183844702881,0.33119993480077037,0.623312128273872,1,66,0.0,0.0,0.0,0.0,0.0,0.0,0.0041538477,0.014817774,-0.02696538,-0.02684319,0.006161034,0.028344154
1.3999349390912175,0.7132848872272215,1.1599238596926553,-0.7926192677066933,-0.30882769162871565,0.008342954596684615,-1.296495968982692,-0.6639964410394762,-1.3529741983937724,1.343377459243685,0.3372355327673889,0.6542879012639711,1,67,0.0,0.0,0.0,0.0,0.0,0.0,0.0014835596,0.0055676103,-0.009791255,-0.00919795,0.0031066835,0.011920631
1.3999424952710176,0.7132483789004712,1.1599344728439225,-0.7925908815823581,-0.3088344531580905,0.008353103772645185,-1.2954624573103395,-0.6581126662207759,-1.3628534688931406,1.3319963833214996,0.3398725990376761,0.6677015312922163,1,68,0.0,0.0,0.0,0.0,0.0,0.0,0.003612876,0.012915492,-0.0233351,-0.022584558,0.0061610043,0.025691211
1.399958283799963,0.7132509352562568,1.15991974496261,-0.7925828746326279,-0.308833949619793,0.008362924869814256,-1.290273696868922,-0.6450331218850242,-1.3839241623173644,1.3206414806317044,0.3465377134362561,0.6816457505478949,1,69,0.0,0.0,0.0,0.0,0.0,0.0,0.0016057491,0.006492555,-0.012042642,-0.011449337,0.0029670298,0.0121126175
1.3999301452748047,0.7132445520765326,1.1599184716902373,-0.7926088313778873,-0.30882091818140694,0.00833166106414918,-1.2883419276583936,-0.6378142166769925,-1.3975250774921206,1.3058198310530524,0.3497340756930638,0.6971464912275304,1,70,0.0,0.0,0.0,0.0,0.0,0.0,0.0021291971,0.00795877,-0.014224529,-0.014032364,0.003769964,0.017051876
1.399958251767719,0.7132612612136594,1.1598813546352533,-0.7925990643011026,-0.3088332948661844,0.00835449496767793,-1.2874571220511632,-0.6302020404056593,-1.4143165611298514,1.285051315022583,0.35308036696184925,0.7230451894930715,1,71,0.0,0.0,0.0,0.0,0.0,0.0,0.000872612,0.0034732223,-0.005899191,-0.006300688,0.0016754866,0.0071558356
1.3999441936735415,0.713244823422081,1.1599028281948276,-0.7926017462482687,-0.3088016184151123,0.008333984235267454,-1.2850419482655404,-0.6266233481257524,-1.4170714648452403,1.2859501786806125,0.35519640661284296,0.7217565483274939,1,72,0.0,0.0,0.0,0.0,0.0,0.0,0.0006982088,0.0034556985,-0.0063005686,-0.0067893267,0.0014660954,0.0077667236
1.3999198515547417,0.7132709643098591,1.159926197196245,-0.7925632688036497,-0.3088388625549475,0.008344969532967844,-1.2858387389533503,-0.6227830729417113,-1.4258557552418387,1.2740012433811394,0.35595770612223515,0.7336085310811412,1,73,0.0,0.0,0.0,0.0,0.0,0.0,0.0003490448,0.0016056895,-0.0030719042,-0.0046949387,0.0005759299,0.005916655
1.399928108665483,0.7132599864235772,1.1599301029410696,-0.7925831361112009,-0.3088334272863247,0.00836324651978288,-1.2871734825730876,-0.6229861153763797,-1.430428537998937,1.2585778864637913,0.3569872648637757,0.7516124495200003,1,74,0.0,0.0,0.0,0.0,0.0,0.0,0.0,-6.979704e-05,0.0004364252,-8.72612e-05,-3.489852e-05,1.7464161e-05
1.3999535532975735,0.7132483652336291,1.15990241311717,-0.7925808555086601,-0.30879559914256133,0.008348335346167276,-1.2854217399950845,-0.6204516778739423,-1.4313370027602272,1.2649813927481437,0.35769654723258926,0.7455642806745445,1,75,0.0,0.0,0.0,0.0,0.0,0.0,-0.0003490448,-0.0030892491,0.0069987774,0.0042586327,-0.00027924776,-0.005637467
1.399914837975321,0.7132698079365316,1.1599311415651363,-0.792578268179671,-0.3088288313687692,0.00837289047752444,-1.2861299798400998,-0.6249603059411519,-1.4199524306532874,1.2749171714099108,0.35635432148559926,0.7337018416581966,1,76,0.0,0.0,0.0,0.0,0.0,0.0,0.0,0.0,0.0,0.0,0.0,0.0
1.3999267096879946,0.713293232616813,1.1599186349539978,-0.792582438800202,-0.3088158436997036,0.00833752376279358,-1.2861260790394617,-0.6251012782716592,-1.4214909202220614,1.2736817605139994,0.3562870479787391,0.7357107518753551,1,77,0.0,0.0,0.0,0.0,0.0,0.0,0.0,0.0,0.0,0.0,0.0,0.0
1.399930330006508,0.7132776546075783,1.1599240683236194,-0.7925929678192839,-0.30883782906759966,0.008359206183598677,-1.2840829844637263,-0.6231570984502817,-1.4225932805185704,1.2772615511726497,0.3578721978891105,0.7320854484977755,1,78,0.0,0.0,0.0,0.0,0.0,0.0,0.0,0.0,0.0,0.0,0.0,0.0
1.3999290724482067,0.7132591201919011,1.1599081118826957,-0.7925894143937167,-0.3088155909917752,0.00835584311495472,-1.2861369134874694,-0.6251452501204287,-1.4215165918402066,1.2721054103553109,0.3566755275676723,0.73700363591855,1,79,0.0,0.0,0.0,0.0,0.0,0.0,-0.0037699938,-0.01570791,0.026843071,0.025987864,-0.0062482655,-0.029164374
1.3999489172380974,0.7132556791439476,1.1599103657724334,-0.7926056519035969,-0.3088386415883998,0.008353757047699133,-1.288959233476296,-0.6409514803850428,-1.393433838074112,1.3032065275923852,0.35047195060008557,0.7024047027121942,1,80,0.0,0.0,0.0,0.0,0.0,0.0,-0.0007853508,-0.0026878119,0.004293561,0.003368497,-0.0013090074,-0.0041015744
1.3999284876677112,0.7132602162241629,1.1599109155635756,-0.7925851776428233,-0.30883202418174843,0.008377831438095609,-1.2906057742946486,-0.6433223182834881,-1.389687311371059,1.301896739502189,0.34885039066883045,0.7034933918048418,1,81,0.0,0.0,0.0,0.0,0.0,0.0,-0.001064539,-0.0020769835,0.0030543804,0.0012043715,-0.0013613403,-0.0018675327
1.399924812372321,0.7132641762037902,1.159913914404351,-0.7925955175840343,-0.3088432421122218,0.00838261748044316,-1.2919583294626957,-0.6456672215221967,-1.3869231041266685,1.3030604831880743,0.3470897254920126,0.7012283107914209,1,82,0.0,0.0,0.0,0.0,0.0,0.0,-0.00078547,-0.00036650896,-0.00045382977,-0.0030019283,-0.0005759895,0.0024434328
1.3999367466093988,0.7132529718171015,1.1599245591664833,-0.7925922589166399,-0.30882323317292953,0.008352472517428287,-1.2926026146844127,-0.6454743798620368,-1.3878952389644266,1.3008089335629105,0.34720234508007436,0.7025815599690687,1,83,0.0,0.0,0.0,0.0,0.0,0.0,-6.9856644e-05,0.0019897223,-0.0070860386,-0.009250402,-1.7434359e-05,0.009128153
1.3999113412662165,0.7132707988897954,1.159921228070419,-0.7925807701626804,-0.308816266076676,0.008308745383308568,-1.2932481627335228,-0.6438372414110869,-1.3948766256081797,1.288257009159766,0.3470294913409225,0.7153696323181119,1,84,0.0,0.0,0.0,0.0,0.0,0.0,0.0,0.0,0.0,0.0,0.0,0.0
1.3999377550694587,0.7132584009170002,1.1599091148256768,-0.7926046071490284,-0.30882958244098596,0.008352553368079775,-1.292709620683725,-0.6440311690323743,-1.394995139037808,1.2903055669323245,0.3473097949831908,0.7133025160024226,1,85,0.0,0.0,0.0,0.0,0.0,0.0,1.7404556e-05,0.005078912,-0.010524392,-0.012391806,0.0007854104,0.013508797
1.3999292699778916,0.7132689106775811,1.159931340030804,-0.7925841540578764,-0.30882351582858214,0.008331878092856446,-1.2928992759818339,-0.6389835027537436,-1.4036742712642107,1.2787743788902586,0.3478226469838949,0.7259609019018977,1,86,0.0,0.0,0.0,0.0,0.0,0.0,0.00062835217,0.009529412,-0.017802238,-0.020717025,0.0036477149,0.022811472
1.39993788317606,0.7132759621565632,1.159933535526022,-0.7925825937594447,-0.3088361212772789,0.008371440298787617,-1.2909094937313579,-0.6288861894104866,-1.4218265476890275,1.2630693301518199,0.3521334461517286,0.7435197597898016,1,87,0.0,0.0,0.0,0.0,0.0,0.0,0.0,0.0,0.0,0.0,0.0,0.0
1.3999356936845573,0.713270416495095,1.1599149020005686,-0.7926001749529701,-0.3088219455624918,0.008358220798687378,-1.2916479901391,-0.6293991672626361,-1.4223076325113588,1.2595013021147743,0.3511937559865804,0.7467179109879623,1,88,0.0,0.0,0.0,0.0,0.0,0.0,0.0016756058,0.016912282,-0.03537786,-0.04003775,0.009512037,0.044261575
1.3999218867433088,0.713277174191042,1.159914610657242,-0.7925898530974846,-0.30882864989436104,0.008371328377978245,-1.2907594664159907,-0.6115378715407722,-1.4589683018505983,1.2161705919386434,0.3609961266196831,0.7952213260384499,1,89,0.0,0.0,0.0,0.0,0.0,0.0,0.0,0.0,0.0,0.0,0.0,0.0
1.3999558466347026,0.7132858957432164,1.1599114028946391,-0.7925911217011299,-0.3088242285553316,0.008381038018600384,-1.290594905897919,-0.612879113320589,-1.4573972415906389,1.2178612545521867,0.3605570534940247,0.7927892992819044,1,90,0.0,0.0,0.0,0.0,0.0,0.0,0.0020942688,0.018535435,-0.037716627,-0.038990736,0.011449367,0.045046926
1.39993573644145,0.7132698386505685,1.159894085651092,-0.7925647602383505,-0.30883835277614247,0.008362714501128831,-1.2877842061456488,-0.5942053115349352,-1.4940045889521942,1.1820786878717875,0.3723792017512391,0.8350571887907849,1,91,0.0,0.0,0.0,0.0,0.0,0.0,0.0023213625,0.014416397,-0.03063047,-0.029269218,0.008517206,0.02981019
1.3999284838715733,0.7132657623629449,1.1599435922783312,-0.7925990352390195,-0.30882000756139366,0.008359586476066449,-1.2859872430049584,-0.5793553861504621,-1.5283879572841421,1.1468362511973245,0.3809137789270154,0.8700573613233612,1,92,0.0,0.0,0.0,0.0,0.0,0.0,0.0,0.0,0.0,0.0,0.0,0.0
1.3999312221100944,0.7132784357468477,1.1599125029570345,-0.7925881359044511,-0.3088284028079236,0.008362393033881971,-1.2865606729370822,-0.578536272985387,-1.526674034143776,1.1490631994079068,0.38032295770574304,0.8674413248617084,1,93,0.0,0.0,0.0,0.0,0.0,0.0,0.0031416416,0.017051816,-0.033004165,-0.030002236,0.010576695,0.036564708
1.3999176554889845,0.7132576452618232,1.1598986131123117,-0.7926125884505894,-0.3088230509769569,0.008352994896577039,-1.2823363030535941,-0.563222576604377,-1.5570806469950045,1.122372314690195,0.3910300910882896,0.901627125083211,1,94,0.0,0.0,0.0,0.0,0.0,0.0,0.0,0.0,0.0,0.0,0.0,0.0
1.3999408181965982,0.7132740128062061,1.1599105119125543,-0.7925717104540497,-0.3088233052575976,0.008356195286915937,-1.2817302383766331,-0.5614568645403089,-1.5609122192197744,1.1232016768452842,0.39307935385189047,0.9024095898893665,1,95,0.0,0.0,0.0,0.0,0.0,0.0,0.0018849373,0.009878635,-0.020507693,-0.020088673,0.0067020953,0.023125589
1.3999205408297122,0.7132735872956953,1.1599005879262516,-0.7925672587608333,-0.3088237644495095,0.008348442603842656,-1.2834273003117913,-0.5537814233213789,-1.5849731262341955,1.083894972328478,0.40097058881985814,0.9447150059325822,1,96,0.0,0.0,0.0,0.0,0.0,0.0,0.0004886389,0.005986452,-0.014887571,-0.01822126,0.004101485,0.018168926
1.3999020758184733,0.7132568723944427,1.1599203158748967,-0.7925909334156748,-0.3088419538492064,0.008377195435841868,-1.278801476111486,-0.5462646576122435,-1.5929367223330193,1.0911942579134046,0.40396740808000675,0.9337510674170166,1,97,0.0,0.0,0.0,0.0,0.0,0.0,0.0,0.0,0.0,0.0,0.0,0.0
1.3999211288544515,0.713230648464284,1.1599494254953784,-0.7925957554448873,-0.30882829984980326,0.008339834715792277,-1.2810151704897688,-0.5460281296132181,-1.595787199881771,1.080150959664326,0.4028700055941087,0.9465999174644453,1,98,0.0,0.0,0.0,0.0,0.0,0.0,-0.0002965927,0.0036652088,-0.011484385,-0.018709898,0.0037175715,0.02049017
1.3999238945832753,0.7132686940143175,1.1599210863902008,-0.7925739679012682,-0.30882655129015507,0.008346937990800777,-1.2816041687998112,-0.5426357631999991,-1.6084785902104837,1.0597527161041889,0.4077788331876056,0.9707944091026945,1,99,0.0,0.0,0.0,0.0,0.0,0.0,0.0,0.0,0.0,0.0,0.0,0.0
1.399926820283139,0.7132713064656845,1.1599039513044038,-0.7925574719034854,-0.30883391791383796,0.008354279156494254,-1.2816936141069148,-0.5441668541619337,-1.6059723354954896,1.06127225125664,0.4062064158038285,0.9678693806476809,1,100,0.0,0.0,0.0,0.0,0.0,0.0,-0.0024260283,0.0018151402,-0.010489345,-0.022846341,0.0025132596,0.023073196
1.3999328259541055,0.7132732855437538,1.1599193518348707,-0.7925857797073063,-0.3088155432268145,0.008354493408949414,-1.2853725321526586,-0.5415081689364162,-1.6206616803414737,1.0277286972257806,0.41001843082298767,1.0022346222554146,1,101,0.0,0.0,0.0,0.0,0.0,0.0,0.0,0.0,0.0,0.0,0.0,0.0
1.3999366236339228,0.713236822774387,1.1599356416255495,-0.7925777280308308,-0.30882563748742703,0.008372055677720645,-1.283602584120686,-0.5415057754155005,-1.617180683304506,1.0389962818410474,0.40894985820802465,0.9907850169740025,1,102,0.0,0.0,0.0,0.0,0.0,0.0,-0.0016754866,5.2332878e-05,-0.0035779476,-0.009302616,0.00089013577,0.009616733
1.39994001718354,0.7132554359095833,1.159908223318733,-0.7925978406265016,-0.30883407357413567,0.008355546811105051,-1.2856582631683229,-0.5411062341470099,-1.6211094133228157,1.0295152920018773,0.4099864244814396,0.9995616386283228,1,103,0.0,0.0,0.0,0.0,0.0,0.0,0.0,0.0,0.0,0.0,0.0,0.0
1.3999118806757793,0.7132683697316639,1.159898004182711,-0.792589732433066,-0.3088469244330774,0.00833542120583106,-1.2858735047871566,-0.5402513550922082,-1.621414614553157,1.0290043731237148,0.4099242654272524,1.0010546684866086,1,104,0.0,0.0,0.0,0.0,0.0,0.0,-0.0005238056,0.00020945072,-0.0020594597,-0.0046076775,0.00033158064,0.004607737
1.399930398217661,0.7132883486486515,1.1599531642138659,-0.7925887566251989,-0.308817860589991,0.008360667678033302,-1.2862933478006313,-0.540761895107742,-1.6237571953676997,1.0238451216936604,0.4101154880358563,1.006216147768268,1,105,0.0,0.0,0.0,0.0,0.0,0.0,-1.7404556e-05,0.0004363656,-0.0010995865,-0.001221776,0.00029671192,0.001413703
1.3999351774489617,0.7132802759563766,1.1599104913694074,-0.7925837825546983,-0.3088203248139207,0.008353201357254127,-1.2858877352645492,-0.5407316492891913,-1.6227390259213808,1.0257519836199385,0.4101438431736678,1.0041187786737105,1,106,0.0,0.0,0.0,0.0,0.0,0.0,1.7404556e-05,0.0013264418,-0.003019452,-0.003211379,0.0007330477,0.003368497
1.3999351122266146,0.7132602037095866,1.1599235367095635,-0.7925618971542522,-0.3088375422373141,0.008376895844864958,-1.2860858288781734,-0.53927471925077,-1.6261979389484842,1.0213898862592679,0.4113338258651931,1.0088742968204893,1,107,0.0,0.0,0.0,0.0,0.0,0.0,0.0,0.0,0.0,0.0,0.0,0.0
1.3999408555846407,0.7132832330806544,1.159919840865433,-0.7925768975333787,-0.30883303667846757,0.008364619479929397,-1.2861025212904156,-0.539200074193034,-1.6271826040342698,1.0207666664531336,0.41135589534361733,1.0093847354079604,1,108,0.0,0.0,0.0,0.0,0.0,0.0,-0.00076782703,0.0017278194,-0.00647521,-0.011658788,0.0020594895,0.012496591
1.399923189534569,0.7132616780131897,1.1599114889556577,-0.7925802096916373,-0.3088184511229593,0.00836413713176299,-1.287507475869638,-0.5355891827955399,-1.6408375811877507,0.9985371142838745,0.415206935828181,1.0335159628310968,1,109,0.0,0.0,0.0,0.0,0.0,0.0,0.0,0.0,0.0,0.0,0.0,0.0
1.3999106842509599,0.7132729464941985,1.1598991812576687,-0.7925705384225856,-0.3088257546997095,0.008363690955047796,-1.2865033630221392,-0.5374073445633651,-1.6338083471859117,1.0099946226133802,0.4133741585312444,1.0211718709444135,1,110,0.0,0.0,0.0,0.0,0.0,0.0,-0.00375247,0.0009948611,-0.011885643,-0.025516689,0.0039619207,0.023561835
1.399932913971925,0.7132687050298295,1.1598851805977894,-0.7925793129696652,-0.30882675792050235,0.008367660340650772,-1.2896864525166287,-0.5363086582405686,-1.642740715311762,0.9899451520711761,0.41652866052080345,1.0396399156273493,1,111,0.0,0.0,0.0,0.0,0.0,0.0,-0.0024957657,0.00010472536,-0.005951643,-0.014294267,0.0021118224,0.013735771
1.399931657860482,0.7132514621288694,1.1599334795814658,-0.7925838579432742,-0.30882851392513017,0.008353898757749537,-1.295791120891524,-0.5394444793587395,-1.6500466057889263,0.9608969201042395,0.4187566658022466,1.0677097999218934,1,112,0.0,0.0,0.0,0.0,0.0,0.0,-0.009093165,-6.979704e-05,-0.017348528,-0.043842673,0.0073827505,0.043633223
1.3999478608210327,0.7132729512337773,1.1598986579984722,-0.7925722598256778,-0.3088274055722008,0.008373957363800446,-1.3022366061334036,-0.537056835539414,-1.667559808592817,0.9263770721449776,0.4266853745986196,1.1011519290391676,1,113,0.0,0.0,0.0,0.0,0.0,0.0,0.0,0.0,0.0,0.0,0.0,0.0
1.399913404090518,0.713289932570397,1.1599378845874069,-0.7925820653392907,-0.3088464185100744,0.008351537095732355,-1.302818020597349,-0.5367198878625716,-1.6708314327099296,0.9192868694862468,0.4278617927419992,1.110020724244799,1,114,0.0,0.0,0.0,0.0,0.0,0.0,-0.0076446533,-0.0014835596,-0.011990428,-0.03331834,0.005619973,0.032341003
1.3999446816562504,0.7132454661552078,1.1599379201547575,-0.7925906019136469,-0.3088236713840013,0.008366774351251612,-1.3148274474911557,-0.5403413075144133,-1.6866688730000743,0.870582248978625,0.43683243283415335,1.1580083348602441,1,115,0.0,0.0,0.0,0.0,0.0,0.0,-0.0051312447,-0.0016929507,-0.0075746775,-0.024085581,0.003979355,0.022986054
1.3999223477316738,0.713291547025322,1.159952322493009,-0.7925927941944536,-0.3088310479497059,0.008370755817466715,-1.315465212214445,-0.5402991073915816,-1.6874810104153675,0.866307317788782,0.43584158930148936,1.1584294107204112,1,116,0.0,0.0,0.0,0.0,0.0,0.0,0.0,0.0,0.0,0.0,0.0,0.0
1.3999130016215944,0.7132755082346826,1.159920853733189,-0.7925682676385428,-0.3088485424529413,0.008380365005866924,-1.3191851541247548,-0.5445124342786892,-1.6885440906256697,0.8512741067423555,0.43816558780836606,1.1746602754678461,1,117,0.0,0.0,0.0,0.0,0.0,0.0,-0.0050963163,-0.0015708208,-0.009128094,-0.025883198,0.003368467,0.024539232
1.399922980471039,0.7132634125722489,1.1598958643654247,-0.7925984671309527,-0.30882890987200534,0.008358849689708391,-1.3201814033755104,-0.5411115232941891,-1.697311432669082,0.8423879742008406,0.4398121715260971,1.1814692194111254,1,118,0.0,0.0,0.0,0.0,0.0,0.0,0.0,0.0,0.0,0.0,0.0,0.0
1.3999154332641826,0.7132615107444665,1.1599105523872895,-0.7925630434294055,-0.3088358784120871,0.008338875117023775,-1.3204123963448735,-0.5419522659908107,-1.6969925578850844,0.8416227616294324,0.4392038768036307,1.1828485074319228,1,119,0.0,0.0,0.0,0.0,0.0,0.0,-0.0008202791,3.4928322e-05,-0.004136443,-0.0068591833,0.0016057193,0.0071733
1.399936143909119,0.713263160695891,1.1599284578634685,-0.7925788927720694,-0.3088220231409321,0.008367942571661735,-1.3204804179769778,-0.5410039180070937,-1.7011560643245038,0.8370234839462278,0.441591957038028,1.1878901377910376,1,120,0.0,0.0,0.0,0.0,0.0,0.0,0.0,0.0,0.0,0.0,0.0,0.0
1.3999356904626878,0.7132692703262187,1.1599306691995448,-0.7925890865535822,-0.3088218529337446,0.008356357901827732,-1.3211661766035687,-0.5417913002182607,-1.7002653307690154,0.836290746682024,0.4409294614200353,1.1881010510463412,1,121,0.0,0.0,0.0,0.0,0.0,0.0,0.0021816492,0.0027401447,-0.0019897223,0.0046251416,0.00047123432,-0.0025656223
1.3999386785750851,0.7132713570339326,1.1599187475926427,-0.7925815451863643,-0.3088094880326564,0.008349035095942507,-1.3189821926627758,-0.538934885635729,-1.7038737426764559,0.8376170038634562,0.4419258076365831,1.189491678298573,1,122,0.0,0.0,0.0,0.0,0.0,0.0,0.0,0.0,0.0,0.0,0.0,0.0
1.3999262403690087,0.713266969202905,1.159913160162471,-0.7925889655283812,-0.3088487675922575,0.008362254251574932,-1.3185327497047017,-0.5388771792770424,-1.7024672969026577,0.8410115953228987,0.4421304815296429,1.1856618000070929,1,123,0.0,0.0,0.0,0.0,0.0,0.0,0.0,0.0,0.0,0.0,0.0,0.0
1.399917770491825,0.7132560411474584,1.159913040326826,-0.7925688976221654,-0.308826880071866,0.00834557734759275,-1.3194176694534399,-0.5385213246533791,-1.7051671701044082,0.8367844890483247,0.44228751983231723,1.19099996919732,1,124,0.0,0.0,0.0,0.0,0.0,0.0,0.0,0.0,0.0,0.0,0.0,0.0
1.3999384755264574,0.713266426051275,1.1599091913040576,-0.7925832579232241,-0.3088435976440261,0.008374094159008303,-1.318834020853594,-0.53911790451285,-1.7026078706297187,0.8404511244154305,0.4413152483188353,1.186127433745004,1,125,0.0,0.0,0.0,0.0,0.0,0.0,0.0027052164,0.0031591058,-0.0022687912,0.005078912,0.0006457567,-0.0045553446
1.399947048694809,0.7132633398065693,1.1599405350299847,-0.7925674274614986,-0.30883586761099346,0.00837201963678498,-1.3166407776578641,-0.5367474691679739,-1.7060398022756822,0.8411898026900407,0.44296510389490784,1.1869475890272714,1,126,0.0,0.0,0.0,0.0,0.0,0.0,-0.0010994673,-1.7523766e-05,-0.0026704073,-0.0072081685,0.0006457865,0.005899191
1.3999295410474928,0.7132626000794163,1.1599121663947327,-0.7925877694429021,-0.30883367104927695,0.008362060999537187,-1.3172638203067109,-0.5348081767383814,-1.7102508355705694,0.8352376830326597,0.44395221512253336,1.1906795840320965,1,127,0.0,0.0,0.0,0.0,0.0,0.0,0.0,0.0,0.0,0.0,0.0,0.0
1.3999478954262974,0.7132780111835069,1.1599075301805024,-0.7925900676799577,-0.3088162807888078,0.008360544558990116,-1.3164948862530381,-0.5358962064262747,-1.7075809817046914,0.8385656256030506,0.44279702723037817,1.1873296566479323,1,128,0.0,0.0,0.0,0.0,0.0,0.0,-0.0059167147,-0.0016580224,-0.0061610937,-0.023247778,0.003961891,0.022410154
1.3999116147596777,0.7132731902217251,1.1599196364930047,-0.7925713062231663,-0.3088518476137022,0.008355640066326896,-1.3235435591533686,-0.5387146223945737,-1.7115786891074434,0.8158005192258937,0.4459253528886604,1.2087726562618395,1,129,0.0,0.0,0.0,0.0,0.0,0.0,-0.0064578056,-0.0036477447,-0.0060038567,-0.022986054,0.0040666163,0.021903753
1.399939420533588,0.7132844303239929,1.1599295343594176,-0.7925824569455918,-0.30882769166600577,0.00835728602397565,-1.330997779865425,-0.5423778968596599,-1.723813396850572,0.7802738423973821,0.4543712502566404,1.2440096390263475,1,130,0.0,0.0,0.0,0.0,0.0,0.0,0.0,0.0,0.0,0.0,0.0,0.0
1.3999393597599563,0.7132654911889313,1.1599014063426254,-0.7925602442997891,-0.3088832071730296,0.008355978075486907,-1.334061350876805,-0.5458655711176648,-1.7185676113511714,0.7789152047828776,0.4508339603359102,1.2457805561340727,1,131,0.0,0.0,0.0,0.0,0.0,0.0,-0.011379361,-0.0066322684,-0.009128094,-0.039357126,0.0068591535,0.033300996
1.3999266345856205,0.7132902349040648,1.1599467251250108,-0.7925681822590019,-0.30883255045771846,0.008352318799947689,-1.3450129162758024,-0.5508447749919699,-1.7335692635555366,0.733265126605581,0.4630419205968224,1.2856300778365766,1,132,0.0,0.0,0.0,0.0,0.0,0.0,0.0,0.0,0.0,0.0,0.0,0.0
1.3999370059997231,0.7133004186368129,1.1599426783786488,-0.7925777938451591,-0.3088483110004018,0.008368079115161041,-1.3473756571804512,-0.5561034801564555,-1.7273088131601564,0.729842282870692,0.4611226589597122,1.2885242149399292,1,133,0.0,0.0,0.0,0.0,0.0,0.0,0.0,0.0,0.0,0.0,0.0,0.0
1.399928839738989,0.7132612601322449,1.1599423116075915,-0.7925859575142276,-0.308815760303999,0.008350329411150256,-1.3446448574425356,-0.5523218710445791,-1.7294217351707952,0.7387072197300305,0.4606280395386921,1.2786069020802189,1,134,0.0,0.0,0.0,0.0,0.0,0.0,-0.012549043,-0.007574737,-0.010140419,-0.042725682,0.0087091625,0.040927887
1.3999147002814205,0.7132863550572536,1.159939136164367,-0.7925765652650382,-0.3088227859423013,0.008351647815798708,-1.3533618384703943,-0.5554894058427787,-1.7389219563668512,0.7098230424251852,0.4659558046590181,1.3060993971498829,1,135,0.0,0.0,0.0,0.0,0.0,0.0,0.0,0.0,0.0,0.0,0.0,0.0
1.3999134810797738,0.713297071860238,1.1598921891483438,-0.7926030035380807,-0.3088587669289137,0.008355095279523472,-1.3535900317650589,-0.552757499687572,-1.745761646240163,0.7014342637939016,0.4703166963357113,1.3156047785572367,1,136,0.0,0.0,0.0,0.0,0.0,0.0,-0.010314941,-0.0061609745,-0.00841248,-0.037053347,0.0065799057,0.032724857
1.399921684638122,0.7132469594842485,1.1599145820137409,-0.7925713061858761,-0.3088217199048425,0.008349467795995364,-1.3643603763565806,-0.5625432305895711,-1.745440888331891,0.67197317935853,0.4724439975859517,1.3383454921571079,1,137,0.0,0.0,0.0,0.0,0.0,0.0,0.0,0.0,0.0,0.0,0.0,0.0
1.3999148746054413,0.7132532162503442,1.15991753704977,-0.7925678606537815,-0.30880044658687955,0.008361389208988585,-1.3644165083367017,-0.5613390951982303,-1.7471243402563987,0.6715896556912664,0.4725670247783508,1.33923070775555,1,138,0.0,0.0,0.0,0.0,0.0,0.0,-0.0012216568,-0.00071561337,-0.000977397,-0.004502952,0.00059342384,0.0049045086
1.3999463744950833,0.7132598306625961,1.1599067045950961,-0.7925601228401579,-0.3088294247129491,0.008369765361094217,-1.364315658066262,-0.5620749368645066,-1.749405880964279,0.6680329600458192,0.47380803138776795,1.344883250812867,1,139,0.0,0.0,0.0,0.0,0.0,0.0,0.0,0.0,-1.7404556e-05,-1.7464161e-05,-1.7464161e-05,5.2332878e-05
1.3999147739816846,0.7132574076042018,1.1598979532369,-0.7925843656795111,-0.308807625188003,0.008345413569228091,-1.3644806488575878,-0.5621985326737767,-1.7476877436855143,0.6697895573952677,0.4732165450861976,1.342215458494744,1,140,0.0,0.0,0.0,0.0,0.0,0.0,0.0006457567,0.00010472536,0.00041890144,0.0031590462,-1.7464161e-05,-0.0024434328
1.3999450123155208,0.7132384379900313,1.1599124247111006,-0.7925965971135378,-0.3088270293462245,0.008373350884163121,-1.3644357248258034,-0.56439456177307,-1.7444160868533025,0.6727990548491565,0.4733362704841002,1.3416020525505177,1,141,0.0,0.0,0.0,0.0,0.0,0.0,0.00064587593,0.0001745224,0.0007504225,0.0020071864,-0.00019195676,-0.0018501282
1.3999349318615886,0.7132597879765546,1.1599051542494072,-0.7925731776109944,-0.30881313175820063,0.008357850282300098,-1.3633089561450558,-0.5618075262716418,-1.747558074243973,0.6736317241791066,0.47382413951779434,1.3391895143442092,1,142,0.0,0.0,0.0,0.0,0.0,0.0,0.0,0.0,0.0,0.0,0.0,0.0
1.3999221161504833,0.7132984423032991,1.1599265440319848,-0.7925978442641564,-0.30882356183717646,0.008345731642138513,-1.36482239593929,-0.5637773493664439,-1.745624357050243,0.6712019451432472,0.4733907863186735,1.3427081946931152,1,143,0.0,0.0,0.0,0.0,0.0,0.0,0.00036644936,0.000174582,0.004188776,0.003944397,-0.002321273,-0.004049182
1.3999307156650291,0.7132736762998394,1.1599076977177147,-0.7925747503727285,-0.3088131698020838,0.008366187970076057,-1.3627625089496065,-0.5611126943493578,-1.743338828396032,0.6790600083990364,0.47166117715880834,1.3349658534864406,1,144,0.0,0.0,0.0,0.0,0.0,0.0,-0.0008727312,-0.0010821223,0.003124237,-0.0006980896,-0.0018326342,0.000104784966
1.399922724030366,0.713232938930071,1.1599312504076433,-0.7925678426575523,-0.30880384471199906,0.008361834826351442,-1.3640265635841369,-0.5622435699101507,-1.7386965996582093,0.6788816185767179,0.4687512193000929,1.3335852309619471,1,145,0.0,0.0,0.0,0.0,0.0,0.0,-0.004241109,-0.0051487684,0.0055326223,-0.00705117,-0.0021991134,0.0038223267
1.3999379777513534,0.713258640797115,1.1599192250073214,-0.7925916949757479,-0.30882267352599896,0.008367891471096614,-1.3691444873576954,-0.5686014210915927,-1.7346565893103523,0.6658982245735672,0.4679136105982709,1.3429471620311983,1,146,0.0,0.0,0.0,0.0,0.0,0.0,0.0,0.0,0.0,0.0,0.0,0.0
1.3999473407967573,0.7132662841976575,1.1599188929664508,-0.792572489040808,-0.3088242042011308,0.008358196425841489,-1.3725574846152122,-0.5741750043482453,-1.7335554674997316,0.6556273492912024,0.47171635994571065,1.3531154311770401,1,147,0.0,0.0,0.0,0.0,0.0,0.0,-0.0086045265,-0.00989598,0.0070860386,-0.018692434,-0.0018675029,0.013910174
1.3999327891841473,0.7132697931383993,1.1599160740749164,-0.7925989204450037,-0.3088337176321397,0.008360542401754597,-1.3772216748535495,-0.578327084891734,-1.7267286498454921,0.6504009733159872,0.464653673632863,1.3543043513703117,1,148,0.0,0.0,0.0,0.0,0.0,0.0,-0.007208109,-0.007574737,0.003944516,-0.01776743,-0.0001745224,0.014381528
1.3999430415904464,0.7132650651078811,1.159921334008023,-0.7925770217151914,-0.308833584758924,0.008369061449737588,-1.3832841537988299,-0.5861177481447966,-1.72251771397313,0.6324274549800282,0.46593787035503587,1.3694215736935416,1,149,0.0,0.0,0.0,0.0,0.0,0.0,0.0,0.0,0.0,0.0,0.0,0.0
1.3999330419964882,0.7132674618580706,1.1599440089622621,-0.7925717246149864,-0.3088195863336573,0.00835961301919941,-1.3875002809037746,-0.5885270345634066,-1.7225293866096458,0.6256741260175053,0.46494772549912855,1.3753231156521586,1,150,0.0,0.0,0.0,0.0,0.0,0.0,-0.005951643,-0.005515218,0.0021291971,-0.014974952,1.7464161e-05,0.013159871
1.3999333332288766,0.7132603174520201,1.15994260738565,-0.7925770837697398,-0.3088278774334431,0.00835312493480865,-1.3932346665593325,-0.598155045184765,-1.7123231232873997,0.6149728552246657,0.463125545362115,1.3838232663053533,1,151,0.0,0.0,0.0,0.0,0.0,0.0,-0.0063530207,-0.0060388446,0.0018850565,-0.016196668,-1.7464161e-05,0.013054967
1.3999371319304441,0.7132586739741668,1.1599295671784837,-0.7925887058919419,-0.3088192377042609,0.00836676018472139,-1.3960409729385963,-0.5963682100264905,-1.7204969592318036,0.6018282823203293,0.4657098756123137,1.3946149132741434,1,152,0.0,0.0,0.0,0.0,0.0,0.0,0.0,0.0,0.0,0.0,0.0,0.0
1.3999225409990939,0.7132918239681227,1.159895154219154,-0.7925734771628167,-0.30883515672264866,0.008355595720873514,-1.3975344964917915,-0.5995922506301647,-1.7173123489760638,0.6001235725813465,0.4651710574779534,1.3965541167862017,1,153,0.0,0.0,0.0,0.0,0.0,0.0,-0.0024085045,-0.0024784207,0.0012216568,-0.005759597,0.0,0.0049393177
1.3999239053936916,0.7132642641377068,1.159925965184353,-0.792575189761703,-0.3088184860055695,0.00837082307026286,-1.3979914354117349,-0.5992047497335383,-1.7178628522419952,0.5984255475657658,0.46461682392627535,1.3967075875853188,1,154,0.0,0.0,0.0,0.0,0.0,0.0,-0.0010646582,-0.0014835,0.0026704073,-0.0013962984,-0.00012218952,0.0010123253
1.399945399879569,0.7132524373559421,1.1599166211886254,-0.7925878792880482,-0.308832530081445,0.008340787934215107,-1.4001457132302773,-0.603268494355995,-1.7128765081852932,0.5948720615685616,0.46516613915146227,1.4009857298659136,1,155,0.0,0.0,0.0,0.0,0.0,0.0,3.4928322e-05,-0.00013959408,0.0014311075,0.00062841177,-0.0007330179,-0.0010646582
1.3999106074332388,0.713232649938821,1.1599062374687714,-0.7925964075061466,-0.30882531426567833,0.008355303436902651,-1.399240182935946,-0.6005501369160653,-1.7147235271044954,0.5962314525418514,0.46478915969915996,1.3991690156605634,1,156,0.0,0.0,0.0,0.0,0.0,0.0,0.0,0.0,0.0,0.0,0.0,0.0
1.3999404987598003,0.7132569600328348,1.1599041652100606,-0.792580722953343,-0.3088380710042665,0.008360339520932476,-1.3994058928890805,-0.6004236481339442,-1.7147388594110227,0.5968183171880397,0.46413354135034574,1.39779348592361,1,157,0.0,0.0,0.0,0.0,0.0,0.0,1.7404556e-05,-0.0009250641,0.005515337,0.005829394,-0.0035779476,-0.005602479
1.3999346336298377,0.7132721001493624,1.1599150828951148,-0.792583086843447,-0.30883287854396796,0.00835053173262004,-1.399661392032445,-0.6012372868745868,-1.7100209142996354,0.6010995633460701,0.46034352402379114,1.394001992013369,1,158,0.0,0.0,0.0,0.0,0.0,0.0,1.7523766e-05,-0.00089007616,0.0028275251,0.0023910403,-0.0013962388,-0.0024260283
1.3999202589366433,0.7132620466338387,1.1599314281250683,-0.7926012382966813,-0.3088324300105149,0.008394687528268734,-1.400851291536234,-0.6061713353688905,-1.6988208215810527,0.6051749210432992,0.45665911592549874,1.388708156949326,1,159,0.0,0.0,0.0,0.0,0.0,0.0,-1.7523766e-05,-0.0026005507,0.006230712,0.0043109655,-0.0029496253,-0.0043109655
1.3999288819887357,0.7132661965508751,1.1599434046156218,-0.7925782148174579,-0.3088349002968917,0.00836463815111045,-1.399893524775046,-0.6066541854395342,-1.6966825225113986,0.608442334285826,0.45523906414119464,1.3862202584553907,1,160,0.0,0.0,0.0,0.0,0.0,0.0,0.0,0.0,0.0,0.0,0.0,0.0
1.3999321959909925,0.7132585319471499,1.1599447236392868,-0.7925751726865407,-0.30882516091364126,0.008350777191342154,-1.4000378283117323,-0.6063631803690416,-1.6984116087357457,0.6073626321282604,0.45642777366765613,1.3880070536673434,1,161,0.0,0.0,0.0,0.0,0.0,0.0,-0.00031411648,-0.0073827505,0.0155159235,0.008482337,-0.006911516,-0.009808779
1.399930076713124,0.7132584667266674,1.1599240556897146,-0.7925903062083043,-0.3088345024034704,0.008345360594832638,-1.3999546935473381,-0.6122894700389381,-1.6843677624960864,0.6161839073339569,0.44881315442569536,1.377559062461429,1,162,0.0,0.0,0.0,0.0,0.0,0.0,0.0,0.0,0.0,0.0,0.0,0.0
1.3999421080798709,0.7132627064027403,1.1599274867849254,-0.7925655581432741,-0.30884638450518126,0.008357845130198934,-1.4002179882506518,-0.613511557255448,-1.6831589928309783,0.6179918672486971,0.4490482997356684,1.375593280056417,1,163,0.0,0.0,0.0,0.0,0.0,0.0,-0.0032289028,-0.010559261,0.022113442,0.0090408325,-0.010908306,-0.012863159
1.3999122939625772,0.7132230313831336,1.159916471554417,-0.7925837480762202,-0.30884299451304476,0.00835271223719541,-1.402654213808299,-0.6218609517816965,-1.6647008872393605,0.6250608584717275,0.4394692554927719,1.3648204050334816,1,164,0.0,0.0,0.0,0.0,0.0,0.0,0.0,0.0,0.0,0.0,0.0,0.0
1.3999465348949598,0.7132370695904708,1.15992342495656,-0.7925777637408163,-0.30885537110086775,0.008354437313367912,-1.402963142275221,-0.6225006880809706,-1.6631037053408577,0.6256979889148253,0.4390761447757311,1.3640804402254665,1,165,0.0,0.0,0.0,0.0,0.0,0.0,-0.0033160448,-0.007522404,0.015062213,0.0038222075,-0.007696897,-0.006911397
1.3999493841089845,0.7132605330618369,1.1598811539992986,-0.7926062406554941,-0.30882153618370245,0.008342743556776383,-1.4064855866578114,-0.6303873854524779,-1.6491973545326268,0.6275296615112359,0.4319606534191875,1.359430166175625,1,166,0.0,0.0,0.0,0.0,0.0,0.0,0.0,0.0,0.0,0.0,0.0,0.0
1.3999229981130117,0.7132628507102832,1.1599108360162151,-0.7925939103969607,-0.3088177655970479,0.008352166980536023,-1.4059896439145867,-0.6289286430733008,-1.64935272500475,0.6296152121357999,0.43152526410548875,1.3580765475774914,1,167,0.0,0.0,0.0,0.0,0.0,0.0,0.0,0.0,0.0,0.0,0.0,0.0
1.3999456849870493,0.7132666709487803,1.1599429988166874,-0.7925773027226191,-0.30883759574868774,0.008344434255154172,-1.406818086111945,-0.6317669029307408,-1.645708649501656,0.630195744611712,0.4305898570747612,1.3563745588575027,1,168,0.0,0.0,0.0,0.0,0.0,0.0,0.0,0.0,0.0,0.0,0.0,0.0
1.399926108876461,0.7132495948429584,1.1599034435635058,-0.7925786650737162,-0.3088138429113055,0.008359999017061035,-1.4059522227018593,-0.6308067120231922,-1.6476638077498746,0.6298420671703544,0.4316986176879442,1.3574699674451804,1,169,0.0,0.0,0.0,0.0,0.0,0.0,-0.0038746595,-0.008831263,0.016440988,0.0034732223,-0.00898844,-0.006108761
1.3999302351478093,0.7132743508862174,1.1599141788102014,-0.7925562074278604,-0.30883368668131034,0.008345536291131118,-1.4102146077195272,-0.6394459158311665,-1.6304661686445463,0.632946616104449,0.4223401655910509,1.3515372025126915,1,170,0.0,0.0,0.0,0.0,0.0,0.0,0.0,0.0,0.0,0.0,0.0,0.0
1.39994481624761,0.7132430531763426,1.1599381980782895,-0.7925772055593889,-0.3088292075574553,0.00835657275651891,-1.410134827457598,-0.6400668305171161,-1.6303402168612358,0.633685754901925,0.42155673425786905,1.3504484698239478,1,171,0.0,0.0,0.0,0.0,0.0,0.0,-0.00076806545,-0.00012218952,-0.00024449825,-0.00054109097,-0.00038394332,0.00055861473
1.3999404656694483,0.7132552069629422,1.1599217376329412,-0.7925775169564292,-0.30882660596684613,0.008372681816728154,-1.4113694804167674,-0.6407015264246418,-1.6295098345343675,0.6321877870645224,0.4211665605232433,1.3518262863732469,1,172,0.0,0.0,0.0,0.0,0.0,0.0,-0.0004361868,0.0009948015,-0.003647685,-0.002600491,5.236268e-05,0.0026528835
1.3999345358177588,0.7132501010158053,1.1599340764793975,-0.7925680225191611,-0.3088116683060328,0.008359368634433786,-1.4110358966524779,-0.6374095992168807,-1.6364001090791438,0.6294534991861459,0.4222045103683353,1.3550836399132578,1,173,0.0,0.0,0.0,0.0,0.0,0.0,0.0,0.0,0.0,0.0,0.0,0.0
1.3999409937940777,0.7132648168300233,1.159930141592316,-0.7925886365322519,-0.3088188855845059,0.008344860929117837,-1.416206302665015,-0.6494628440462666,-1.6188904551004673,0.6264969328086618,0.4175214020218416,1.358181665527698,1,174,0.0,0.0,0.0,0.0,0.0,0.0,-0.0008378029,0.00040143728,-0.0013612509,-0.0031765103,0.00015705824,0.003019333
1.3999523868092911,0.713286805350802,1.1599471158624513,-0.7925851204695563,-0.30882743515075245,0.008343366697655358,-1.4125004207489475,-0.639400388897391,-1.6335893160148034,0.6288396479805086,0.4210002817436911,1.3561276449421382,1,175,0.0,0.0,0.0,0.0,0.0,0.0,-0.0006982088,-0.00036650896,0.0007504225,-0.0016057491,0.0,0.0009599924
1.3999520863886081,0.7132578412737987,1.159935616751151,-0.7925996381201569,-0.3088459369300852,0.008379720893004277,-1.4127533499411968,-0.6378625703043043,-1.6356985616774806,0.6261655807887689,0.42170672298870604,1.3578019612743855,1,176,0.0,0.0,0.0,0.0,0.0,0.0,0.0,0.0,0.0,0.0,0.0,0.0
1.399929488714488,0.7132556121577761,1.159949146456871,-0.792600664117777,-0.3088475905061128,0.008337000686318914,-1.4126837471232045,-0.6387492464046436,-1.6349404502489673,0.6256886027907901,0.4220372677801529,1.3585172026808416,1,177,0.0,0.0,0.0,0.0,0.0,0.0,-0.0020245314,-0.0052708983,0.007993579,-0.0017976761,-0.00050613284,0.00080275536
1.3999323232361913,0.7132791349335416,1.1599052186271321,-0.7925892411100912,-0.3088274291843275,0.008350110981265382,-1.4148452170551384,-0.6431494688724317,-1.628372982268659,0.6237294451865536,0.4215834016943499,1.3592688327856568,1,178,0.0,0.0,0.0,0.0,0.0,0.0,-0.0011868477,-0.003682673,0.004886985,-0.0012391806,-0.0009948611,0.00047123432
1.399929481756145,0.7132616843637033,1.1599202085090798,-0.7925963510786828,-0.3088388881210784,0.008340502149918416,-1.4164722334801252,-0.6500208982732483,-1.6182352002568028,0.6229284923816476,0.4195280684926389,1.3590102681993061,1,179,0.0,0.0,0.0,0.0,0.0,0.0,-0.0031590462,-0.010053098,0.012670994,-0.003804803,-0.0030543208,0.0013962984
1.3999222671998532,0.7132851531134909,1.1598985200323535,-0.792580164152899,-0.30881390128904457,0.008349865420927593,-1.420901187836574,-0.6618239544780484,-1.6030446949326933,0.6166762339364954,0.41544351153252285,1.3621609494877358,1,180,0.0,0.0,0.0,0.0,0.0,0.0,0.0,0.0,0.0,0.0,0.0,0.0
1.399934634412931,0.7132662070517829,1.1599208846840185,-0.7925792678094219,-0.30883855076822514,0.008367831322075168,-1.4199384905611085,-0.6606583558052608,-1.6042757703609056,0.6185010177340294,0.41588525788241343,1.360432414125513,1,181,0.0,0.0,0.0,0.0,0.0,0.0,-0.0067543983,-0.021415174,0.02569127,-0.007941246,-0.007190764,0.004188776
1.3999497002847583,0.7132628110783055,1.1599070920248997,-0.7925833939129646,-0.30883178127367295,0.008344135307432452,-1.4278262150310213,-0.6844191635655112,-1.5752345911965167,0.6100264412589532,0.40751134478147577,1.3652385129747209,1,182,0.0,0.0,0.0,0.0,0.0,0.0,0.0,0.0,0.0,0.0,0.0,0.0
1.3999439631891477,0.7132703958251617,1.1599248436148601,-0.7925830394402008,-0.3088153995497084,0.00835053933235381,-1.4274209254840013,-0.6820326137829608,-1.5790164491844523,0.6087144625655684,0.4087470114863875,1.3660397778002895,1,183,0.0,0.0,0.0,0.0,0.0,0.0,-0.0060737133,-0.02057743,0.025132775,-0.007278025,-0.0061610043,0.0045030117
1.3999476777198414,0.7132560558360509,1.1599240937107576,-0.7925769956456433,-0.3088363492543759,0.008358281745718161,-1.433106748092641,-0.703000574167569,-1.5528449616308198,0.6029598124834217,0.40132313943268655,1.3694621094772472,1,184,0.0,0.0,0.0,0.0,0.0,0.0,-0.0028275251,-0.009965777,0.010908365,-0.003892064,-0.0025132895,0.0021642447
1.3999457193517926,0.7132694780174709,1.159950416205324,-0.7925820509303745,-0.3088301575819763,0.008354135246324652,-1.4365454479266335,-0.7144029779202462,-1.5373757941176978,0.6004526511169112,0.39674114253244275,1.3697271662827655,1,185,0.0,0.0,0.0,0.0,0.0,0.0,-0.003839612,-0.011431992,0.012845516,-0.006370425,-0.0029495656,0.0050963163
1.3999456960901933,0.7132669805353834,1.1598826220306975,-0.7925480048092242,-0.3088379493041138,0.008321926774734,-1.4386896991370348,-0.7232850710092974,-1.5307656327397794,0.5938051200026112,0.39679491238131814,1.375417089951081,1,186,0.0,0.0,0.0,0.0,0.0,0.0,-0.0018849373,-0.005078912,0.004886985,-0.004363358,-0.0007854104,0.0028624535
1.3999384902271692,0.7132504055309473,1.1599167948637974,-0.7925670006495613,-0.30882704550032003,0.008350180884459355,-1.4411250724151432,-0.726882984629927,-1.5281572919268442,0.5889390259395952,0.3966902683995314,1.3788661538701468,1,187,0.0,0.0,0.0,0.0,0.0,0.0,-0.0014835596,-0.0031590462,0.0027576685,-0.0035430193,-0.00059342384,0.0031415224
1.3999501206902467,0.7132589652214713,1.1599016766589654,-0.7925884674997042,-0.3088243106962225,0.008360924428214619,-1.4432958101464686,-0.7352232810970395,-1.514873647791213,0.5907987087697277,0.39248978814476176,1.37600623151747,1,188,0.0,0.0,0.0,0.0,0.0,0.0,-0.0034383535,-0.005968988,0.0053231716,-0.008395016,-0.0013438761,0.0060563087
1.3999519804882945,0.7132778196687243,1.1599056368259757,-0.7925840522184606,-0.30883002906891205,0.008369969256208578,-1.4471062513278088,-0.7337026910812097,-1.5287381577837251,0.5665069827082235,0.3993794588960991,1.399265784729585,1,189,0.0,0.0,0.0,0.0,0.0,0.0,-0.0009075403,-0.0010821223,0.0017453432,-0.0010297298,-0.0009599626,0.00071561337
1.3999371983423472,0.7132609779128871,1.1599123162564111,-0.7925829312745102,-0.308815756243101,0.008361138072840238,-1.4463727861471376,-0.7358302214588996,-1.5202415753011707,0.5765595614315931,0.3945247656009752,1.3885816647813414,1,190,0.0,0.0,0.0,0.0,0.0,0.0,-0.00071561337,-0.00076794624,0.0031939745,0.0008377433,-0.0020420253,-0.00076794624
1.399928349343607,0.7132556349868096,1.1599316118387504,-0.7925631502284121,-0.30881259885576984,0.008344410853716844,-1.446370417745524,-0.7353994086116659,-1.5189363395924966,0.5790782029807342,0.3933937986864017,1.3869947948646468,1,191,0.0,0.0,0.0,0.0,0.0,0.0,0.0,-0.00024431944,0.0020594597,0.0020071268,-0.0015358925,-0.002007246
1.399933051087828,0.7132665169628105,1.1599433116848243,-0.7925801137291502,-0.3088241385629984,0.008365295434856156,-1.4463702673431218,-0.7379297586404934,-1.5110898908780195,0.5843302311496295,0.3891465599222827,1.381014598614424,1,192,0.0,0.0,0.0,0.0,0.0,0.0,1.7523766e-05,-0.00076800585,0.0047996044,0.0069114566,-0.002984494,-0.006981373
1.3999513212580026,0.7132564315642036,1.1599021082477716,-0.7925633093082171,-0.3088344224384601,0.0083674608145443,-1.4472907587851331,-0.7392555049473764,-1.508034702528112,0.5859052149562037,0.3876361335989674,1.3791624173942745,1,193,0.0,0.0,0.0,0.0,0.0,0.0,0.00019192696,-0.0003489852,0.0025657415,0.0039619207,-0.0016057193,-0.0042409897
1.399932317866409,0.713265342561557,1.1599425353336108,-0.7925886751760405,-0.30879573135853805,0.00835145639424149,-1.4467838567052786,-0.737850010907024,-1.5080295292952919,0.5902194338231622,0.3862485838826172,1.374563645901965,1,194,0.0,0.0,0.0,0.0,0.0,0.0,0.0003490448,-0.00029677153,0.0022165775,0.003368497,-0.0012740791,-0.003560543
1.3999415282291339,0.7132594024634651,1.1599054805065745,-0.7925902000749271,-0.30882397329675654,0.0083489614767845,-1.445581724869588,-0.7383915698067351,-1.5045414515685782,0.5960112910485138,0.38454789990481575,1.369177776834111,1,195,0.0,0.0,0.0,0.0,0.0,0.0,0.0002617836,-0.00012212992,0.0009948015,0.0014835596,-0.0005236268,-0.001658082
1.3999307478427045,0.7132835342601921,1.1599532706250546,-0.7925960943434175,-0.30882230373910036,0.008347907788426916,-1.447418696914808,-0.7401880581738998,-1.5025617365463222,0.5931536720850895,0.3843535778310879,1.3714080809924276,1,196,0.0,0.0,0.0,0.0,0.0,0.0,0.00038409233,-1.7464161e-05,0.00022685528,0.0012217164,-0.0004886985,-0.0013438463
1.3999292803352323,0.7132579594761348,1.1599647621198406,-0.7925874729264986,-0.30885931481080003,0.008344907754366585,-1.4460373100437203,-0.7407055923183692,-1.5010076478070948,0.5962558260164718,0.38309973059614655,1.3678120532247129,1,197,0.0,0.0,0.0,0.0,0.0,0.0,3.4809113e-05,5.2332878e-05,-0.0004014969,0.0,5.236268e-05,0.0
1.3999386583638207,0.7132841915644473,1.1599204450181646,-0.7925759697636228,-0.3088301908783565,0.008356469220401088,-1.4463392352030504,-0.7392871226566307,-1.5037898494177602,0.5963364974182869,0.3839944854328868,1.3681459814743813,1,198,0.0,0.0,0.0,0.0,0.0,0.0,0.00012218952,1.7464161e-05,-0.0009772778,-8.7320805e-05,-5.236268e-05,0.00020945072
1.3999377339483143,0.7132521553901574,1.1598889058806334,-0.7925920354591097,-0.3088398872474121,0.008350424970903733,-1.445979229477304,-0.7394962584503982,-1.5041615225206293,0.5949440271101356,0.38356439971201206,1.3685537695332595,1,199,0.0,0.0,0.0,0.0,0.0,0.0,0.000104784966,0.00013965368,-0.0019897223,-0.0005235672,0.00012218952,0.0009599924
1.3999473278701247,0.7132504793915591,1.1599080359282417,-0.7925844833220287,-0.30883143346093095,0.008366126237155238,-1.4457655111299714,-0.7385882638852165,-1.507027427508765,0.5947492065898057,0.38441661460258625,1.3697546689539593,1,200,0.0,0.0,0.0,0.0,0.0,0.0,0.0,0.0,0.0,0.0,0.0,0.0
1.3999332837112786,0.7132792657697825,1.1599224539358166,-0.7925899234490927,-0.30883995997067415,0.00835288820571203,-1.4452671223348272,-0.7386127431651304,-1.5067523106998906,0.5963211219917849,0.3837554142944286,1.36850925796985,1,201,0.0,0.0,0.0,0.0,0.0,0.0,0.00019192696,0.0005759001,-0.0023561716,-0.0016406178,0.0012217164,0.002233982
1.3999444010440985,0.7132489936920843,1.1599283707760384,-0.7925835930852808,-0.30882392295504607,0.008358211942275354,-1.4454053953536559,-0.7374817871512275,-1.5114382381827065,0.592560046571417,0.386394238487866,1.3727353150479373,1,202,0.0,0.0,0.0,0.0,0.0,0.0,5.2332878e-05,0.00024437904,-0.0009250641,-0.0009075403,0.00062835217,0.00094246864
1.3999461276939156,0.7132699011302247,1.1599337500935791,-0.7925666660897407,-0.3088324062678727,0.008383166794271509,-1.4446872758454123,-0.7364420799234258,-1.5126100346416633,0.5942144954511754,0.38652689584763783,1.3714869223113386,1,203,0.0,0.0,0.0,0.0,0.0,0.0,0.0,0.0,0.0,0.0,0.0,0.0
1.3999373908080288,0.7132698152025184,1.1599091968155426,-0.792583305490547,-0.30882654158166295,0.00836603371282045,-1.4456989951253312,-0.7396627183419466,-1.5081078892536877,0.592703943925459,0.38565875792991083,1.3733716242575111,1,204,0.0,0.0,0.0,0.0,0.0,0.0,1.7523766e-05,5.2392483e-05,-0.00029671192,-0.0012217164,0.00022688508,0.001064539
1.3999471848288156,0.7132681314251936,1.1599245819731427,-0.792563188961697,-0.3088341489226247,0.008344270886981229,-1.4454364183714117,-0.7375339671515938,-1.5105758711166692,0.5931300976471143,0.38584526864377133,1.3724720292453914,1,205,0.0,0.0,0.0,0.0,0.0,0.0,-0.0006982088,-0.0018500686,0.0050441027,-0.00012218952,-0.000610888,-0.00020945072
1.3999154659061206,0.7132565324527202,1.15990360605536,-0.7925796630925324,-0.30882054249147667,0.008367700597704688,-1.446136472458706,-0.739192422508684,-1.506426211979493,0.5909204138858922,0.38625525280499917,1.374386051012327,1,206,0.0,0.0,0.0,0.0,0.0,0.0,0.0,0.0,0.0,0.0,0.0,0.0
1.39992235251973,0.7132846936316481,1.1599077997510394,-0.7925862189704265,-0.3088477589177793,0.008335624075466135,-1.4461884089525399,-0.7389460170180083,-1.5065111152080086,0.5919424753938167,0.3856727403723906,1.3733482830605652,1,207,0.0,0.0,0.0,0.0,0.0,0.0,-0.0032287836,-0.01034981,0.020804286,0.005968988,-0.0087091625,-0.009878397
1.3999531608969922,0.7132592543917141,1.159913174273066,-0.7925798230523851,-0.30884618674429754,0.008375259879113474,-1.4496843469336145,-0.7503903947402734,-1.483478514406416,0.5984320325785246,0.37611701472669345,1.3626380964901152,1,208,0.0,0.0,0.0,0.0,0.0,0.0,0.0,0.0,0.0,0.0,0.0,0.0
1.3999399662414582,0.7132526809874467,1.159927950161725,-0.7925793941549958,-0.3088306536566491,0.00835931610006217,-1.4495077603425053,-0.7503697853065376,-1.4848223645743908,0.5960387921789232,0.3768227002278427,1.3644946478582711,1,209,0.0,0.0,0.0,0.0,0.0,0.0,-0.0033335686,-0.016440988,0.03141594,0.019757152,-0.013002723,-0.021450162
1.3999291004344687,0.7132581799616395,1.1599360762012971,-0.7925775808512467,-0.3088306997081271,0.008358664961734154,-1.454745906397498,-0.7725406667569076,-1.4423792925876033,0.6199030298127638,0.3597290967551214,1.339315579575308,1,210,0.0,0.0,0.0,0.0,0.0,0.0,0.0,0.0,0.0,0.0,0.0,0.0
1.3999345261297764,0.7132628389004907,1.1599058394038153,-0.7925897894483159,-0.3088180367636035,0.008349054430888334,-1.4527792573049432,-0.7667299294433879,-1.4544392962479258,0.6142593006965804,0.3647627656814695,1.3455114975012141,1,211,0.0,0.0,0.0,0.0,0.0,0.0,-0.003892064,-0.018744826,0.03916514,0.033126354,-0.017715096,-0.03623295
1.399944246163165,0.713258011531328,1.1598980657487583,-0.7925653174129438,-0.30882724448618537,0.008363356123009065,-1.4593129202064385,-0.7877576704106126,-1.4149881328539649,0.6418585664541904,0.34718487948245585,1.314953174611251,1,212,0.0,0.0,0.0,0.0,0.0,0.0,-0.0028972626,-0.013578653,0.027035236,0.025621474,-0.012775809,-0.03001976
1.3999384145756977,0.7132791951981625,1.1599365477875245,-0.7925595977947629,-0.3088409326806615,0.008348785270543137,-1.458405029518499,-0.8002217584025008,-1.3831525752686011,0.681237337178198,0.3312958810733541,1.2701854667574357,1,213,0.0,0.0,0.0,0.0,0.0,0.0,0.0,0.0,0.0,0.0,0.0,0.0
1.3999386290463003,0.7132760765553033,1.1599312269297612,-0.7925812740496407,-0.30882204568656035,0.008346564298690596,-1.460332799912091,-0.799825018437058,-1.3840689785826463,0.6761136761430955,0.33204215441395457,1.2748241393424606,1,214,0.0,0.0,0.0,0.0,0.0,0.0,-0.0030719042,-0.014521182,0.03138101,0.029443681,-0.013840437,-0.032009363
1.3999398458818866,0.7132690935559637,1.159913628329191,-0.7925751550333808,-0.30879950078173973,0.008372302665339152,-1.462232172832655,-0.8167863243733076,-1.3479214855084947,0.7128479655662162,0.31671389500387626,1.2356132546727172,1,215,0.0,0.0,0.0,0.0,0.0,0.0,0.0,0.0,0.0,0.0,0.0,0.0
1.3999279169866234,0.7132683158324725,1.159919242858119,-0.7925893711222197,-0.308835238854217,0.008355927535206378,-1.4625866455302778,-0.8181870346763997,-1.3423778925023127,0.7215413148752352,0.31395287442504194,1.2235304194144574,1,216,0.0,0.0,0.0,0.0,0.0,0.0,-0.0020942688,-0.008918643,0.017872095,0.013124883,-0.0084299445,-0.01467824
1.399938787126729,0.7132718708894841,1.1599132188198862,-0.7925932781237226,-0.3088472431744138,0.008370475333965684,-1.4654669475775601,-0.823937390106496,-1.3326745255165104,0.7194115055069854,0.30790637148656097,1.226830818861247,1,217,0.0,0.0,0.0,0.0,0.0,0.0,-0.0016930103,-0.0032462478,0.0057771206,0.001239121,-0.0036477745,-0.0024260283
1.3999332842631729,0.7132583373745746,1.1599129000114274,-0.7925745536252048,-0.30883902527427176,0.008358577039004602,-1.4661334729236837,-0.8259399791779131,-1.3302252799355414,0.7213781569695903,0.30677486614744626,1.225853404212574,1,218,0.0,0.0,0.0,0.0,0.0,0.0,0.0,0.0,0.0,0.0,0.0,0.0
1.3999510153221058,0.7132788726383141,1.1599257023241798,-0.7926036967863171,-0.30884026092087724,0.008392893066303173,-1.4660070663067022,-0.8257718387257502,-1.3314571624251281,0.7200181902705826,0.3069934545153555,1.2258522496368163,1,219,0.0,0.0,0.0,0.0,0.0,0.0,-0.0018849373,-0.0012217164,0.000872612,-0.006806731,-0.0005759299,0.005759716
1.3999482311570288,0.7132848172410569,1.1599114252752585,-0.7925963335970576,-0.30883604811772203,0.008361362641617024,-1.4689715764925149,-0.8296209235380291,-1.3275663737441674,0.7124664846401468,0.30569092284704447,1.2327983851371336,1,220,0.0,0.0,0.0,0.0,0.0,0.0,0.0,0.0,0.0,0.0,0.0,0.0
1.3999204108958931,0.7132815116812914,1.159923684048563,-0.7925862412401076,-0.3088377646227522,0.008353839091635609,-1.4694785916866924,-0.826559089640969,-1.3317387248449404,0.7101893847459709,0.3064554816741087,1.2342335959055224,1,221,0.0,0.0,0.0,0.0,0.0,0.0,-0.0020945072,-0.00029677153,-0.0029146671,-0.014957488,0.00033161044,0.013334274
1.3999282202301713,0.7132628188421158,1.159908470187023,-0.792569891677038,-0.30881511609418194,0.008350562907190362,-1.4710565071723714,-0.8277521008966386,-1.3328568636654592,0.6983666485522427,0.30630257071281813,1.2457058891744088,1,222,0.0,0.0,0.0,0.0,0.0,0.0,-0.0013263226,-0.0007330179,-0.0016406775,-0.008342683,0.00041887164,0.007592082
1.3999298024738596,0.7132677184040882,1.1599313298431335,-0.792580828693309,-0.3088335088967631,0.008374224338942507,-1.4717752448408516,-0.8291703122156169,-1.3345228496569859,0.6891407522030405,0.3073456488484004,1.2538157431079102,1,223,0.0,0.0,0.0,0.0,0.0,0.0,-0.004677534,-0.0035081506,-0.0026179552,-0.022985995,0.0028972626,0.022218108
1.3999431411999108,0.7132813828624478,1.1599358981482608,-0.7925867541214536,-0.3088327085083152,0.008387902159297207,-1.4765585100171699,-0.8311889827072363,-1.3384614070205767,0.6659725154498789,0.3100051858058668,1.276547718802194,1,224,0.0,0.0,0.0,0.0,0.0,0.0,-0.0017104149,-0.0015009642,-0.0005236864,-0.0086568,0.0011693537,0.008307695
1.3999479342341625,0.7132703698078199,1.1599138299924896,-0.7925716415809962,-0.30882741243358947,0.008380666720518211,-1.4787820960582758,-0.8351110752820682,-1.335030729077915,0.6569816230096869,0.3107088313702849,1.2842700632562492,1,225,0.0,0.0,0.0,0.0,0.0,0.0,-0.005602598,-0.005323231,-0.0013263226,-0.025010586,0.0038571954,0.02309072
1.399930976345593,0.7132653622488948,1.1599333078323302,-0.7925713510198306,-0.3088323449069212,0.00837489885446925,-1.4840917771285997,-0.8409704816541494,-1.334167666400672,0.6343698727304954,0.313711706544739,1.3047561802975411,1,226,0.0,0.0,0.0,0.0,0.0,0.0,0.0,0.0,0.0,0.0,0.0,0.0
1.3999438026154059,0.7132602008979089,1.159916437334173,-0.7925636496107217,-0.30881284007460125,0.008363234744017779,-1.484176692972347,-0.8422252822752474,-1.3311522507973736,0.6369746814553486,0.31245474192316375,1.3024364139954354,1,227,0.0,0.0,0.0,0.0,0.0,0.0,0.0,0.0,0.0,0.0,0.0,0.0
1.399925844798764,0.71325459023597,1.159902394181229,-0.792564976239714,-0.30883681164112187,0.008343368351473772,-1.486056219943515,-0.8420734862552026,-1.3351441902083527,0.6252018836277161,0.3139111904107392,1.3147782031807473,1,228,0.0,0.0,0.0,0.0,0.0,0.0,-0.017714977,-0.017750025,-0.0032987595,-0.07140142,0.011990398,0.06316352
1.3999395651336255,0.7132864507456581,1.159918742920186,-0.7925849848163595,-0.30884481049515927,0.008356393053160115,-1.5010582124867926,-0.8585301812991476,-1.330879245310291,0.5742815104602957,0.32022905930629386,1.3560565383463268,1,229,0.0,0.0,0.0,0.0,0.0,0.0,-0.008848786,-0.009005904,-0.0016056299,-0.034784377,0.007208228,0.032009363
1.3999480633737014,0.713275461700297,1.1599021619754282,-0.7925732790327604,-0.30881916895240047,0.008367702877531594,-1.5108987278114525,-0.8662579945064404,-1.339477391495661,0.5288401054803472,0.3311192947946957,1.398102321631066,1,230,0.0,0.0,0.0,0.0,0.0,0.0,0.0,0.0,0.0,0.0,0.0,0.0
1.3999393470309616,0.7132667582748673,1.159922176159581,-0.7925518347096007,-0.308786849894988,0.00835306291382138,-1.5109041113801007,-0.866757697422536,-1.3448717004626203,0.522154884267307,0.334800944975366,1.4066244538529273,1,231,0.0,0.0,0.0,0.0,0.0,0.0,-0.01806426,-0.017488182,-0.0019198656,-0.06272718,0.014154583,0.055134892
1.399946445749113,0.7132690230449402,1.1599236143905518,-0.7925526099793997,-0.3087982542389507,0.008367583749001215,-1.5290275147022536,-0.8845481244549033,-1.3414020419544312,0.46423704664411025,0.3465388418940058,1.458471677984138,1,232,0.0,0.0,0.0,0.0,0.0,0.0,0.0,0.0,0.0,0.0,0.0,0.0
1.3999566356421949,0.7132891528966306,1.1599224859494155,-0.7925874482851636,-0.30882667594182367,0.008362733864508403,-1.529456020808554,-0.8881732453198995,-1.3257298026639508,0.4794144063024754,0.33859906274817564,1.437587849282849,1,233,0.0,0.0,0.0,0.0,0.0,0.0,-0.013264537,-0.013386667,-0.0017802715,-0.04572761,0.010943234,0.040020466
1.3999382073412499,0.71326036718963,1.1599382784982395,-0.7925926511046674,-0.30883063482139134,0.008359104802851864,-1.5430031720969641,-0.8951066177652127,-1.3511769317407107,0.41497887846678544,0.3603362908810063,1.502346383111838,1,234,0.0,0.0,0.0,0.0,0.0,0.0,0.0,0.0,0.0,0.0,0.0,0.0
1.3999390823528932,0.7132718959988105,1.1599165825858562,-0.7925887360624747,-0.30881778278780975,0.008369463072174529,-1.544227823658615,-0.8975375058286057,-1.346727338321499,0.4099719441663001,0.3598708317491695,1.504199984614185,1,235,0.0,0.0,0.0,0.0,0.0,0.0,0.0,0.0,0.0,0.0,0.0,0.0
1.3999163704254642,0.7132713951454043,1.1599137300380913,-0.7925944830656138,-0.3087962374903659,0.008352228908297905,-1.541627297038842,-0.8972155074091008,-1.3414131924921717,0.42512059873191865,0.3553881967658771,1.487632626609858,1,236,0.0,0.0,0.0,0.0,0.0,0.0,0.0,0.0,0.0,0.0,0.0,0.0
1.399944926510872,0.7132914546911671,1.1598913024928492,-0.7925807952962454,-0.3088139932055498,0.00834788325150434,-1.5415669248059796,-0.8960073186766778,-1.347857412064239,0.4197325460938683,0.3587652777747844,1.4956649370541928,1,237,0.0,0.0,0.0,0.0,0.0,0.0,-0.021257997,-0.017750025,-0.010070562,-0.07288495,0.021240652,0.06401873
1.3999328155109974,0.7132766860032371,1.1599153476981052,-0.7925860691721412,-0.30881720714713135,0.008363775495560208,-1.5632056299762838,-0.9121879673889672,-1.3613079379676865,0.3461070291922797,0.3810539711716586,1.5607983997837427,1,238,0.0,0.0,0.0,0.0,0.0,0.0,-0.004695058,-0.0017278194,-0.008185625,-0.019320816,0.0076619983,0.016755104
1.3999431785273568,0.7132845124014906,1.159913067116074,-0.7925787892797674,-0.30883442022342483,0.008349374305845538,-1.5687127156767724,-0.9148467424727257,-1.366830637966955,0.3267331327609904,0.38798252301803365,1.5765825571816536,1,239,0.0,0.0,0.0,0.0,0.0,0.0,0.0,0.0,0.0,0.0,0.0,0.0
1.399930538156429,0.713294398678123,1.1599133588295054,-0.7925960102336064,-0.3088292986060322,0.00834886125669379,-1.5682322366837658,-0.9153943913802646,-1.3648979807386248,0.3275135805788334,0.38753896815549693,1.5770016724817764,1,240,0.0,0.0,0.0,0.0,0.0,0.0,-0.0010122061,0.00031411648,-0.0072431564,-0.008587003,0.0052011013,0.008447409
1.399942222455771,0.7132723500978193,1.1598956012572719,-0.7925697312995356,-0.308807156823645,0.008363642876849809,-1.5693701386794092,-0.914037066596554,-1.3754611698883334,0.31825710486355163,0.3940268319871801,1.585472162584299,1,241,0.0,0.0,0.0,0.0,0.0,0.0,3.4809113e-05,0.002583146,-0.007260561,-0.0029496253,0.0036302805,0.003892064
1.3999506179018033,0.713290796003447,1.1599229667649564,-0.7925866753832895,-0.30882445272883274,0.008343702592463533,-1.5690055102823286,-0.9121594801946153,-1.3808746744435432,0.3165326956465092,0.3968979485792945,1.589075190311068,1,242,0.0,0.0,0.0,0.0,0.0,0.0,6.997585e-05,0.001675427,-0.0028272867,-0.00033158064,0.001413703,0.0006108284
1.3999353686598295,0.7132650565460614,1.1599488633611945,-0.7925754926509943,-0.3088155001827876,0.008369298003570476,-1.5697494137577868,-0.9094848745234413,-1.3884238514217289,0.3116229485705403,0.40072925595798226,1.5941785326812943,1,243,0.0,0.0,0.0,0.0,0.0,0.0,0.0,0.0,0.0,0.0,0.0,0.0
1.3999248901558572,0.7132757776224977,1.1599113963271435,-0.792584322378182,-0.3088237968471969,0.008352326341881716,-1.5709998809095265,-0.9089257686179645,-1.394314910383874,0.3073480668543633,0.40617613531249874,1.5995846605876254,1,244,0.0,0.0,0.0,0.0,0.0,0.0,0.0010471344,0.0035779476,-0.0060737133,-5.236268e-05,0.0030194223,0.00085532665
1.3999213955163563,0.7132557919559918,1.1599361861625088,-0.7925715136272844,-0.3088384494732457,0.008367295865268746,-1.5677218507930606,-0.9031417740682475,-1.4025801638321012,0.30801560902913255,0.40891988822833036,1.59940292103833,1,245,0.0,0.0,0.0,0.0,0.0,0.0,0.0,0.0,0.0,0.0,0.0,0.0
1.3999278449271264,0.7132554872357538,1.159912095215283,-0.7926014889983993,-0.3088405485883268,0.008385382176329682,-1.5677054111985613,-0.9062952508420316,-1.3910085215635994,0.3142772237133094,0.40181856032665364,1.5917336762936969,1,246,0.0,0.0,0.0,0.0,0.0,0.0,0.0008727312,0.0025132895,-0.0050441027,-0.00022691488,0.0028099716,0.0012739897
1.3999407076993404,0.7132585020870577,1.1599308787441176,-0.7925820752081304,-0.30882900944977315,0.008360239120916763,-1.5663029993573847,-0.9043112619898511,-1.3961900125116233,0.3142114880492449,0.4049461504574344,1.5931001567754601,1,247,0.0,0.0,0.0,0.0,0.0,0.0,0.0007853508,0.0028972626,-0.0068416595,-0.0015184283,0.0035081208,0.0017453432
1.3999437901082874,0.7133047248294345,1.159898509412117,-0.7925767524373821,-0.30880951488156866,0.008382501137021298,-1.5661977404112803,-0.9011833648464225,-1.402735406525364,0.31266929619883094,0.40841336756547764,1.5947348248348623,1,248,0.0,0.0,0.0,0.0,0.0,0.0,0.0005759001,0.0037000775,-0.008429885,-0.0024609268,0.0049741864,0.0030891895
1.3999460182708474,0.7132671788407035,1.1599003240107668,-0.7925940776470389,-0.30881889998876083,0.008359115639371166,-1.5651070725451635,-0.8973223684093508,-1.4103526134141602,0.31005757353526936,0.413223173892166,1.5981300792491253,1,249,0.0,0.0,0.0,0.0,0.0,0.0,0.0,0.0,0.0,0.0,0.0,0.0
1.3999319154385046,0.7132764922305356,1.1599101156375258,-0.7925726386265393,-0.30882661149511176,0.008359917460227219,-1.5642224085127154,-0.898126225004954,-1.406936672218496,0.31901239896388994,0.41178801365476275,1.59089269098886,1,250,0.0,0.0,0.0,0.0,0.0,0.0,0.00062835217,0.0066148043,-0.015393972,-0.0046774745,0.0084299445,0.0053756237
1.3999444741887392,0.7132846911704979,1.1599125416045521,-0.7925601202466275,-0.3088179657183985,0.008351254367363939,-1.564928405106711,-0.8912039145355367,-1.42612659859266,0.3057931638135919,0.4220924246878567,1.6037809444822135,1,251,0.0,0.0,0.0,0.0,0.0,0.0,0.00012218952,0.0022514462,-0.005584955,-0.0018675029,0.0029495955,0.0021293163
1.3999237369689734,0.7132523972391924,1.1599173898273025,-0.7925869049899663,-0.30884800969594217,0.008359851527036468,-1.5637935674880865,-0.8873451458446218,-1.434067556027607,0.3040620725302893,0.4261230799432742,1.6053822507579167,1,252,0.0,0.0,0.0,0.0,0.0,0.0,6.9856644e-05,0.005934119,-0.015219331,-0.005916655,0.009494603,0.006195903
1.3999339369080233,0.7132599933558172,1.1599263554929566,-0.7925739409479435,-0.30884607959849264,0.008354256198809782,-1.5648949884315224,-0.8822550445844684,-1.4469350832940089,0.29678597483404967,0.43417549612480666,1.612914453936144,1,253,0.0,0.0,0.0,0.0,0.0,0.0,-3.504753e-05,0.002024591,-0.005445361,-0.0023736656,0.0035430193,0.0024085045
1.3999221912938764,0.7132826823945484,1.1599328110938927,-0.7926018920490492,-0.3088169205890639,0.008364233284429947,-1.5644911800515813,-0.8803260854318599,-1.4534894612196914,0.29569026364017503,0.4382106611125407,1.6144373934371063,1,254,0.0,0.0,0.0,0.0,0.0,0.0,3.504753e-05,0.0025656223,-0.007068634,-0.0027226806,0.004869461,0.0033860207
1.3999513958457726,0.7132776206698074,1.1599244498503913,-0.7925719005350258,-0.3088439864311913,0.008377933270053307,-1.5647959073867788,-0.8784793788374105,-1.4589889749319878,0.2929459612731578,0.44183661409337044,1.6170754827051022,1,255,0.0,0.0,0.0,0.0,0.0,0.0,-0.0001745224,0.0056025386,-0.017610312,-0.0066497326,0.010733783,0.007313013
1.3999420216338316,0.713253205663669,1.1598872158012723,-0.7925885769164797,-0.30883895699972536,0.008354741276615599,-1.5640240676217685,-0.8731117465686641,-1.4755344555624001,0.2874052600267164,0.4523763405193863,1.6233648102877452,1,256,0.0,0.0,0.0,0.0,0.0,0.0,-0.00012230873,0.0026354194,-0.0074350834,-0.002914697,0.0046949387,0.0031415224
1.3999361226630525,0.7132795308393977,1.1599277612572534,-0.792563987444618,-0.3088262507245067,0.008356469611947725,-1.5654283768367776,-0.8692078532655966,-1.4880332789652675,0.2809495636835746,0.46057508780726225,1.6306306387104783,1,257,0.0,0.0,0.0,0.0,0.0,0.0,-0.00027918816,0.0034208298,-0.009302616,-0.003438294,0.006213367,0.0038222075
1.3999287847658413,0.7132677654819778,1.1599267966336364,-0.7925803839261617,-0.3088341021682272,0.008328956289814154,-1.5650925744079112,-0.8642109382537588,-1.500627120411044,0.2791196517860424,0.46787616290182077,1.633885863997142,1,258,0.0,0.0,0.0,0.0,0.0,0.0,-0.0004887581,0.008325279,-0.022933602,-0.0077317953,0.012322038,0.007557273
1.39992968489054,0.7132689483257225,1.1599152757033997,-0.7925996251096215,-0.30882494848560693,0.008377597628818192,-1.5666703766192922,-0.8576198502711725,-1.5187180186405749,0.2708596918569067,0.4772577914484058,1.6400584571367538,1,259,0.0,0.0,0.0,0.0,0.0,0.0,-0.00019192696,0.0036477447,-0.00919795,-0.0029845238,0.006056279,0.0033335686
1.399936919624535,0.7132543166679285,1.1599180503562239,-0.7925801937687408,-0.30882936540854966,0.00834780537101377,-1.5658741886112233,-0.8544586410099225,-1.5253382548162624,0.27085279338872364,0.48208468368910956,1.640667971270968,1,260,0.0,0.0,0.0,0.0,0.0,0.0,-0.00020933151,0.0038571358,-0.00898838,-0.0030194223,0.0057246685,0.0029671192
1.3999215379908547,0.7132527805894531,1.159929881310757,-0.7925815361696046,-0.3088403031258757,0.008370547104464212,-1.5665032282178468,-0.8506661837396113,-1.535063937682034,0.2672758056448128,0.48796675103822973,1.6444779219155645,1,261,0.0,0.0,0.0,0.0,0.0,0.0,-0.00020945072,0.0060039163,-0.01443398,-0.00466004,0.008203059,0.0045552254
1.3999421847633475,0.7132481883254006,1.1599370896656958,-0.7926036730464717,-0.3088442645784641,0.008353466740106532,-1.5664884261462035,-0.8436330000226934,-1.5515680604573812,0.2611418692848069,0.49721880996959816,1.65021094533247,1,262,0.0,0.0,0.0,0.0,0.0,0.0,-5.2452087e-05,0.0014660954,-0.0037174225,-0.0011868179,0.002181679,0.0014138222
1.399935255189614,0.7132544175154261,1.1599120004516745,-0.79258782502924,-0.30883968495204545,0.008358582550489643,-1.5669576634113564,-0.843535005900776,-1.5526917288311661,0.2598726743301628,0.4987489969120076,1.6512234689359109,1,263,0.0,0.0,0.0,0.0,0.0,0.0,-0.000104665756,0.0015184283,-0.0031416416,-0.0013788044,0.0020419955,0.0015883446
1.3999392621361928,0.7132799149354613,1.1599341132437622,-0.7925897986140031,-0.30882900091965,0.008351115886641034,-1.566475453823164,-0.8403728769881488,-1.5595554369682887,0.25772717703331177,0.5022812418655787,1.654318986108368,1,264,0.0,0.0,0.0,0.0,0.0,0.0,0.0,0.0,0.0,0.0,0.0,0.0
1.399931727408487,0.7132598183568447,1.1599328404188713,-0.7925892170840438,-0.3088287208705793,0.008351660923288503,-1.5672778899314592,-0.8411425016054548,-1.557649464833793,0.2579054645455997,0.5010063177819283,1.6536268663177367,1,265,0.0,0.0,0.0,0.0,0.0,0.0,-3.4928322e-05,-0.0005759597,0.0033859015,8.72612e-05,-0.0008202791,0.00015687943
1.3999298136981966,0.7132458489237419,1.1599058032882994,-0.7925778958672967,-0.3088620173402677,0.008368142135524491,-1.5666567840500738,-0.8427182328974688,-1.551799645946341,0.25977248186254187,0.49918325209865755,1.6524864204900434,1,266,0.0,0.0,0.0,0.0,0.0,0.0,0.0,0.0,0.0,0.0,0.0,0.0
1.3999356020533216,0.7132665792410998,1.1599244482655597,-0.7925982807472955,-0.3088514049795518,0.008354522629515568,-1.5666933369868334,-0.8423187541729776,-1.5518360641259685,0.2596719234185308,0.4993390566055324,1.6523803091727858,1,267,0.0,0.0,0.0,0.0,0.0,0.0,-3.4928322e-05,-0.005043924,0.012252212,0.0022864044,-0.005462885,-0.0015707016
1.3999303663681388,0.7132422761091581,1.1599127650061472,-0.7925822771324601,-0.3088261555241371,0.008352383769654036,-1.5669228758535985,-0.84721361650272,-1.5421092298198527,0.2612320396030542,0.49515196211789375,1.6516303388619673,1,268,0.0,0.0,0.0,0.0,0.0,0.0,-0.00013959408,-0.003944516,0.007120967,0.0009948015,-0.0036652088,-0.0011519194
1.3999402923065813,0.7132853128496027,1.1599154236749334,-0.7925994721006538,-0.30882159343154975,0.00836098418242654,-1.566411294722563,-0.8515421627919073,-1.5319969342769333,0.2632828465448785,0.48992467947387996,1.648701915905737,1,269,0.0,0.0,0.0,0.0,0.0,0.0,0.0,0.0,0.0,0.0,0.0,0.0
1.3999347540844993,0.713272363179206,1.1599170536873116,-0.7925648423587318,-0.3088363344166229,0.008350257814050951,-1.5667503700144965,-0.8507145528088454,-1.5345701899627189,0.2624699838327632,0.49138226684988573,1.650033543813276,1,270,0.0,0.0,0.0,0.0,0.0,0.0,-0.0010995865,-0.0048868656,0.0069463253,-0.00015705824,-0.0028797686,-0.00029671192
1.399954258633414,0.7132748992677919,1.15990379360247,-0.792593127270126,-0.3088531157027433,0.008357916598181074,-1.5680521547192772,-0.8548112324392348,-1.532854186372067,0.25978929418461083,0.49168010367356946,1.6540512858129457,1,271,0.0,0.0,0.0,0.0,0.0,0.0,-0.0010646582,-0.0021119118,0.0017977953,-0.0016231537,-0.00047123432,0.00029671192
1.3999225479425208,0.7132597615359696,1.1599193285574232,-0.7926161347294982,-0.30883296953567735,0.008359403376739773,-1.568947304708251,-0.8581732508775218,-1.5253453891509394,0.2601525205617257,0.48727701623729575,1.6503327573884883,1,272,0.0,0.0,0.0,0.0,0.0,0.0,-0.0014486313,-0.0006980896,-0.0016406775,-0.0038746297,0.0010646284,0.0024260283
1.3999546415856021,0.7132632085727221,1.159919410984516,-0.7925513645329412,-0.308819479586857,0.008372079058648388,-1.5716460144512991,-0.8553825362320687,-1.5425235461864282,0.24808213465260456,0.49812540317375653,1.6622194940629405,1,273,0.0,0.0,0.0,0.0,0.0,0.0,0.0,0.0,0.0,0.0,0.0,0.0
1.3999461394626886,0.7132784323217469,1.1599300332420392,-0.7925933156674515,-0.30882850845839327,0.008327543253937104,-1.5702942034555025,-0.8599748120266417,-1.5225154589216543,0.2582799718189837,0.48612526620226165,1.6509399898263446,1,274,0.0,0.0,0.0,0.0,0.0,0.0,-0.00214684,0.0013089776,-0.012932777,-0.007347852,0.009215325,0.0071733
1.39995843957586,0.713254406488727,1.159898138628639,-0.7925878026535149,-0.3088342515525917,0.008352360986301044,-1.572741977273492,-0.8575934691053105,-1.5392174560984893,0.2506509979826804,0.4967300178044843,1.6587457397335479,1,275,0.0,0.0,0.0,0.0,0.0,0.0,-0.0011168718,0.0025481582,-0.009686589,-0.0042411536,0.0055327117,0.003839612
1.3999384901180953,0.7132545514542079,1.1599216554193346,-0.7925786560345824,-0.3088339118318135,0.008372093349168377,-1.5737553044514634,-0.854597418618417,-1.5509115420340345,0.2453731488800768,0.5044100796368146,1.664008331049683,1,276,0.0,0.0,0.0,0.0,0.0,0.0,-0.002059579,0.009197891,-0.02593565,-0.009459674,0.017156601,0.009634256
1.3999295584992857,0.7132697843486435,1.1599361746584957,-0.7925824678212657,-0.3088174889562974,0.008368446482860782,-1.5762526718101442,-0.8463540317665873,-1.5745587186672436,0.2358223942956449,0.5200207022528734,1.6732433669026658,1,277,0.0,0.0,0.0,0.0,0.0,0.0,0.0,0.0,0.0,0.0,0.0,0.0
1.39993285372222,0.7132593353635586,1.1599180772051363,-0.7925674075933035,-0.30883426005474723,0.00834179233710591,-1.5761210661653635,-0.8458347205515674,-1.574931785576992,0.23582544402995104,0.5194611222527311,1.6720073666785027,1,278,0.0,0.0,0.0,0.0,0.0,0.0,-0.000872612,0.008203089,-0.02218318,-0.006230831,0.013386667,0.0067195892
1.3999385175860242,0.7132342710463098,1.1598971022457105,-0.7925890231677751,-0.3088308075680385,0.008378883165923248,-1.5762293598512496,-0.8377083738014166,-1.5986036747645715,0.2283898476801966,0.5346737269690341,1.6807956307883616,1,279,0.0,0.0,0.0,0.0,0.0,0.0,0.0,0.0,0.0,0.0,0.0,0.0
1.3999436643658818,0.7132612142700144,1.1598965541922894,-0.792588692784452,-0.30884119877948485,0.008362303811590487,-1.5766162785660696,-0.8376032465590444,-1.5963968416791081,0.23103326474360644,0.5335955950729412,1.6783295472720374,1,280,0.0,0.0,0.0,0.0,0.0,0.0,-0.00027918816,0.015027285,-0.039601445,-0.008726642,0.023649216,0.0095642805
1.3999425954267828,0.713272074199143,1.1598888444488307,-0.7925884981587382,-0.3088014732519934,0.008357253805280962,-1.5771403382659899,-0.8224645958030712,-1.6386715963266782,0.21951254886198643,0.5597048469901279,1.6906427005455964,1,281,0.0,0.0,0.0,0.0,0.0,0.0,5.2332878e-05,0.014590919,-0.033423066,-0.004415676,0.019303322,0.0065801144
1.3999618624094368,0.7132649567315011,1.1599415819361953,-0.7925964794724185,-0.3088329651177261,0.008355325322495142,-1.5765608127300614,-0.8066702896839458,-1.675219833915592,0.21596974493040758,0.5802057748525206,1.6970937326644504,1,282,0.0,0.0,0.0,0.0,0.0,0.0,0.0,0.0,0.0,0.0,0.0,0.0
1.399941788999194,0.713255210960447,1.1599138342118709,-0.7925877470221959,-0.3088329129907495,0.008380646716214085,-1.5771805682124325,-0.8079860265086851,-1.6704028695059638,0.21531279457059374,0.5770954810947195,1.6967753170108553,1,283,0.0,0.0,0.0,0.0,0.0,0.0,0.0013612509,0.010053098,-0.021467566,-0.0010297447,0.011815906,0.0032461882
1.3999395072667615,0.7132536966370485,1.1599467859937322,-0.7925624581305768,-0.30882311759209136,0.00835714136800293,-1.5746452880389494,-0.7919729088127121,-1.7092849704250495,0.21234926304437368,0.5995337819455673,1.7041432656737738,1,284,0.0,0.0,0.0,0.0,0.0,0.0,0.0011171103,0.0047472715,-0.009843588,-6.982684e-05,0.0051661134,0.0011519194
1.3999385695162954,0.7132394050505599,1.159915046365678,-0.7925959155072879,-0.3088174063586021,0.008349909650781492,-1.5740709574395844,-0.7934634034026988,-1.699440681020925,0.2159448330275431,0.5929452616232459,1.6997240932111068,1,285,0.0,0.0,0.0,0.0,0.0,0.0,0.0,0.0,0.0,0.0,0.0,0.0
1.3999417644641359,0.7132903053824595,1.1599129180076566,-0.7925877141555847,-0.30883340693801886,0.008334109043554703,-1.5743274531169507,-0.7902528123062184,-1.7101350671010163,0.2129474565957598,0.5985844694432662,1.7041749806067965,1,286,0.0,0.0,0.0,0.0,0.0,0.0,0.0017278194,0.0062482953,-0.011484385,1.7464161e-05,0.005497873,0.00089001656
1.3999169166479388,0.7132423136100035,1.1599189913434758,-0.7925695829070892,-0.30883818544775493,0.008367448840675244,-1.5720658523675486,-0.7867613914534964,-1.712979353762092,0.21454108338210442,0.599940866807029,1.7017661741543935,1,287,0.0,0.0,0.0,0.0,0.0,0.0,0.0008202791,0.0012043118,-0.0013438463,0.00024434924,0.00076788664,1.7523766e-05
1.3999299679284167,0.71326014232999,1.1598922560692577,-0.7925548467473622,-0.30881806642046444,0.008346442589215302,-1.5717837166515376,-0.785809568285394,-1.7140666667448854,0.2157722389707571,0.6004490559710955,1.7004752817649698,1,288,0.0,0.0,0.0,0.0,0.0,0.0,0.0003142357,-5.2332878e-05,0.00020945072,0.0005235821,-3.4868717e-05,-1.7523766e-05
1.3999383219842405,0.7132612134524278,1.1599079853888934,-0.7925763891399029,-0.30882894128430044,0.008372739328403326,-1.5701354497087836,-0.7746758206907788,-1.7398296779961526,0.21122126930078078,0.6131028191432528,1.7074756802788467,1,289,0.0,0.0,0.0,0.0,0.0,0.0,0.0,0.0,0.0,0.0,0.0,0.0
1.399943296013722,0.7132640188505194,1.1599055882620735,-0.7925817371262547,-0.3088246093512165,0.008355285817303994,-1.5706819730697947,-0.7837378950087407,-1.720309693175512,0.21552315783506143,0.6045480962667885,1.7027003721455933,1,290,0.0,0.0,0.0,0.0,0.0,0.0,0.0011168718,-0.00024437904,0.0055850744,0.0024434775,-0.0019897223,-0.0015881062
1.3999509456118884,0.7132739816614679,1.1599100047347375,-0.7925660740041036,-0.30881485941485187,0.008378033409037927,-1.5702531386130754,-0.7849726751672088,-1.714395624260154,0.2149832265721027,0.6021578649558854,1.7032677540708354,1,291,0.0,0.0,0.0,0.0,0.0,0.0,0.0,0.0,0.0,0.0,0.0,0.0
1.399906977680316,0.7132683662879179,1.1599372867516278,-0.7926044244123485,-0.30881163610225415,0.008373396146954338,-1.5702220365556752,-0.7865641744363506,-1.7072690640493557,0.21748773416728473,0.5979298567776359,1.7001740565029506,1,292,0.0,0.0,0.0,0.0,0.0,0.0,0.0008727312,-6.979704e-05,0.00094246864,0.0022340268,-0.0015708208,-0.0014486313
1.3999287135006242,0.7132610912675029,1.1599170711167304,-0.7926014032384988,-0.30885365508620316,0.008364747172610203,-1.569570370141143,-0.786099085647606,-1.7082102964870236,0.22010248674596805,0.5969009188954999,1.698574985670591,1,293,0.0,0.0,0.0,0.0,0.0,0.0,0.0012915134,0.0011343956,-0.0009949207,0.002321273,-0.00038391352,-0.0014312267
1.3999198677703661,0.713275330610483,1.1599118774109407,-0.7925792377535563,-0.30881866926431156,0.008362839452983179,-1.5679966281428632,-0.7846128780391709,-1.7107584229393853,0.22285757449550414,0.5980188405047404,1.697650818741553,1,294,0.0,0.0,0.0,0.0,0.0,0.0,0.0,0.0,0.0,0.0,0.0,0.0
1.3999304039044098,0.7132501034918717,1.159878168709766,-0.7925660119234521,-0.30880923545897254,0.008347653409899512,-1.5683669736079442,-0.7848479246933164,-1.708349099270811,0.2226821017783425,0.5965170122343415,1.6972616987606017,1,295,0.0,0.0,0.0,0.0,0.0,0.0,0.0027577877,0.0051662326,-0.005550027,0.0050614476,-3.4928322e-05,-0.0029495955
1.3999477980039006,0.7132869008583492,1.1599084445164798,-0.7925888125965576,-0.30883088006755954,0.008354065599500502,-1.5660811289356527,-0.7802960737185104,-1.7128316053566024,0.22702830033779853,0.5958195514598665,1.6949756144778043,1,296,0.0,0.0,0.0,0.0,0.0,0.0,0.001413703,0.002600491,-0.0023213625,0.0023911148,0.0,-0.0015009642
1.3999235549557225,0.7132663042597613,1.159918976826418,-0.7925863383809637,-0.3088126355082641,0.008355078739474827,-1.5638908157076334,-0.7783049988001565,-1.7154638176053958,0.23009240315695997,0.59573146423968,1.6924207894704797,1,297,0.0,0.0,0.0,0.0,0.0,0.0,0.001204133,0.0023388267,-0.002059579,0.0022165626,5.2332878e-05,-0.0017802715
1.399924220585005,0.7132625991555528,1.1599266354627857,-0.7925889526371743,-0.3088517955715606,0.008353709237990269,-1.562505897774487,-0.7737843617567961,-1.7197164564057406,0.23333801812979843,0.5964719386880708,1.6900467651980635,1,298,0.0,0.0,0.0,0.0,0.0,0.0,0.0031591654,0.005061388,-0.0042585135,0.005096376,-5.2332878e-05,-0.0032986403
1.3999270326580346,0.7132496146570827,1.1599134516801293,-0.7925900164731156,-0.30880617142381767,0.008365523772735448,-1.560296296206219,-0.770431361228939,-1.7230548145590021,0.23603438908524474,0.5966539998978473,1.6885552951942306,1,299,0.0,0.0,0.0,0.0,0.0,0.0,0.0071383715,0.010855973,-0.007103443,0.012897953,-0.0016929507,-0.009739041
1.399930887026347,0.7132592266552962,1.1599190757161824,-0.7925773773029309,-0.3088231125653783,0.008366502778233328,-1.5520768403452896,-0.7590668486130507,-1.728900888688397,0.2502018247588065,0.5939470408351792,1.6772431492218252,1,300,0.0,0.0,0.0,0.0,0.0,0.0,0.0,0.0,0.0,0.0,0.0,0.0
1.3999643920915739,0.713242461338685,1.1598933007380587,-0.7925877377127084,-0.30883799457995653,0.00832279971863825,-1.552710283090402,-0.7593760333435708,-1.729868265180637,0.2502189797939681,0.5946548837214337,1.6779837826947577,1,301,0.0,0.0,0.0,0.0,0.0,0.0,0.010838509,0.013805568,-0.006038904,0.022357672,-0.004729867,-0.016458273
1.399979663376225,0.7132532773894193,1.1598780718262118,-0.7925907473214825,-0.3088350000480587,0.008359434112218508,-1.5413370554543546,-0.7444272878449579,-1.735913722974597,0.27311400790981527,0.5889193726584863,1.660442369251837,1,302,0.0,0.0,0.0,0.0,0.0,0.0,0.0,0.0,0.0,0.0,0.0,0.0
1.3999306737434358,0.7132609381764969,1.159911896622829,-0.7925886598106316,-0.3088233445493026,0.008363376416311899,-1.5414396144338811,-0.7473376982891342,-1.7309769099508545,0.27268045338482205,0.5874219584595266,1.6613177978319391,1,303,0.0,0.0,0.0,0.0,0.0,0.0,0.0125314,0.014608383,-0.0045553446,0.028361619,-0.007417619,-0.021101117
1.3999589296132566,0.7132387886908959,1.1599122802825979,-0.792586191452156,-0.3088398859646308,0.008374155885403344,-1.5304581233981307,-0.7331385361629383,-1.7382400208366868,0.29705494982989195,0.5823457408234584,1.6442927742011009,1,304,0.0,0.0,0.0,0.0,0.0,0.0,0.0,0.0,0.0,0.0,0.0,0.0
1.3999154276184531,0.7132941743554614,1.1599086335104478,-0.7925835529554796,-0.3088736501833896,0.008378208814473192,-1.5293410940951704,-0.7282195904976642,-1.7474528802605014,0.2978096908264265,0.5870312956710245,1.6439773922651855,1,305,0.0,0.0,0.0,0.0,0.0,0.0,0.017994404,0.018849552,-0.0023561716,0.04139921,-0.010070562,-0.03244567
1.3999391132067682,0.7132633739769376,1.1599318369370473,-0.7925829390886623,-0.30883051550780855,0.008349634328238034,-1.5132649553962338,-0.71430332203007,-1.7404381375808715,0.3383418524271705,0.5719056597945013,1.6116834954174508,1,306,0.0,0.0,0.0,0.0,0.0,0.0,0.0,0.0,0.0,0.0,0.0,0.0
